!!!!SEGMENT: pl-sa--294-a-vii-54_lechleitner-ferdinand-simon--exultate-jubilate.krn
!!!cenid: 17xx:424
!!!COM: Lechleitner, Ferdinand Simon
!!!COM-rismid: pe30001903
!!!CDT: ~1700-~1800
!!!CNT:
!!!OTL: Exultate jubilate
!!!PDT: 1726
!!!AGN: Sacred
!!!SMS-siglum: PL-SA
!!!SMS-shelfmark: 294/A VII 54
!!!SMS-shelfwork: W
!!!NIFC-rismid: 1001039778
!!!URL-scan: http://bc.bdsandomierz.pl/dlibra/publication/1790/edition/1771/content
!!!ONB-nifc:
**kern	**fba	**kern	**dynam	**kern	**dynam	**kern	**text	**kern	**text	**kern	**text	**kern	**text	**kern	**kern
*part9	*pat9	*part8	*part8	*part7	*part7	*part6	*part6	*part5	*part5	*part4	*part4	*part3	*part3	*part2	*part1
*staff9	*staff9	*staff8	*	*staff7	*	*staff6	*staff6	*staff5	*staff5	*staff4	*staff4	*staff3	*staff3	*staff2	*staff1
*I"	*	*I"Violino 2do	*	*I"Violino 1mo	*	*I"Baſso	*	*I"Tenore	*	*I"Alto	*	*I"Canto	*	*I"Clarino 2do	*I"Clarino 1mo
*I'b.c.	*	*I'vn 2	*	*I'vn 1	*	*I'B	*	*I'T	*	*I'A	*	*I'S	*	*I'Clar 2	*I'Clar 1
*clefF4	*	*clefG2	*	*clefG2	*	*clefF4	*	*clefC4	*	*clefC3	*	*clefC1	*	*clefG2	*clefG2
*k[]	*	*k[]	*	*k[]	*	*k[]	*	*k[]	*	*k[]	*	*k[]	*	*k[]	*k[]
*C:	*	*C:	*	*C:	*	*C:	*	*C:	*	*C:	*	*C:	*	*C:	*C:
*M4/4	*	*M4/4	*	*M4/4	*	*M4/4	*	*M4/4	*	*M4/4	*	*M4/4	*	*M4/4	*M4/4
*met(c)	*	*met(c)	*	*met(c)	*	*met(c)	*	*met(c)	*	*met(c)	*	*met(c)	*	*met(c)	*met(c)
=1	=1	=1	=1	=1	=1	=1	=1	=1	=1	=1	=1	=1	=1	=1	=1
!LO:SIC:o=:v:wszystkie nuty mają caudy z prawej strony	!	!	!	!	!	!	!	!	!	!	!	!	!	!	!
!LO:TX:a:t=P:mixed beam:problem	!	!	!	!	!	!	!	!	!	!	!	!	!	!	!
!LO:TX:rj:a:t=Allegro	!	!	!	!	!	!	!	!	!	!	!	!	!	!LO:SIC:o=:v:wszystkie nuty mają caudy z prawej strony	!LO:SIC:o=:v:wszystkie nuty mają caudy z prawej strony
!LO:TX:rj:b:t=Exultate	!	!LO:SIC:o=:v:wszystkie nuty mają caudy z prawej strony	!	!LO:SIC:o=:v:wszystkie nuty mają caudy z prawej strony	!	!LO:SIC:o=:v:wszystkie nuty mają caudy z prawej strony	!	!LO:SIC:o=:v:wszystkie nuty mają caudy z prawej strony	!	!LO:SIC:o=:v:wszystkie nuty mają caudy z prawej strony	!	!LO:SIC:o=:v:wszystkie nuty mają caudy z prawej strony	!	!LO:TX:rj:b:t=Exultate	!LO:TX:rj:b:t=Exultate
!LO:SIC:o:s=:v:brak nazwy partii, na stronie tytułowej "Organo"	!	!LO:TX:rj:b:t=Exultate	!	!LO:TX:rj:b:t=Exultate	!	!LO:TX:a:t=Allegro	!	!LO:TX:a:t=Allegro	!	!LO:TX:a:t=Allegro	!	!LO:TX:a:t=Allegro	!	!LO:TX:a:t=Allegro	!LO:TX:a:t=Allegro
8c\L	.	8ee\L	.	8ccc\L	.	8c\	E-	8c\	E-	8g\	E-	8ee\	E-	8cc\L	8ee\L
8G\	.	8gg\	.	8bb\J	.	8G\	-xul-	8d\	-xul-	8b\	-xul-	8gg\	-xul-	8dd\	8gg\
!LO:TX:a:t=Tutti	!	!	!	!	!	!LO:TX:a:t=T.	!	!	!	!	!	!	!	!	!
8c\	.	8ee\	.	16ccc\LL	.	8c\	-ta-	8e\	-ta-	8g\	-ta-	8ee\	-ta-	8cc\	8ee\
!	!	!	!	!LO:TX:a:t=Allegro	!	!	!	!	!	!	!	!	!	!	!
.	.	.	.	16gg\	.	.	.	.	.	.	.	.	.	.	.
!	!	!LO:TX:a:t=Allegro	!	!	!	!	!	!	!	!	!	!	!	!	!
8C/J	.	8cc\J	.	16gg\	.	8c\	-te	8e\	-te	8g\	-te	8cc\	-te	8g\J	8cc\J
.	.	.	.	16gg\JJ	.	.	.	.	.	.	.	.	.	.	.
8c\L	.	8ee\L	.	8ccc\L	.	8c\	Ju-	8e\	Ju-	8e\	ju-	8cc\	Ju-	8cc\L	8ee\L
8G\J	.	8gg\	.	8bb\J	.	8G\	-bi-	8d\	-bi-	8g\	-bi-	8b\	-bi-	8dd\J	8gg\
!	!	!	!	!	!	!	!	!	!	!	!	!	!	!LO:TX:a:t=P:mixed beam:problem	!
8C/L	.	8ee\	.	8ccc\L	.	8C/	-la-	8e\	-la-	8e\	-la-	8cc\	-la-	8cc\L	8ee\
8CC/J	.	8cc\J	.	16cc\L	.	8C/	-te	8e\	-te	8c\	-te	8cc\	-te	8e/J	8cc\J
.	.	.	.	16dd\JJ	.	.	.	.	.	.	.	.	.	.	.
=2	=2	=2	=2	=2	=2	=2-	=2	=2-	=2	=2-	=2	=2-	=2	=2-	=2-
!LO:TX:a:t=solo	!	!LO:TX:a:t=S.	!	!	!	!	!	!	!	!	!	!	!	!	!
4r	.	8r	.	8ee\L	.	00r	.	00r	.	00r	.	00r	.	00r	00r
.	.	16cc\LL	.	16ee\L	.	.	.	.	.	.	.	.	.	.	.
.	.	16dd\JJ	.	16ff\JJ	.	.	.	.	.	.	.	.	.	.	.
8r	.	8ee\L	.	8gg\L	.	.	.	.	.	.	.	.	.	.	.
16C/LL	.	16ee\L	.	8gg\J	.	.	.	.	.	.	.	.	.	.	.
16D/JJ	.	16ff\JJ	.	.	.	.	.	.	.	.	.	.	.	.	.
!	!	!LO:TX:a:t=P:mixed beam:problem	!	!	!	!	!	!	!	!	!	!	!	!	!
8E\L	-5	8gg\L	.	8gg\L	.	.	.	.	.	.	.	.	.	.	.
8E\	.	16g/L	.	16b-X\L	.	.	.	.	.	.	.	.	.	.	.
.	.	16f/JJ	.	16a\JJ	.	.	.	.	.	.	.	.	.	.	.
8E\	.	8g/L	.	8b-X\L	.	.	.	.	.	.	.	.	.	.	.
8E\J	.	16b-X/L	.	16gg\L	.	.	.	.	.	.	.	.	.	.	.
.	.	16g/JJ	.	16b-\JJ	.	.	.	.	.	.	.	.	.	.	.
=3	=3	=3	=3	=3	=3	=3	=3	=3	=3	=3	=3	=3	=3	=3	=3
!!pagebreak:original
!	!	!LO:TX:a:t=P:mixed beam:problem	!	!	!	!	!	!	!	!	!	!	!	!	!
4E\	-5	8ee\L	.	8gg\L	.	.	.	.	.	.	.	.	.	.	.
.	.	16g/L	.	16b-X\L	.	.	.	.	.	.	.	.	.	.	.
.	.	16f/JJ	.	16a\JJ	.	.	.	.	.	.	.	.	.	.	.
8r	.	8g/L	.	8b-X\L	.	.	.	.	.	.	.	.	.	.	.
8E\	-5	16a/L	.	16cc\L	.	.	.	.	.	.	.	.	.	.	.
.	.	16g/JJ	.	16b-\JJ	.	.	.	.	.	.	.	.	.	.	.
!	!	!	!	!LO:TX:a:t=P:mixed beam:problem	!	!	!	!	!	!	!	!	!	!	!
8F\L	3	4c/	.	8a/L	.	.	.	.	.	.	.	.	.	.	.
8d\	7_ #_	.	.	16aa\L	.	.	.	.	.	.	.	.	.	.	.
.	.	.	.	16gg\JJ	.	.	.	.	.	.	.	.	.	.	.
8d\	.	8r	.	8aa\L	.	.	.	.	.	.	.	.	.	.	.
8d\J	.	16aa\LL	.	16cc\L	.	.	.	.	.	.	.	.	.	.	.
.	.	16gg\JJ	.	16b-\JJ	.	.	.	.	.	.	.	.	.	.	.
!	!	!	!	!LO:LB:g=original	!	!	!	!	!	!	!	!	!	!	!
=4	=4	=4	=4	=4	=4	=4	=4	=4	=4	=4	=4	=4	=4	=4	=4
4D/	_ #	8aa\L	.	8cc\L	.	.	.	.	.	.	.	.	.	.	.
.	x	16ff\L	.	16aa\L	.	.	.	.	.	.	.	.	.	.	.
.	.	16ee\JJ	.	16gg\JJ	.	.	.	.	.	.	.	.	.	.	.
4r	.	16dd\LL	.	16ff\LL	.	.	.	.	.	.	.	.	.	.	.
.	.	16cc\	.	16ee\	.	.	.	.	.	.	.	.	.	.	.
.	.	16b\	.	16dd\	.	.	.	.	.	.	.	.	.	.	.
.	.	16a\JJ	.	16cc\JJ	.	.	.	.	.	.	.	.	.	.	.
4G\	.	4g/	.	8b\L	.	.	.	.	.	.	.	.	.	.	.
.	.	.	.	8dd\J	.	.	.	.	.	.	.	.	.	.	.
8r	.	8r	.	[4gg\	.	.	.	.	.	.	.	.	.	.	.
8G\	.	8dd\	.	.	.	.	.	.	.	.	.	.	.	.	.
!	!	!LO:LB:g=original	!	!	!	!	!	!	!	!	!	!	!	!	!
=5	=5	=5	=5	=5	=5	=5	=5	=5	=5	=5	=5	=5	=5	=5	=5
8c\L	6 5	4aa\	.	8gg\]	.	.	.	.	.	.	.	.	.	.	.
8d\J	3	.	.	4ff\	.	.	.	.	.	.	.	.	.	.	.
!LO:LB:g=original	!	!	!	!	!	!	!	!	!	!	!	!	!	!	!
8B\L	6 5	4gg\	.	.	.	.	.	.	.	.	.	.	.	.	.
8c\J	.	.	.	4ee\	.	.	.	.	.	.	.	.	.	.	.
8A\L	6 5	4ff\	.	.	.	.	.	.	.	.	.	.	.	.	.
8B\J	3	.	.	4dd\	.	.	.	.	.	.	.	.	.	.	.
8E\L	7	4ee\	.	.	.	.	.	.	.	.	.	.	.	.	.
8F\J	5	.	.	8cc\	.	.	.	.	.	.	.	.	.	.	.
=6	=6	=6	=6	=6	=6	=6	=6	=6	=6	=6	=6	=6	=6	=6	=6
!	!	!	!	!LO:TX:a:t=P:mixed beam:problem	!	!	!	!	!	!	!	!	!	!	!
4G\	.	4dd\	.	8b/L	.	1r	.	1r	.	1r	.	1r	.	1r	1r
.	.	.	.	8gg\	.	.	.	.	.	.	.	.	.	.	.
8r	.	8r	.	8dd\	.	.	.	.	.	.	.	.	.	.	.
8c\	.	8cc\	.	8ee\J	.	.	.	.	.	.	.	.	.	.	.
8G\L	.	8b/L	.	8b\L	.	.	.	.	.	.	.	.	.	.	.
16A\L	.	16a/L	.	16cc\L	.	.	.	.	.	.	.	.	.	.	.
16F\JJ	6	16b/JJ	.	16dd\JJ	.	.	.	.	.	.	.	.	.	.	.
!LO:TX:a:t=P:mixed beam:problem	!	!	!	!	!	!	!	!	!	!	!	!	!	!	!
8G\L	4	8cc\L	.	8ee\L	.	.	.	.	.	.	.	.	.	.	.
8GG/J	3	8b\J	.	8ddT\J	.	.	.	.	.	.	.	.	.	.	.
=7	=7	=7	=7	=7	=7	=7-	=7	=7-	=7	=7-	=7	=7-	=7	=7-	=7-
!!pagebreak:original
!	!	!LO:TX:a:t=T	!	!	!	!	!	!	!	!	!	!	!	!	!
4C/	.	4cc\	.	16cc\LL	.	4r	.	4r	.	4r	.	4r	.	4r	4r
.	.	.	.	16gg\	.	.	.	.	.	.	.	.	.	.	.
.	.	.	.	16aa\	.	.	.	.	.	.	.	.	.	.	.
.	.	.	.	16bb\JJ	.	.	.	.	.	.	.	.	.	.	.
8c\L	.	8ee\L	.	8ccc\L	.	8c\	E-	8c\	E-	8g\	e-	8ee\	E-	8ee\L	8gg\L
!LO:TX:b:t=Tutti	!	!	!	!	!	!	!	!	!	!	!	!	!	!	!
8G\J	.	8gg\	.	8bb\J	.	8G\	-xul-	8d\	-xul-	8b\	-xul-	8gg\	-xul-	8dd\J	8gg\J
8c\L	.	8ee\	.	16ccc\LL	.	8c\	-ta-	8e\	-ta-	8g\	-ta-	8ee\	-ta-	8cc\L	8ee\L
.	.	.	.	16gg\	.	.	.	.	.	.	.	.	.	.	.
8c\J	.	8cc\J	.	16gg\	.	8c\	-te	8e\	-te	8g\	-te	8cc\	-te	8cc\	8ee\
.	.	.	.	16gg\JJ	.	.	.	.	.	.	.	.	.	.	.
8c\L	.	8ee\L	.	8ccc\L	.	8c\	ju-	8e\	ju-	8e\	ju-	8cc\	Ju-	8cc\	8ee\
8G\J	.	8gg\J	.	8bb\J	.	8G\	-bi-	8d\	-bi-	8g\	-bi-	8b\	-bi-	8dd\J	8gg\J
=8	=8	=8	=8	=8	=8	=8	=8	=8	=8	=8	=8	=8	=8	=8	=8
!	!	!	!	!	!	!	!	!	!	!	!	!	!	!LO:TX:a:t=P:mixed beam:problem	!
8C/L	.	8ee\L	.	8ccc\L	.	8C/	-la-	8e\	-la-	8e\	-la-	8cc\	-la-	8cc\L	8ee\L
8CC/J	.	8cc\J	.	8ccc\J	.	8C/	-te	8e\	-te	8c\	-te	8cc\	-te	8e/J	8cc\J
4r	.	4r	.	8ccc\L	.	8c\	e-	4r	.	8g\	e-	4r	.	4r	4r
.	.	.	.	16bb\L	.	8c\	-xul-	.	.	8g\	-xul-	.	.	.	.
.	.	.	.	16aa\JJ	.	.	.	.	.	.	.	.	.	.	.
!	!	!	!	!LO:LB:g=original	!	!	!	!	!	!	!	!	!	!	!
4C/	.	8ccc\L	.	16gg\LL	.	8c\L	-ta-	2r	.	8g\	-ta-	8ee\	e-	2r	4r
.	.	.	.	16ff\	.	.	.	.	.	.	.	.	.	.	.
.	.	8ccc\J	.	16ee\	.	16B\L	.	.	.	8g\	-te	8ee\	-xul-	.	.
.	.	.	.	16dd\JJ	.	16A\JJ	.	.	.	.	.	.	.	.	.
4r	.	8ccc\L	.	8cc\L	.	16G\LL	-te	.	.	8cc\	ju-	8ee\L	-ta-	.	8g/L
.	.	.	.	.	.	16F\JJ	.	.	.	.	.	.	.	.	.
.	.	16bb\L	.	8cc\J	.	16E\LL	fi-	.	.	8cc\	-bi-	16gg\L	.	.	8g/J
.	.	16aa\JJ	.	.	.	16D\JJ	.	.	.	.	.	16ff\JJ	.	.	.
!	!	!	!	!	!	!LO:LB:g=original	!	!	!	!	!	!	!	!	!
=9	=9	=9	=9	=9	=9	=9	=9	=9	=9	=9	=9	=9	=9	=9	=9
!!pagebreak:original
4C/	.	16gg\LL	.	8ee\L	.	8C/	-de-	8c\	e-	8cc\L	-la-	(16ee\LL	-te	4r	8g/L
.	.	16ff\	.	.	.	.	.	.	.	.	.	16ff\JJ)	.	.	.
.	.	16ee\	.	8gg\J	.	8C/	-les	8c\	-xul-	16b\L	.	(16ee\LL	fi-	.	16g/L
.	.	16dd\JJ	.	.	.	.	.	.	.	16a\JJ	.	16dd\JJ)	.	.	16g/JJ
!	!	!	!	!	!	!	!	!	!	!LO:LB:g=original	!	!LO:LB:g=original	!	!	!
4r	.	8cc\L	.	8ccc\L	.	8c\	e-	8c\L	-ta-	(16g\LL	-te	8cc\	-de-	8g/L	8g/L
.	.	.	.	.	.	.	.	.	.	16f\JJ)	.	.	.	.	.
.	.	8cc\J	.	8ccc\J	.	8c\	-xul-	16B\L	.	(16e\LL	fi-	8cc\	-les	8g/J	8g/
.	.	.	.	.	.	.	.	16A\JJ	.	16d\JJ)	.	.	.	.	.
!	!	!	!	!	!	!	!	!LO:LB:g=original	!	!	!	!	!	!	!
4C/	.	8ee\L	.	8ccc\L	.	8c\	-ta-	16G/LL	-te	8c/	-de-	8ee\	e-	8g/L	8g/
.	.	.	.	.	.	.	.	16F/JJ	.	.	.	.	.	.	.
.	.	8gg\J	.	16bb\L	.	8C/	-te	16E/LL	fi-	8c/	-les	8gg\	-xul-	16g/L	8g/J
.	.	.	.	16aa\JJ	.	.	.	16D/JJ	.	.	.	.	.	16g/JJ	.
*	*	*	*	*	*	*	*ij	*	*	*	*	*	*	*	*
8c\L	.	16gg\LL	.	16gg\LL	.	8c\	e-	8C/	-de-	8e\	e-	8ee\	-ta-	8g/L	4r
.	.	16aa\	.	16ff\	.	.	.	.	.	.	.	.	.	.	.
8c\J	.	16gg\	.	16ee\	.	8G\	-xul-	8C/	-les	8g\	-xul-	8cc\	-te	8g/J	.
.	.	16ff\JJ	.	16dd\JJ	.	.	.	.	.	.	.	.	.	.	.
!	!	!LO:LB:g=original	!	!	!	!	!	!	!	!	!	!	!	!LO:LB:g=original	!
=10	=10	=10	=10	=10	=10	=10	=10	=10	=10	=10	=10	=10	=10	=10	=10
!LO:TX:a:t=P:mixed beam:problem	!	!	!	!	!	!	!	!	!	!	!	!	!	!	!
8c\L	.	8ee\L	.	16cc\LL	.	8c\	-ta-	4r	.	8e\	-ta-	4r	.	8g/L	4r
.	.	.	.	16gg\	.	.	.	.	.	.	.	.	.	.	.
8C/J	.	8cc\	.	16aa\	.	8C/	-te	.	.	8c/	-te	.	.	8g/J	.
.	.	.	.	16bb\JJ	.	.	.	.	.	.	.	.	.	.	.
!LO:LB:g=original	!	!	!	!	!	!	!	!	!	!	!	!	!	!	!
*	*	*	*	*	*	*	*Xij	*	*	*	*	*	*	*	*
8c\L	.	8ee\	.	8ccc\L	.	8c\	e-	8c\	e-	8g\	e-	8ee\	e-	8cc\L	8ee\L
8B\J	6	8gg\J	.	8gg\J	.	8B\	-xul-	8d\	-xul-	8g\	-xul-	8gg\	-xul-	8g\J	8gg\J
!	!	!	!	!	!	!	!	!	!	!	!	!	!	!	!LO:LB:g=original
8A\L	6	8ff\L	.	8aa\L	.	8A\	-ta-	8A/	-ta-	8a\	-ta-	8ff\	-ta-	8cc\L	8ff\L
8G\	6	8ee\	.	8ee\J	.	8G\	-te	8e\	-te	8e\	-te	8ee\	-te	8g\J	16ee\L
.	.	.	.	.	.	.	.	.	.	.	.	.	.	.	16ff\JJ
!	!	!	!	!	!	!	!	!	!	!	!	!	!	!LO:TX:a:t=P:mixed beam:problem	!
8F\	6	8dd\	.	8ff\L	.	8F\	ju-	8f\	ju-	8f\	ju-	8dd\	ju-	8dd\L	8dd\L
8E\J	6	8cc\J	.	16gg\L	.	8E\	-bi-	8c\	-bi-	8g\	-bi-	8cc\	-bi-	8g/J	8cc\J
.	.	.	.	16aa\JJ	.	.	.	.	.	.	.	.	.	.	.
=11	=11	=11	=11	=11	=11	=11	=11	=11	=11	=11	=11	=11	=11	=11	=11
!!pagebreak:original
!	!	!	!	!	!	!	!	!	!	!	!	!	!	!LO:TX:a:t=P:mixed beam:problem	!
8D/L	6	8b\L	.	8dd\L	.	8D/L	-la-	8d\L	-la-	4f\	-la-	8b\L	-la-	8g/L	8dd\L
8C/	6	8cc\	.	16ee\L	.	8C/J	.	8e\J	.	.	.	8cc\J	.	16cc\L	16ee\L
.	.	.	.	16ff\JJ	.	.	.	.	.	.	.	.	.	16dd\JJ	16ff\JJ
8BB/	6	8dd\	.	8gg\L	.	8BB/	-te	8d\	-te	8g\	-te	8dd\	-te	8dd\L	8gg\L
8AA/J	6	8cc\J	.	8ff#X\J	.	8AA/	fi-	8A/	fi-	8f#X\	fi-	8cc\	fi-	8cc\J	8ff#X\J
4GG/	6\	8dd\L	.	8gg\L	.	8GG/	-de-	8B\	-de-	8g\	-de-	8dd\	-de-	8dd\L	8gg\L
.	.	8dd\	.	8bb\	.	8GG/	-les	8B\	-les	8g\	-les	8dd\	-les	8gg\	8bb\
8G\L	.	8dd\	.	8gg\	.	8G\	e-	8B\	e-	8g\	e-	8b\	e-	8dd\	8gg\
8D\J	#	8dd\J	.	8ff#X\J	.	8D/	-xul-	8A/	-xul-	8f#X\	-xul-	8dd\	-xul-	8dd\J	8ff#X\J
!	!	!	!	!	!	!LO:LB:g=original	!	!	!	!	!	!	!	!	!
=12	=12	=12	=12	=12	=12	=12	=12	=12	=12	=12	=12	=12	=12	=12	=12
!LO:TX:a:t=P:mixed beam:problem	!	!	!	!	!	!	!	!	!	!	!	!	!	!	!
8G\L	.	8b\L	.	8gg\L	.	8G\	-ta-	8B\	-ta-	8g\	-ta-	8b\	-ta-	8dd\L	8gg\L
8GG/J	.	8dd\	.	8bb\J	.	8G\	-te	8B\	-te	8g\	-te	8g/	-te	16dd\L	8bb\
.	.	.	.	.	.	.	.	.	.	.	.	.	.	16dd\JJ	.
!	!	!	!	!LO:LB:g=original	!	!	!	!	!	!	!	!	!	!	!
8r	.	8b\	.	8gg\L	.	8B\	ju-	8d\	ju-	8b\	ju-	8gg\	ju-	8dd\L	8gg\
8D/	#	8a\J	.	8ff#X\J	.	8d\	-bi-	8d\	-bi-	8a\	-bi-	8ff#X\	-bi-	8dd\J	8ff#X\J
!	!	!	!	!	!	!	!	!	!	!LO:LB:g=original	!	!	!	!	!
!LO:TX:a:t=P:mixed beam:problem	!	!	!	!LO:TX:a:t=P:mixed beam:problem	!	!	!	!	!	!	!	!	!	!	!
8G\L	.	8b/L	.	8gg\L	.	8B\	-la-	8d\	-la-	8b\	-la-	8gg\	-la-	8dd\L	8gg\L
8GG/J	.	8g/J	.	16g/L	.	8G\	-te	8d\	-te	8b\	-te	8gg\	-te	8dd\J	8gg\J
.	.	.	.	16a/JJ	.	.	.	.	.	.	.	.	.	.	.
!	!	!	!	!LO:TX:a:t=solo	!	!	!	!	!	!	!	!	!	!	!
4r	.	8r	.	16b\LL	.	4r	.	4r	.	4r	.	4r	.	4r	4r
.	.	.	.	16cc\	.	.	.	.	.	.	.	.	.	.	.
.	.	16g/LL	.	16b\	.	.	.	.	.	.	.	.	.	.	.
.	.	16a/JJ	.	16cc\JJ	.	.	.	.	.	.	.	.	.	.	.
=13	=13	=13	=13	=13	=13	=13-	=13	=13-	=13	=13-	=13	=13-	=13	=13-	=13
!LO:TX:a:t=solo	!	!LO:TX:a:t=S	!	!	!	!	!	!	!	!	!	!	!	!	!
8r	.	16b\LL	.	8dd\L	.	0r	.	0r	.	0r	.	0r	.	0r	0r
.	.	16cc\	.	.	.	.	.	.	.	.	.	.	.	.	.
16G\LL	.	16b\	.	16gg\L	.	.	.	.	.	.	.	.	.	.	.
16A\JJ	6\	16cc\JJ	.	16ff#X\JJ	.	.	.	.	.	.	.	.	.	.	.
8B\L	6	16dd/LL	.	16gg\LL	.	.	.	.	.	.	.	.	.	.	.
.	.	16b/	.	16dd\	.	.	.	.	.	.	.	.	.	.	.
16B\L	.	16a/	.	16cc\	.	.	.	.	.	.	.	.	.	.	.
16c\JJ	5	16g/JJ	.	16b\JJ	.	.	.	.	.	.	.	.	.	.	.
4d\	#	4f#X/	.	8a/L	.	.	.	.	.	.	.	.	.	.	.
.	.	.	.	16d/L	.	.	.	.	.	.	.	.	.	.	.
.	.	.	.	16e/JJ	.	.	.	.	.	.	.	.	.	.	.
4r	.	8r	.	16f#X/LL	.	.	.	.	.	.	.	.	.	.	.
.	.	.	.	16g/	.	.	.	.	.	.	.	.	.	.	.
.	.	16d/LL	.	16f#/	.	.	.	.	.	.	.	.	.	.	.
.	.	16e/JJ	.	16g/JJ	.	.	.	.	.	.	.	.	.	.	.
!	!	!LO:LB:g=original	!	!	!	!	!	!	!	!	!	!	!	!	!
=14	=14	=14	=14	=14	=14	=14	=14	=14	=14	=14	=14	=14	=14	=14	=14
!!pagebreak:original
8r	.	16f#X/LL	.	8a/L	.	.	.	.	.	.	.	.	.	.	.
.	.	16g/	.	.	.	.	.	.	.	.	.	.	.	.	.
16D\LL	.	16f#/	.	16dd/L	.	.	.	.	.	.	.	.	.	.	.
16E\JJ	.	16g/JJ	.	16cc/JJ	.	.	.	.	.	.	.	.	.	.	.
!	!	!	!	!LO:TX:a:t=P:mixed beam:problem	!	!	!	!	!	!	!	!	!	!	!
8F#X\L	6	16a/LL	.	16dd\LL	.	.	.	.	.	.	.	.	.	.	.
.	.	16d/	.	16d/	.	.	.	.	.	.	.	.	.	.	.
8F#\J	.	16d/	.	16f#X/	.	.	.	.	.	.	.	.	.	.	.
.	.	16f#X/JJ	.	16a/JJ	.	.	.	.	.	.	.	.	.	.	.
!LO:LB:g=original	!	!	!	!	!	!	!	!	!	!	!	!	!	!	!
4D/	7 #	8a/L	.	8cc\L	.	.	.	.	.	.	.	.	.	.	.
.	.	16a/L	.	16cc\L	.	.	.	.	.	.	.	.	.	.	.
.	.	16g/JJ	.	16b\JJ	.	.	.	.	.	.	.	.	.	.	.
!	!	!	!	!LO:TX:a:t=P:mixed beam:problem	!	!	!	!	!	!	!	!	!	!	!
4r	.	16a/LL	.	16cc\LL	.	.	.	.	.	.	.	.	.	.	.
.	.	16d/	.	16d/	.	.	.	.	.	.	.	.	.	.	.
.	.	16d/	.	16f#X/	.	.	.	.	.	.	.	.	.	.	.
.	.	16f#X/JJ	.	16a/JJ	.	.	.	.	.	.	.	.	.	.	.
!	!	!	!	!LO:LB:g=original	!	!	!	!	!	!	!	!	!	!	!
=15	=15	=15	=15	=15	=15	=15	=15	=15	=15	=15	=15	=15	=15	=15	=15
8r	.	8a\L	.	8cc\L	.	1r	.	1r	.	1r	.	1r	.	1r	1r
8F#X\L	6_ 5_	16cc\L	.	16aa\L	.	.	.	.	.	.	.	.	.	.	.
.	.	16b\JJ	.	16gg\JJ	.	.	.	.	.	.	.	.	.	.	.
!	!	!	!	!LO:TX:a:t=P:mixed beam:problem	!	!	!	!	!	!	!	!	!	!	!
8F#\	.	16cc\LL	.	16aa\LL	.	.	.	.	.	.	.	.	.	.	.
.	.	16a\	.	16a/	.	.	.	.	.	.	.	.	.	.	.
8F#\J	.	16a\	.	16cc/	.	.	.	.	.	.	.	.	.	.	.
.	x	16cc\JJ	.	16ff#X/JJ	.	.	.	.	.	.	.	.	.	.	.
!LO:TX:a:t=P:mixed beam:problem	!	!	!	!	!	!	!	!	!	!	!	!	!	!	!
8G\L	.	8b/L	.	16gg\LL	.	.	.	.	.	.	.	.	.	.	.
.	.	.	.	16dd\	.	.	.	.	.	.	.	.	.	.	.
8C\	.	16a/L	.	16ee\	.	.	.	.	.	.	.	.	.	.	.
.	.	16g/JJ	.	16a\JJ	.	.	.	.	.	.	.	.	.	.	.
8D\	.	8g/L	.	8b/L	.	.	.	.	.	.	.	.	.	.	.
8DD/J	4	8f#X/J	.	16a/L	.	.	.	.	.	.	.	.	.	.	.
.	3	.	.	16g/JJ	.	.	.	.	.	.	.	.	.	.	.
!	!	!	!	!	!	!	!	!LO:LB:g=original	!	!	!	!LO:LB:g=original	!	!	!
=16	=16	=16	=16	=16	=16	=16-	=16	=16	=16	=16-	=16	=16	=16	=16-	=16-
!!pagebreak:original
!	!	!	!	!LO:TX:a:t=P:mixed beam:problem	!	!	!	!	!	!	!	!	!	!	!
4GG/	.	4g/	.	16g/LL	.	4r	.	4r	.	4r	.	4r	.	4r	4r
.	.	.	.	16dd\	.	.	.	.	.	.	.	.	.	.	.
.	.	.	.	16ee\	.	.	.	.	.	.	.	.	.	.	.
.	.	.	.	16ff#X\JJ	.	.	.	.	.	.	.	.	.	.	.
!LO:TX:a:t=Tutti	!	!	!	!LO:TX:a:t=Tutti	!	!	!	!	!	!	!	!	!	!	!
8G\L	.	8b\L	.	8gg\L	.	8G\	e-	8d\	e-	8g\	e-	8b\	e-	8dd\L	8gg\L
8D\J	#	8dd\J	.	8ff#X\J	.	8D/	-xul-	8d\	-xul-	8f#X\	-xul-	8dd\	-xul-	8ff#X\J	8aa\J
!LO:TX:a:t=P:mixed beam:problem	!	!	!	!	!	!	!	!	!	!	!	!	!	!	!
8G\L	.	8b\L	.	16gg\LL	.	8G\	-ta-	8d\	-ta-	8g\	-ta-	8b\	-ta-	8dd\L	8gg\L
.	.	.	.	16ff#X\	.	.	.	.	.	.	.	.	.	.	.
8GG/J	.	8g\J	.	16gg\	.	8G\	-te	8d\	-te	8g\	-te	8g/	-te	16dd\L	8gg\
.	.	.	.	16aa\JJ	.	.	.	.	.	.	.	.	.	16dd\JJ	.
8G\L	.	8gg\L	.	8bb\L	.	8B\	ju-	8d\	ju-	8b\	ju-	8gg\	ju-	8dd\L	8gg\
8D\J	#	8ff#X\J	.	8aa\J	.	8d\	-bi-	8d\	-bi-	8a\	-bi-	8ff#X\	-bi-	8dd\J	8ff#X\J
!	!	!	!	!	!	!	!	!	!	!	!	!	!	!LO:LB:g=original	!
=17	=17	=17	=17	=17	=17	=17	=17	=17	=17	=17	=17	=17	=17	=17	=17
!LO:TX:a:t=P:mixed beam:problem	!	!	!	!	!	!	!	!	!	!	!	!	!	!	!
8G\L	.	8gg\L	.	16bb\LL	.	8B\	-la-	8d\	-la-	8b\	-la-	8gg\	-la-	8dd\L	8gg\L
.	.	.	.	16gg\	.	.	.	.	.	.	.	.	.	.	.
8GG/J	.	8gg\J	.	16gg\	.	8G\	-te	8d\	-te	8b\	-te	8gg\	-te	8dd\J	8gg\J
.	.	.	.	16dd\JJ	.	.	.	.	.	.	.	.	.	.	.
4r	.	4r	.	16dd\LL	.	4r	.	4r	.	4r	.	8gg\	e-	4r	4r
.	.	.	.	16b\	.	.	.	.	.	.	.	.	.	.	.
.	.	.	.	16b\	.	.	.	.	.	.	.	8gg\	-xul-	.	.
.	.	.	.	16g\JJ	.	.	.	.	.	.	.	.	.	.	.
!	!	!LO:LB:g=original	!	!	!	!	!	!	!	!	!	!	!	!	!
4GG/	.	16r	.	4g/	.	4r	.	2r	.	2r	.	8gg\L	-ta-	2r	2r
.	.	16gg\LL	.	.	.	.	.	.	.	.	.	.	.	.	.
.	.	16gg\	.	.	.	.	.	.	.	.	.	16ff#X\L	.	.	.
.	.	16dd\JJ	.	.	.	.	.	.	.	.	.	16ee\JJ	.	.	.
4r	.	16dd\LL	.	4r	.	8G\	ju-	.	.	.	.	16dd\LL	-te	.	.
.	.	16b\	.	.	.	.	.	.	.	.	.	16cc\JJ	.	.	.
.	.	16b\	.	.	.	8G\	-bi-	.	.	.	.	16b\LL	fi-	.	.
.	.	16g\JJ	.	.	.	.	.	.	.	.	.	16a\JJ	.	.	.
!	!	!	!	!	!	!	!	!	!	!	!	!	!	!	!LO:LB:g=original
=18	=18	=18	=18	=18	=18	=18	=18	=18	=18	=18	=18	=18	=18	=18	=18
!!pagebreak:original
4GG/	.	4g/	.	16r	.	8G\L	-la-	4r	.	2r	.	8g/	-de-	4r	16r
.	.	.	.	16g/LL	.	.	.	.	.	.	.	.	.	.	16g/LL
.	.	.	.	16g/	.	16F#X\L	.	.	.	.	.	8g/	-les	.	16g/
.	.	.	.	16g/JJ	.	16E\JJ	.	.	.	.	.	.	.	.	16g/JJ
!	!	!	!	!LO:LB:g=original	!	!	!	!	!	!	!	!	!	!	!
4r	.	4r	.	16b/LL	.	(16D/LL	-te	8g\	e-	.	.	8b\	e-	16r	4g/
.	.	.	.	16g/	.	16C/JJ)	.	.	.	.	.	.	.	16g/LL	.
.	.	.	.	16b/	.	(16BB/LL	fi-	8g\	-xul-	.	.	8dd\	-xul-	16g/	.
.	.	.	.	16dd/JJ	.	16AA/JJ)	.	.	.	.	.	.	.	16g/JJ	.
4GG/	.	16r	.	4gg\	.	8GG/	-de-	8g\L	-ta-	8g\	e-	8b\	-ta-	4g/	16r
.	.	16g/LL	.	.	.	.	.	.	.	.	.	.	.	.	16g/LL
.	.	16g/	.	.	.	8GG/	-les	16f#X\L	.	8b\	-xul-	8g/	-te	.	16g/
.	.	16g/JJ	.	.	.	.	.	16e\JJ	.	.	.	.	.	.	16g/JJ
!	!	!	!	!	!	!LO:LB:g=original	!	!	!	!	!	!	!	!	!
8G\L	.	16b/LL	.	8r	.	8G\	ju-	16d\LL	-te	8g\	-ta-	8dd\	ju-	4r	4g/
.	.	16g/	.	.	.	.	.	16c\JJ	.	.	.	.	.	.	.
8D\J	#	16b/	.	8ff#X\	.	8D/	-bi-	16B\LL	fi-	8f#X\	-te	8dd\	-bi-	.	.
.	.	16dd/JJ	.	.	.	.	.	16A\JJ	.	.	.	.	.	.	.
=19	=19	=19	=19	=19	=19	=19	=19	=19	=19	=19	=19	=19	=19	=19-	=19
8G\L	.	8d/L	.	8gg\L	.	8G\L	-la-	8G/	-de-	8g\	ju-	(8dd\L	-la-	00r	00r
!	!	!LO:TX:a:t=c	!	!	!	!	!	!	!	!	!	!	!	!	!
8A\J	6\	8cc\J	.	8ff#X\J	.	8A\J	.	8G/	-les	8f#X\	-bi-	8cc\J)	.	.	.
8B\L	6	8b/L	.	16gg\LL	.	8B\	-te	8r	.	8g\	-la-	8b\	-te	.	.
.	.	.	.	16bb\	.	.	.	.	.	.	.	.	.	.	.
8c\J	6	8a/J	.	16aa\	.	8c\	fi-	8e\	fi-	16g\	-te	16a\LL	fi-	.	.
.	5	.	.	16gg\JJ	.	.	.	.	.	16a\	fi-	16g\JJ	.	.	.
!	!	!	!	!	!	!	!	!	!	!	!	!LO:LB:g=original	!	!	!
!LO:TX:a:t=P:mixed beam:problem	!	!	!	!	!	!	!	!	!	!	!	!	!	!	!
8d\L	#	8a/L	.	8ff#X\L	.	8d\	-de-	8d\	-de-	8a\	-de-	8f#X/	-de-	.	.
8D/J	.	8a/J	.	8dd\J	.	8d\	-les	8d\	-les	8a\	-les	8d/	-les	.	.
4r	.	4r	.	4r	.	4r	.	8d\	o-	4r	.	4r	.	.	.
.	.	.	.	.	.	.	.	16d\	-pe-	.	.	.	.	.	.
.	.	.	.	.	.	.	.	16c\	-ra	.	.	.	.	.	.
!LO:LB:g=original	!	!	!	!	!	!	!	!LO:LB:g=original	!	!LO:LB:g=original	!	!	!	!	!
=20	=20	=20	=20	=20	=20	=20	=20	=20	=20	=20	=20	=20	=20	=20	=20
!!pagebreak:original
4D/	6 4	4r	.	16r	.	4r	.	8B\	Do-	2r	.	8dd\	o-	.	.
.	.	.	.	16g/LL	.	.	.	.	.	.	.	.	.	.	.
.	5 #	.	.	16b/	.	.	.	16B\	-mi-	.	.	16dd\	-pe-	.	.
.	.	.	.	16dd/JJ	.	.	.	16A/	-ni	.	.	16cc\	-ra	.	.
4r	.	16r	.	8gg\L	.	8d\	o-	8G/	ce-	.	.	8b\	Do-	.	.
.	.	16g/LL	.	.	.	.	.	.	.	.	.	.	.	.	.
.	.	16b/	.	8ff#X\J	.	16d\	-pe-	8A/	-le-	.	.	16b\	-mi-	.	.
.	.	16dd/JJ	.	.	.	16c\	-ra	.	.	.	.	16a\	-ni	.	.
4D/	6 4	8gg\L	.	16r	.	8B\	Do-	8B\	-bra-	8r	.	8g/	ce-	.	.
.	.	.	.	16g/LL	.	.	.	.	.	.	.	.	.	.	.
.	5 #	8ff#X\J	.	16b/	.	16B\	-mi-	8d\	-te	8a\	o-	8a\	-le-	.	.
.	.	.	.	16dd/JJ	.	16A\	-ni	.	.	.	.	.	.	.	.
!	!	!	!	!LO:TX:a:t=P:mixed beam:problem	!	!	!	!	!	!	!	!	!	!	!
8B\L	7_ #_	16r	.	16aa\LL	.	8B\	o-	8d#X\	o-	8a\	-pe-	8f#X/	-bra-	.	.
.	.	16a\LL	.	16a/JJ	.	.	.	.	.	.	.	.	.	.	.
16B\L	.	16dd#X\	.	16dd#X\LL	.	16B\	-pe-	16d#\	-pe-	8a\	-ra	8f#/	-te	.	.
16A\JJ	x	16ff#X\JJ	.	16ff#\JJ	.	16A\	-ra	16d#\	-ra	.	.	.	.	.	.
=21	=21	=21	=21	=21	=21	=21	=21	=21	=21	=21	=21	=21	=21	=21	=21
8G\L	6	16gg\LL	.	16gg\LL	.	8G\	Do-	8e\	Do-	8b\	Do-	8b\	o-	.	.
.	.	16bb\JJ	.	16bb\	.	.	.	.	.	.	.	.	.	.	.
!	!	!LO:LB:g=original	!	!	!	!	!	!	!	!	!	!	!	!	!
8F#X\	6\	16dd#X\LL	.	16dd#X\	.	16G\	-mi-	16e\	-mi-	16b\	-mi-	16b\	-pe-	.	.
.	.	16bb\JJ	.	16bb\JJ	.	16F#X\	-ni	16d#X\	-ni	16f#X\	-ni	16a\	-ra	.	.
8G\	6	16ee\LL	.	16ee\LL	.	8G\	ce-	8e\	ce-	8e\	ce-	8b\	ce-	.	.
.	.	16bb\	.	16bb\	.	.	.	.	.	.	.	.	.	.	.
8E\J	n	16b\	.	16b\	.	8E\	-le-	8e\	-le-	8g\	-le-	8ee\	-le-	.	.
.	.	16gg\JJ	.	16ee\JJ	.	.	.	.	.	.	.	.	.	.	.
!	!	!	!	!LO:LB:g=original	!	!	!	!	!	!	!	!	!	!	!
8B\L	#	8ff#X\L	.	8dd#X\L	.	8B\	-bra-	8B\	-bra-	8f#X\	-bra-	8dd#X\	-bra-	.	.
8B\J	.	8ff#\J	.	8dd#\J	.	8B\	-te	8B\	-te	8f#\	-te	8b\	-te	.	.
4r	.	4r	.	16r	.	4r	.	4r	.	4r	.	8ff#X\	ce-	.	.
.	.	.	.	16b\LL	.	.	.	.	.	.	.	.	.	.	.
.	.	.	.	16dd#X\	.	.	.	.	.	.	.	8ff#\	-le-	.	.
.	.	.	.	16ff#X\JJ	.	.	.	.	.	.	.	.	.	.	.
!	!	!	!	!	!	!	!	!	!	!	!	!LO:LB:g=original	!	!	!
=22	=22	=22	=22	=22	=22	=22-	=22	=22	=22	=22	=22	=22	=22	=22	=22
!!pagebreak:original
2r	.	16r	.	8ee\L	.	1r	.	2r	.	4r	.	8gg\L	-bra-	.	.
.	.	16b\LL	.	.	.	.	.	.	.	.	.	.	.	.	.
.	.	16dd#X\	.	8b\J	.	.	.	.	.	.	.	8ff#X\	.	.	.
!	!	!LO:SIC:o:s=:v:16ff#	!	!	!	!	!	!	!	!	!	!	!	!	!
.	.	16ff\JJ	.	.	.	.	.	.	.	.	.	.	.	.	.
.	.	8ee\L	.	4r	.	.	.	.	.	8b\	ce-	8gg\	.	.	.
.	.	8b\J	.	.	.	.	.	.	.	8b\	-le-	8dd#X\J	.	.	.
2BB/|	.	4r	.	16r	.	.	.	4r	.	8cc\L	-bra-	8ee\L	.	.	.
.	.	.	.	16b\LL	.	.	.	.	.	.	.	.	.	.	.
.	.	.	.	16dd#X\	.	.	.	.	.	8b\	.	8dd#\	.	.	.
.	.	.	.	16ff#X\JJ	.	.	.	.	.	.	.	.	.	.	.
.	.	16r	.	4bb\	.	.	.	8B\	ju-	8cc\	.	8ee\	.	.	.
.	.	16b\LL	.	.	.	.	.	.	.	.	.	.	.	.	.
.	.	16dd#X\	.	.	.	.	.	8B\	-bi-	8g#X\J	.	8b\J	.	.	.
.	.	16ff#X\JJ	.	.	.	.	.	.	.	.	.	.	.	.	.
!	!	!	!	!	!	!LO:LB:g=original	!	!	!	!	!	!	!	!	!
=23	=23	=23	=23	=23	=23	=23	=23	=23	=23	=23	=23	=23	=23	=23	=23
1BB/|	.	4aa\	.	16r	.	4r	.	2B\	-la-	8a\L	.	8cc\L	.	00r	00r
.	.	.	.	16b\LL	.	.	.	.	.	.	.	.	.	.	.
.	.	.	.	16dd#X\	.	.	.	.	.	8g#X\	.	8b\	.	.	.
.	.	.	.	16ff#X\JJ	.	.	.	.	.	.	.	.	.	.	.
.	.	16r	.	4bb\	.	8B\	e-	.	.	8a\	.	8cc\	.	.	.
.	.	16b\LL	.	.	.	.	.	.	.	.	.	.	.	.	.
.	.	16dd#X\	.	.	.	8B\	-xul-	.	.	8e\J	.	8g#X\J	.	.	.
.	.	16ff#X\JJ	.	.	.	.	.	.	.	.	.	.	.	.	.
.	.	4aa\	.	16r	.	2B\	-ta-	4B\	-te	8f\L	.	8a\L	.	.	.
.	.	.	.	16b\LL	.	.	.	.	.	.	.	.	.	.	.
.	.	.	.	16dd#X\	.	.	.	.	.	8e\	.	8g#\	.	.	.
.	.	.	.	16ff#X\JJ	.	.	.	.	.	.	.	.	.	.	.
.	.	16r	.	16aa\LL	.	.	.	4r	.	8f\	.	8a\	.	.	.
.	.	16b\LL	.	16b\	.	.	.	.	.	.	.	.	.	.	.
.	.	16dd#X\	.	16dd#X\	.	.	.	.	.	8e\J	.	8g#\J	.	.	.
.	.	16gg\JJ	.	16ee\JJ	.	.	.	.	.	.	.	.	.	.	.
!	!	!	!	!	!	!	!	!LO:LB:g=original	!	!	!	!	!	!	!
=24	=24	=24	=24	=24	=24	=24	=24	=24	=24	=24	=24	=24	=24	=24	=24
!!pagebreak:original
8r	.	8dd#X\L	.	8ff#X\L	.	8B\	-te	8r	.	8d#X\	.	8f#X/	.	.	.
4B\	#	8dd#\J	.	8ff#\J	.	4B\	ce-	4B\	ce-	8d#\	-te	8f#/	-te	.	.
!	!	!	!	!	!	!	!	!	!	!LO:LB:g=original	!	!	!	!	!
.	.	4r	.	4r	.	.	.	.	.	8f#X\	ju-	4r	.	.	.
8A\	#4 2	.	.	.	.	8A\	-le-	8B\	-le-	8f#\	-bi-	.	.	.	.
8G\L	x 6_	8r	.	8r	.	8G\L	-bra-	8B\L	-bra-	8g\	-la-	8r	.	.	.
8F#X\	.	4ee\	.	4gg\	.	8F#X\	.	8A\	.	8g\	-te	4ee\	ce-	.	.
8G\	.	.	.	.	.	8G\	.	8B\	.	8g\	ce-	.	.	.	.
8E\J	x 7	8ddn\	.	8gg\	.	8E\J	.	8G\J	.	8g\	-le-	8dd\	-le-	.	.
!	!	!LO:LB:g=original	!	!LO:LB:g=original	!	!	!	!	!	!	!	!	!	!	!
=25	=25	=25	=25	=25	=25	=25	=25	=25	=25	=25	=25	=25	=25	=25	=25
8A\	n	8cc\L	.	8ee\L	.	8A\	-te	8c\	-te	8e\L	-bra-	8cc\L	-bra-	.	.
4A\	.	8b\	.	8dd\	.	4A\	ju-	4c\	ju-	8d\	.	8b\	.	.	.
.	.	8cc\	.	8ee\	.	.	.	.	.	8e\	.	8cc\	.	.	.
8G\	4	8a\J	.	8cc\J	.	8G\	-bi-	8c\	-bi-	8c\J	.	8a\J	.	.	.
!LO:LB:g=original	!	!	!	!	!	!	!	!	!	!	!	!	!	!	!
8F#X\L	6_	8dd\	.	8ff#X\	.	8F#X\L	-la-	8A/L	-la-	8f#X\	-te	8dd\	-te	.	.
8E\	.	4dd\	.	4ff#\	.	8E\	.	8G/	.	4f#\	ju-	4dd\	ju-	.	.
8F#X\	.	.	.	.	.	8F#\	.	8A/	.	.	.	.	.	.	.
8D\J	7	8cc\	.	8ff#\	.	8D\J	.	8F#X/J	.	8f#\	-bi-	8cc\	-bi-	.	.
=26	=26	=26	=26	=26	=26	=26	=26	=26	=26	=26	=26	=26	=26	=26	=26
8G\	.	8b/L	.	8dd\L	.	8G\	-te	4B\	-te	8g\	-la-	8b\L	-la-	.	.
4G\	.	8a/	.	8cc\	.	4G\	e-	.	.	8g\	-te	8a\J	.	.	.
!	!	!	!	!	!	!	!	!	!	!	!	!LO:LB:g=original	!	!	!
.	.	8b/	.	8dd\	.	.	.	8d\	e-	8g\	e-	8b\L	.	.	.
8F#X\	.	8g/J	.	8aa\J	.	8F#X\	-xul-	8B\	-xul-	8g\	-xul-	8g\J	.	.	.
8E\L	6	8cc\	.	8gg\L	.	8E\	-ta-	8e\	-ta-	8g\	-ta-	8cc\	-te	.	.
8D\	.	4cc\	.	8ff#X\J	.	8D/	-te	8f#X\	-te	8g\	-te	4cc\	e-	.	.
8E\	6	.	.	8gg\L	.	8E\	ce-	8e\	ce-	4r	.	.	.	.	.
8C\J	.	8cc\	.	8gg\J	.	8C/	-le-	8e\	-le-	.	.	8cc\	-xul-	.	.
=27	=27	=27	=27	=27	=27	=27	=27	=27	=27	=27	=27	=27	=27	=27	=27
!!pagebreak:original
4D/	.	4a/	.	8ff#X\	.	8D/	-bra-	8f#X\	-bra-	8r	.	8a\	-ta-	00r	00r
.	.	.	.	4d/	.	8D/	-te	8f#\	-te	4d\	ce-	8a\	-te	.	.
!	!	!	!	!	!	!LO:LB:g=original	!	!	!	!	!	!	!	!	!
4r	.	4r	.	.	.	8r	.	4r	.	.	.	4r	.	.	.
.	.	.	.	8e/	.	4D/	ce-	.	.	8e\	-le-	.	.	.	.
[>2DD/|	.	2r	.	8f#X/L	.	.	.	8r	.	8f#X\L	-bra-	2r	.	.	.
.	.	.	.	8g/	.	8E\	-le-	4d\	ce-	8g\	.	.	.	.	.
.	.	.	.	8a/	.	8F#X\L	-bra-	.	.	8a\	.	.	.	.	.
.	.	.	.	8b/J	.	8G\J	.	8d\	-le-	8b\J	.	.	.	.	.
!	!	!	!	!	!	!	!	!LO:LB:g=original	!	!	!	!	!	!	!
=28	=28	=28	=28	=28	=28	=28	=28	=28	=28	=28	=28	=28	=28	=28	=28
1DD/]|	.	8r	.	8cc\L	.	8A\L	.	8e\L	-bra-	8cc\L	.	8r	.	.	.
.	.	4d/	.	8b\	.	8B\	.	8B\	.	8b\	.	4d/	ce-	.	.
.	.	.	.	8a\	.	8c\	.	8e\	.	8a\	.	.	.	.	.
.	.	8e/	.	8g\J	.	8B\J	.	8d\J	.	8g\J	.	8e/	-le-	.	.
!	!	!	!	!	!	!	!	!	!	!LO:LB:g=original	!	!	!	!	!
!	!	!LO:TX:a:t=P:mixed beam:problem	!	!LO:TX:a:t=P:mixed beam:problem	!	!	!	!	!	!	!	!	!	!	!
.	.	8f#X/L	.	8f#X/L	.	8A\L	.	8c\L	.	8f#X\L	.	8f#X/L	-bra-	.	.
!	!	!LO:SIC:o:s=:v:8dd	!	!	!	!	!	!	!	!	!	!	!	!	!
.	.	8ee\	.	16ff#X\L	.	8G\	.	8B\	.	8e\	.	8g/J	.	.	.
.	.	.	.	16gg\JJ	.	.	.	.	.	.	.	.	.	.	.
!	!	!LO:SIC:o:s=:v:8dd	!	!	!	!	!	!	!	!	!	!	!	!	!
.	.	8dd\	.	8aa\L	.	8F#X\	.	8A\	.	8d\	.	8a\L	.	.	.
!	!	!LO:SIC:o:s=:v:8cc	!	!	!	!	!	!	!	!	!	!	!	!	!
.	.	8ee\J	.	8gg\J	.	8E\J	.	8G\J	.	8e\J	.	16b\L	.	.	.
.	.	.	.	.	.	.	.	.	.	.	.	16cc\JJ	.	.	.
=29	=29	=29	=29	=29	=29	=29	=29	=29	=29	=29	=29	=29	=29	=29	=29
8r	.	4a/	.	8ff#X\	.	8D/	-te	4A/	-te	8f#X\	-te	4dd\	-te	.	.
4G\	.	.	.	4dd\	.	4G\	ce-	.	.	8r	.	.	.	.	.
.	.	4r	.	.	.	.	.	4r	.	4r	.	8dd\	ce-	.	.
8Fn\	4 2	.	.	8dd\	.	8Fn\	-le-	.	.	.	.	8dd\	-le-	.	.
!	!	!	!	!LO:PB:g=original	!	!	!	!	!	!	!	!	!	!	!
8E\L	6_	8r	.	8ee\L	.	8E\L	-bra-	8r	.	4.g\	ce-	8ee\	-bra-	.	.
8D\	.	4ee\	.	8ff#\	.	8D\	.	4c\	ce-	.	.	8ffn\	-te	.	.
*	*	*	*	*	*	*	*	*	*	*	*	*	*ij	*	*
8E\	.	.	.	8gg\	.	8E\	.	.	.	.	.	8ee\	ce-	.	.
8C\J	-7	8ee\	.	8ccc\J	.	8C\J	.	8B-X\	-le-	8g\	-le-	8ee\	-le-	.	.
=30	=30	=30	=30	=30	=30	=30	=30	=30	=30	=30	=30	=30	=30	=30	=30
!!pagebreak:original
8F\	.	8cc\L	.	8aa\L	.	8F\	-te	8A/L	-bra-	8f\	-bra-	8cc\	-bra-	.	.
4F\	.	8cc\	.	8cc\	.	4F\	ce-	8G/	.	8g\	-te	8cc\	-te	.	.
*	*	*	*	*	*	*	*	*	*	*	*ij	*	*Xij	*	*
!	!	!	!	!	!	!	!	!	!	!	!	!LO:LB:g=original	!	!	!
.	.	8b\	.	8dd\	.	.	.	8A/	.	8f\	ce-	8cc\	ju-	.	.
8E\	.	8cc\J	.	8ee\J	.	8E\	-le-	8G/J	.	8g\	-le-	8cc\	-bi-	.	.
!	!	!LO:LB:g=original	!	!	!	!	!	!	!	!	!	!	!	!	!
8D\L	5 n	8dd\	.	8ff\	.	8D\L	-bra-	4A/	-te	8f\	-bra-	8dd\	-la-	.	.
8E\	.	4dd\	.	4ff\	.	8E\	.	.	.	8f\	-te	8cc\	-te	.	.
*	*	*	*	*	*	*	*	*	*	*	*Xij	*	*	*	*
8F\	.	.	.	.	.	8F\	.	8A/	ce-	8f\	ce-	8dd\	ce-	.	.
8D\J	.	8dd\	.	8ff\	.	8D\J	.	8A/	-le-	8f\	-le-	8dd\	-le-	.	.
!LO:LB:g=original	!	!	!	!	!	!	!	!	!	!	!	!	!	!	!
=31	=31	=31	=31	=31	=31	=31	=31	=31	=31	=31	=31	=31	=31	=31-	=31-
4G\	.	4b/	.	16dd\LL	.	4G\	-te	8B\	-bra-	8d\	-bra-	8b\	-bra-	2r	2r
.	.	.	.	16g\	.	.	.	.	.	.	.	.	.	.	.
.	.	.	.	16b\	.	.	.	8B\	-te	8d\	-te	8g/	-te	.	.
.	.	.	.	16dd\JJ	.	.	.	.	.	.	.	.	.	.	.
8r	.	16r	.	4gg\	.	8G\	e-	8B\	e-	4r	.	8dd\	e-	.	.
.	.	16g/LL	.	.	.	.	.	.	.	.	.	.	.	.	.
8G\	.	16b/	.	.	.	8G\	-xul-	8B\	-xul-	.	.	8dd\	-xul-	.	.
.	.	16dd/JJ	.	.	.	.	.	.	.	.	.	.	.	.	.
!	!	!	!	!	!	!LO:LB:g=original	!	!	!	!	!	!	!	!	!
8c\	.	8ee\L	.	8r	.	8c\	-ta-	8c\L	-ta-	8g\	ju-	8ee\	-ta-	8r	8r
.	6	.	.	.	.	.	.	.	.	.	.	.	.	.	.
4B\	.	8dd\	.	16gg\LL	.	4B\	.	8d\	.	8g\	-bi-	8dd\	-te	8g/	8gg\L
.	4 2	.	.	16ff\JJ	.	.	.	.	.	.	.	.	.	.	.
.	.	8cc\	.	8ee\L	.	.	.	8B\	.	8g\	-la-	8ee\	ju-	8ee\L	8gg\
[<8A\	6	8ff\J	.	8ccc\J	.	[<8A\	.	8c\J	.	8a\	-te	8cc\	-bi-	8ff\J	8aa\J
=32	=32	=32	=32	=32	=32	=32	=32	=32	=32	=32	=32	=32	=32	=32	=32
8A\]	4 2	8dd\L	.	4bb\	.	8A\]	.	8A\L	.	8f\	e-	8dd\	-la-	8dd\L	8ff\L
.	6	.	.	.	.	.	.	.	.	.	.	.	.	.	.
4G\	.	8ee\	.	.	.	4G\	.	8B\J	.	8g\	-xul-	8b\	-te	8ee\	8gg\
!	!	!	!	!	!	!	!	!LO:LB:g=original	!	!LO:LB:g=original	!	!	!	!	!
.	42	8cc\	.	4aa\	.	.	.	8G/L	.	8e\	-ta-	8cc\	e-	8cc\	8ee\
.	6	.	.	.	.	.	.	.	.	.	.	.	.	.	.
4F\	.	8dd\J	.	.	.	4F\	.	8A/J	.	8f\	-te	8a\	-xul-	8dd\J	8ff\J
!	!	!	!	!	!	!	!	!	!	!	!	!	!	!LO:TX:a:t=P:mixed beam:problem	!
.	4 2	8b\L	.	8gg\L	.	.	.	4G/	-te	8d\	ju-	8b\	-ta-	8g/L	8dd\L
8E\L	6	8cc\	.	8ee\	.	8E\L	.	.	.	8e\	-bi-	8cc\	-te	8cc\J	8ee\
8D\	.	8dd\	.	8ff\	.	8D\	.	8B\	ju-	8f\	-la-	8dd\	ju-	8dd\L	8ff\
8C\J	.	8ee\J	.	8gg\J	.	8C\J	.	8c\	-bi-	8g\	-te	8ee\	-bi-	8ee\J	8gg\J
!	!	!	!	!	!	!	!	!	!	!	!	!LO:LB:g=original	!	!	!
=33	=33	=33	=33	=33	=33	=33	=33	=33	=33	=33	=33	=33	=33	=33	=33
!!pagebreak:original
8BB/L	6	4b/	.	16dd\LL	.	8BB/L	-te	8d\	-la-	4g\	e-	8dd\	-la-	4g/	4dd\
.	.	.	.	16g\	.	.	.	.	.	.	.	.	.	.	.
8AA/J	.	.	.	16b\	.	8AA/J	.	8c\	-te	.	.	8ee\	-te	.	.
.	.	.	.	16dd\JJ	.	.	.	.	.	.	.	.	.	.	.
8GG#X/L	-7_ 5_	16r	.	16ff\LL	.	8GG#X/	e-	8d\	e-	4f\	-xul-	8ff\	e-	4r	16r
.	.	16b\LL	.	16dd\	.	.	.	.	.	.	.	.	.	.	16dd\LL
8GG#/	.	16dd\	.	16dd\	.	8GG#/	-xul-	8f\	-xul-	.	.	8dd\	-xul-	.	16dd\
.	.	16ff\JJ	.	16b\JJ	.	.	.	.	.	.	.	.	.	.	16dd\JJ
8GG#/	.	16bb\LL	.	16g#X\LL	.	8G#X\	-ta-	8d\	-ta-	8f\	-ta-	8b\	-ta-	16r	4dd\
.	.	16ff\	.	16dd\	.	.	.	.	.	.	.	.	.	16dd\LL	.
8GG#/J	.	16ff\	.	16gg#X\	.	8GG#X/	-te	8d\	-te	8f\	-te	8b\	-te	16dd\	.
.	.	16dd\JJ	.	16bb\JJ	.	.	.	.	.	.	.	.	.	16dd\JJ	.
!	!	!	!	!	!	!	!	!	!	!	!	!	!	!LO:TX:a:t=P:mixed beam:problem	!
8E\L	6 3	8cc\L	.	8ee\L	.	8E\	ju-	8e\	ju-	8g\	ju-	8cc\	ju-	8g/L	8r
8C\J	.	8ee\J	.	8gg#\J	.	8C/	-bi-	8e\	-bi-	8g\	-bi-	8cc\	-bi-	8dd\J	8gg\
!	!	!	!	!LO:LB:g=original	!	!	!	!	!	!	!	!	!	!LO:LB:g=original	!LO:LB:g=original
=34	=34	=34	=34	=34	=34	=34	=34	=34	=34	=34	=34	=34	=34	=34	=34
8F\L	.	16ff\LL	.	16aa\LL	.	8F\	-la-	8f\	-la-	8a\	-la-	8cc\	-la-	8ff\L	8aa\L
.	.	16dd\	.	16ff\	.	.	.	.	.	.	.	.	.	.	.
8G\J	.	16cc\	.	16ee\	.	8G\	-te	8d\	-te	8g\	-te	8b\	-te	8dd\	8gg\
.	.	16b\JJ	.	16dd\JJ	.	.	.	.	.	.	.	.	.	.	.
8A\L	6	8a\L	.	8cc\L	.	8A\	e-	8c\	e-	8f\	e-	8cc\	e-	8cc\	8ff\
8F#X\J	6 5	8dd\J	.	8aa\J	.	8F#X\	-xul-	8c\	-xul-	8a\	-xul-	8dd\	-xul-	8dd\J	8aa\J
!	!	!LO:LB:g=original	!	!	!	!	!	!	!	!	!	!	!	!	!
*	*	*	*	*	*	*	*	*	*	*	*	*2\right	*	*	*
4G\	4	8ee\L	.	8gg\L	.	(4G\	-ta-	(4c\	-ta-	8g\L	-ta-	2dd\	-ta-	8ee\L	8gg\L
.	.	16dd\L	.	16ff\L	.	.	.	.	.	8f\	.	.	.	16ee\L	16gg\L
.	3	16cc\JJ	.	16ee\JJ	.	.	.	.	.	.	.	.	.	16dd\JJ	16ff\JJ
4GG/	.	8dd\L	.	8dd\L	.	4GG/)	.	4B\)	.	8e\	.	.	.	8cc\L	8ee\L
.	.	8gg\J	.	8gg\J	.	.	.	.	.	8d\J	.	.	.	8g\J	8dd\J
=35	=35	=35	=35	=35	=35	=35	=35	=35	=35	=35	=35	=35	=35	=35	=35
!LO:TX:a:t=P:mixed beam:problem	!	!	!	!	!	!	!	!	!	!	!	!	!	!	!
8C/L	.	16ee\LL	.	16ee\LL	.	4C/	-te	4c\	-te	4e\	-te	4cc\	-te	4e/	4cc\
.	.	16cc\	.	16cc\	.	.	.	.	.	.	.	.	.	.	.
8G\J	.	16b\	.	16b\	.	.	.	.	.	.	.	.	.	.	.
.	.	16a\JJ	.	16a\JJ	.	.	.	.	.	.	.	.	.	.	.
8c\L	.	16g/LL	.	16g/LL	.	8c\	e-	8c\	e-	8g\	e-	8ee\	e-	8cc\L	8ee\L
.	.	16f/	.	16f/	.	.	.	.	.	.	.	.	.	.	.
8G\J	.	16e/	.	16e/	.	8G\	-xul-	8B\	-xul-	8g\	-xul-	8gg\	-xul-	8dd\J	8gg\J
.	.	16d/JJ	.	16d/JJ	.	.	.	.	.	.	.	.	.	.	.
!LO:LB:g=original	!	!	!	!	!	!LO:LB:g=original	!	!	!	!	!	!	!	!	!
!	!	!LO:TX:a:t=P:mixed beam:problem	!	!	!	!	!	!	!	!	!	!	!	!	!
8c\L	.	8c/L	.	8c/	.	8c\	-ta-	8c\	-ta-	8g\	-ta-	8ee\	-ta-	8cc\L	8ee\L
16E\L	6	8aa\J	.	4ccc\	.	16E\	-te	16c\	-te	16g\	-te	16dd\	-te	16cc\L	16ee\L
16F\JJ	6 5	.	.	.	.	16F\	fi-	16d\	fi-	16a\	fi-	16cc\	fi-	16g\JJ	16dd\JJ
!LO:TX:a:t=P:mixed beam:problem	!	!	!	!	!	!LO:TX:a:t=P:mixed beam:problem	!	!	!	!	!	!	!	!	!
8G\L	.	4dd\	.	.	.	8G\L	-de-	4d\	-de-	4g\	-de-	8cc\L	-de-	8g/L	4dd\
.	5 4	.	.	.	.	.	.	.	.	.	.	.	.	.	.
.	x 3	.	.	.	.	.	.	.	.	.	.	.	.	.	.
8GG/J	.	.	.	8bb\	.	8GG/J	.	.	.	.	.	8b\J	.	16g/L	.
.	.	.	.	.	.	.	.	.	.	.	.	.	.	16g/JJ	.
!	!	!	!	!	!	!	!	!	!	!LO:LB:g=original	!	!	!	!	!
=36	=36	=36	=36	=36	=36	=36	=36	=36	=36	=36	=36	=36	=36	=36	=36
!!pagebreak:original
!LO:TX:b:t=fine	!	!	!	!	!	!	!	!	!	!LO:TX:a:t=fine	!	!	!	!LO:TX:b:t=fine	!LO:TX:a:t=fine
!	!	!LO:TX:a:t=Fine	!	!LO:TX:b:t=fine	!	!LO:TX:b:t=fine	!	!LO:TX:a:t=Fine	!	!	!	!LO:TX:a:t=Fine	!	!	!
4C;;/	.	4ee;<\	.	4ccc;\	.	4C;/	-les	4c\	-les	4g;;\	-les	4cc\	-les	4e;;/	4cc;;\
!	!	!	!	!	!	!LO:TX:rj:a:t=S	!	!	!	!	!	!	!	!	!
8c\L	.	4r	.	4r	.	8c\	Ho-	4r	.	4r	.	4r	.	4r	4r
8A\J	.	.	.	.	.	16B\	-di-	.	.	.	.	.	.	.	.
.	.	.	.	.	.	16A\	-e	.	.	.	.	.	.	.	.
!	!	!	!	!	!	!	!	!LO:LB:g=original	!	!	!	!	!	!	!
4.G#X\	6	2r	.	2r	.	4G#X\	e-	8e\	Ho-	2r	.	2r	.	2r	2r
.	.	.	.	.	.	.	.	16d\	-di-	.	.	.	.	.	.
.	.	.	.	.	.	.	.	16c\	-e	.	.	.	.	.	.
.	.	.	.	.	.	8G#\	-nim	8B\	e-	.	.	.	.	.	.
8G#\	5	.	.	.	.	8G#\	Be-	16c\	-nim	.	.	.	.	.	.
.	.	.	.	.	.	.	.	16d\	Be-	.	.	.	.	.	.
!	!	!	!	!	!	!	!	!	!	!	!	!LO:PB:g=original	!	!	!
=37	=37	=37	=37	=37	=37	=37	=37	=37	=37	=37	=37	=37	=37	=37	=37
4A\	n	2r	.	2r	.	8A\	-a-	8c\	-a-	2r	.	2r	.	1r	1r
.	.	.	.	.	.	8B\	-tum	8d\	-tum	.	.	.	.	.	.
8AA/L	.	.	.	.	.	8c\	Be-	8e\	Be-	.	.	.	.	.	.
8D/J	.	.	.	.	.	16B\LL	-ne-	(16d\LL	-ne-	.	.	.	.	.	.
.	.	.	.	.	.	16A\JJ	.	16c\JJ)	.	.	.	.	.	.	.
4E\	#	4r	.	16r	.	8G#X\	-dic-	8B\	-dic-	4r	.	4r	.	.	.
.	.	.	.	16e/LL	.	.	.	.	.	.	.	.	.	.	.
.	.	.	.	16g#X/	.	8E\	-tum	8B\	-tum	.	.	.	.	.	.
.	.	.	.	16b/JJ	.	.	.	.	.	.	.	.	.	.	.
!	!	!	!	!LO:TX:a:t=P:mixed beam:problem	!	!	!	!	!	!	!	!	!	!	!
4r	.	16r	.	8ee\L	.	4r	.	4r	.	8g#X\	Mil-	8b\	Mil-	.	.
.	.	16e/LL	.	.	.	.	.	.	.	.	.	.	.	.	.
.	.	16g#X/	.	8e/J	.	.	.	.	.	8a\	-le	8cc\	-le	.	.
.	.	16b/JJ	.	.	.	.	.	.	.	.	.	.	.	.	.
=38	=38	=38	=38	=38	=38	=38	=38	=38	=38	=38	=38	=38	=38	=38-	=38
!!pagebreak:original
!	!	!LO:TX:a:t=P:mixed beam:problem	!	!	!	!	!	!	!	!	!	!	!	!	!
4E\	7 #	8dd\L	.	2r	.	4r	.	4r	.	8b\	de-	8dd\	de-	4r	16r
.	.	.	.	.	.	.	.	.	.	.	.	.	.	.	16e/LL
.	.	8e/J	.	.	.	.	.	.	.	16g#X\LL	-co-	(16b\LL	-co-	.	16e/
.	.	.	.	.	.	.	.	.	.	16a\JJ	.	16cc\JJ)	.	.	16e/JJ
4r	.	4r	.	.	.	8G#X\	mil-	8B\	mil-	8b\	-ra-	8dd\	-ra-	16r	4e/
.	.	.	.	.	.	.	.	.	.	.	.	.	.	16e/LL	.
.	.	.	.	.	.	8A\	-le	8c\	-le	8e\	-tum	8e/	-tum	16e/	.
.	.	.	.	.	.	.	.	.	.	.	.	.	.	16e/JJ	.
8e\L	7_ #_	4r	.	16r	.	8B\	de-	8d\	de-	8g#X\	de-	8dd\	de-	4e/	16r
.	.	.	.	16e/LL	.	.	.	.	.	.	.	.	.	.	16e/LL
8e\	.	.	.	16g#X/	.	16G#X\LL	-co-	16B\LL	-co-	8g#\	-co-	8dd\	-co-	.	16e/
.	.	.	.	16b/JJ	.	16A\JJ	.	16c\JJ	.	.	.	.	.	.	16e/JJ
!	!	!	!	!	!	!LO:TX:b:t=Verte citiſsime	!	!	!	!	!	!	!	!	!
!	!	!	!	!	!	!LO:PB:g=original	!	!	!	!	!	!	!	!	!
8e\	.	16r	.	4dd\	.	8B\	-ra-	8d\	-ra-	8g#\	-ra-	8dd\	-ra-	16r	8e/L
.	.	16e/LL	.	.	.	.	.	.	.	.	.	.	.	16e/LL	.
8e\J	.	16g#X/	.	.	.	8B\	-tum	16B\LL	-tum	8g#\	-tum	8cc\	-tum	16e/	8e/J
.	.	16b/JJ	.	.	.	.	.	16d\JJ	.	.	.	.	.	16e/JJ	.
!	!	!	!	!LO:LB:g=original	!	!	!	!	!	!	!	!	!	!LO:LB:g=original	!LO:LB:g=original
=39	=39	=39	=39	=39	=39	=39	=39	=39	=39	=39	=39	=39	=39	=39	=39
4.D/	6 #4 2	4ee\	.	8r	.	8.D/	do-	8.e\	do-	8.g#X\	do-	8.b\	do-	4e/	4e/
!	!	!	!	!LO:TX:a:t=S.	!	!	!	!	!	!	!	!	!	!	!
.	.	.	.	16e/LL	.	.	.	.	.	.	.	.	.	.	.
.	.	.	.	16f#X/JJ	.	16D/	-ti-	16e\	-ti-	16g#\	-ti-	16b\	-ti-	.	.
!	!	!LO:PB:g=original	!	!	!	!	!	!	!	!	!	!	!	!	!
!	!	!LO:TX:a:t=S.	!	!	!	!	!	!	!	!	!	!	!	!	!
.	.	16e/LL	.	16g#X/LL	.	8D/	-bus	8e\	-bus	8g#\	-bus	8b\	-bus	4r	4r
.	.	16f#X/	.	16a/	.	.	.	.	.	.	.	.	.	.	.
8r	.	16g#X/	.	16b/	.	8r	.	8r	.	8r	.	8r	.	.	.
.	.	16a/JJ	.	16cc/JJ	.	.	.	.	.	.	.	.	.	.	.
8GG#X/L	5	8b/L	.	8dd\L	.	2r	.	2r	.	2r	.	2r	.	2r	2r
8GG#/	_	16g#X/L	.	16b\L	.	.	.	.	.	.	.	.	.	.	.
.	.	16a/JJ	.	16cc\JJ	.	.	.	.	.	.	.	.	.	.	.
8GG#/	.	8b/L	.	8dd\L	.	.	.	.	.	.	.	.	.	.	.
8GG#/J	.	16g#X/L	.	16b\L	.	.	.	.	.	.	.	.	.	.	.
.	.	16a/JJ	.	16cc\JJ	.	.	.	.	.	.	.	.	.	.	.
=40	=40	=40	=40	=40	=40	=40-	=40	=40-	=40	=40	=40	=40-	=40	=40-	=40-
!!pagebreak:original
4AA/	4 9	8b/L	.	8dd\L	.	0r	.	0r	.	00r	.	00r	.	00r	00r
.	3n 8	8a/J	.	16cc\L	.	.	.	.	.	.	.	.	.	.	.
.	.	.	.	16b\JJ	.	.	.	.	.	.	.	.	.	.	.
4r	.	16a/LL	.	16cc#X\LL	.	.	.	.	.	.	.	.	.	.	.
.	.	16b/	.	16dd\	.	.	.	.	.	.	.	.	.	.	.
.	.	16cc#X/	.	16ee\	.	.	.	.	.	.	.	.	.	.	.
.	.	16dd/JJ	.	16ff\JJ	.	.	.	.	.	.	.	.	.	.	.
!LO:LB:g=original	!	!	!	!	!	!	!	!	!	!	!	!	!	!	!
8AA/L	7_ #_	8ee\L	.	8gg\L	.	.	.	.	.	.	.	.	.	.	.
8AA/	.	16cc#X\L	.	16ee\L	.	.	.	.	.	.	.	.	.	.	.
.	.	16dd\JJ	.	16ff\JJ	.	.	.	.	.	.	.	.	.	.	.
8AA/	.	8ee\L	.	8gg\L	.	.	.	.	.	.	.	.	.	.	.
8AA/J	.	16cc#X\L	.	16ee\L	.	.	.	.	.	.	.	.	.	.	.
.	.	16dd\JJ	.	16ff\JJ	.	.	.	.	.	.	.	.	.	.	.
=41	=41	=41	=41	=41	=41	=41	=41	=41	=41	=41	=41	=41	=41	=41	=41
4D/	9	8ee\L	.	8gg\L	.	.	.	.	.	.	.	.	.	.	.
.	8 n	8dd\J	.	16ff\L	.	.	.	.	.	.	.	.	.	.	.
.	.	.	.	16ee\JJ	.	.	.	.	.	.	.	.	.	.	.
8r	.	16dd\LL	.	16ff\LL	.	.	.	.	.	.	.	.	.	.	.
.	.	16cc\	.	16ee\	.	.	.	.	.	.	.	.	.	.	.
8D/	6 5	16b\	.	16dd\	.	.	.	.	.	.	.	.	.	.	.
.	.	16a\JJ	.	16cc\JJ	.	.	.	.	.	.	.	.	.	.	.
8E\L	#	8g#X/L	.	16b/LL	.	.	.	.	.	.	.	.	.	.	.
.	.	.	.	16cc/	.	.	.	.	.	.	.	.	.	.	.
8A\J	n	16a/L	.	16a/	.	.	.	.	.	.	.	.	.	.	.
.	.	16f/JJ	.	16b/JJ	.	.	.	.	.	.	.	.	.	.	.
!LO:TX:a:t=P:mixed beam:problem	!	!	!	!	!	!	!	!	!	!	!	!	!	!	!
8E\L	4	8e/L	.	8cc\L	.	.	.	.	.	.	.	.	.	.	.
8EE/J	3	8d/J	.	8bt\J	.	.	.	.	.	.	.	.	.	.	.
!	!	!LO:LB:g=original	!	!	!	!	!	!LO:PB:g=original	!	!	!	!	!	!	!
=42	=42	=42	=42	=42	=42	=42-	=42	=42	=42	=42	=42	=42	=42	=42	=42
!!pagebreak:original
!LO:TX:a:t=P:mixed beam:problem	!	!	!	!	!	!	!	!	!	!	!	!	!	!	!
8AA/L	n	4c/	.	4a/	.	4r	.	2r	.	.	.	.	.	.	.
8A\	.	.	.	.	.	.	.	.	.	.	.	.	.	.	.
8c\	.	4r	.	4r	.	8c\	ho-	.	.	.	.	.	.	.	.
8A\J	.	.	.	.	.	16B\	-di-	.	.	.	.	.	.	.	.
.	.	.	.	.	.	16A\	-e	.	.	.	.	.	.	.	.
*2\right	*	*	*	*	*	*	*	*	*	*	*	*	*	*	*
2G#X\	6	2r	.	2r	.	4G#X\	e-	8e\	ho-	.	.	.	.	.	.
.	.	.	.	.	.	.	.	16d\	-di-	.	.	.	.	.	.
.	.	.	.	.	.	.	.	16c\	-e	.	.	.	.	.	.
.	5	.	.	.	.	8G#\	-nim	8B\	e-	.	.	.	.	.	.
.	.	.	.	.	.	8G#\	Be-	16c\	-nim	.	.	.	.	.	.
.	.	.	.	.	.	.	.	16d\	Be-	.	.	.	.	.	.
=43	=43	=43-	=43	=43-	=43	=43	=43	=43	=43	=43	=43	=43	=43	=43	=43
4A\	n	0r	.	0r	.	8A\	-a-	8c\	-a-	.	.	.	.	.	.
.	.	.	.	.	.	8B\	-tum	8d\	-tum	.	.	.	.	.	.
8r	.	.	.	.	.	8c\	Be-	8e\	Be-	.	.	.	.	.	.
!LO:N:vis=4	!	!	!	!	!	!	!	!	!	!	!	!	!	!	!
8D/	6	.	.	.	.	16B\LL	-ne-	16d\LL	-ne-	.	.	.	.	.	.
.	5	.	.	.	.	16A\JJ	.	16c\JJ	.	.	.	.	.	.	.
8E\L	.	.	.	.	.	8G#X\	-dic-	8B\	-dic-	.	.	.	.	.	.
8F#X\J	.	.	.	.	.	8E\	-tum	8E/	-tum	.	.	.	.	.	.
4G#X\	6	.	.	.	.	4r	.	8e\	mil-	.	.	.	.	.	.
.	5	.	.	.	.	.	.	8d\	-le	.	.	.	.	.	.
=44	=44	=44	=44	=44	=44	=44	=44	=44	=44	=44	=44	=44	=44	=44	=44
!!pagebreak:original
8A\L	.	.	.	.	.	8A\	mil-	8c\	mil-	00r	.	00r	.	00r	00r
8Gn\J	.	.	.	.	.	8Gn\	-le	8c\	-le	.	.	.	.	.	.
4F\	6	.	.	.	.	8F\	de-	8d\	de-	.	.	.	.	.	.
.	5	.	.	.	.	16E\LL	-co-	8c\	-co-	.	.	.	.	.	.
.	.	.	.	.	.	16F\JJ	.	.	.	.	.	.	.	.	.
!	!	!	!	!	!	!LO:LB:g=original	!	!	!	!	!	!	!	!	!
8G\L	.	.	.	.	.	8G\	-ra-	8B\	-ra-	.	.	.	.	.	.
8A\J	.	.	.	.	.	16A\LL	-tum	16c\LL	-tum	.	.	.	.	.	.
.	.	.	.	.	.	16B\JJ	.	16d\JJ	.	.	.	.	.	.	.
8F\L	6 5	.	.	.	.	8c\	do-	8.d\	do-	.	.	.	.	.	.
8G\J	.	.	.	.	.	8G\	-ti-	.	.	.	.	.	.	.	.
.	.	.	.	.	.	.	.	16c\	-ti-	.	.	.	.	.	.
!LO:PB:g=original	!	!	!	!LO:LB:g=original	!	!	!	!	!	!	!	!	!	!	!
=45	=45	=45-	=45	=45-	=45	=45	=45	=45	=45	=45	=45	=45	=45	=45	=45
4C/	.	8r	.	8r	.	4C/	-bus	4c\	-bus	.	.	.	.	.	.
.	.	8cc\	.	16cc\LL	.	.	.	.	.	.	.	.	.	.	.
.	.	.	.	16dd\JJ	.	.	.	.	.	.	.	.	.	.	.
4r	.	16cc\LL	.	16ee\LL	.	4r	.	4r	.	.	.	.	.	.	.
.	.	16dd\	.	16ff\	.	.	.	.	.	.	.	.	.	.	.
.	.	16ee\	.	16gg\	.	.	.	.	.	.	.	.	.	.	.
.	.	16ff\JJ	.	16aa\JJ	.	.	.	.	.	.	.	.	.	.	.
!	!	!	!	!	!	!	!	!LO:LB:g=original	!	!	!	!	!	!	!
8C/L	6	8gg\L	.	8bb-X\L	.	2r	.	2r	.	.	.	.	.	.	.
8C/	7	16ee\L	.	16gg\L	.	.	.	.	.	.	.	.	.	.	.
.	.	16ff\JJ	.	16aa\JJ	.	.	.	.	.	.	.	.	.	.	.
8C/	.	8gg\L	.	8bb-X\L	.	.	.	.	.	.	.	.	.	.	.
8C/J	.	16ee\L	.	16gg\L	.	.	.	.	.	.	.	.	.	.	.
.	.	16ff\JJ	.	16aa\JJ	.	.	.	.	.	.	.	.	.	.	.
=46	=46	=46	=46	=46	=46	=46-	=46	=46	=46	=46	=46	=46	=46	=46	=46
!!pagebreak:original
4F\	8 4-	8gg\L	.	8bb-X\L	.	0r	.	0r	.	.	.	.	.	.	.
.	8 3	8ff\J	.	16aa\L	.	.	.	.	.	.	.	.	.	.	.
.	.	.	.	16gg\JJ	.	.	.	.	.	.	.	.	.	.	.
4FF/	.	16ff\LL	.	16aa\LL	.	.	.	.	.	.	.	.	.	.	.
.	.	16ee\	.	16gg\	.	.	.	.	.	.	.	.	.	.	.
.	.	16dd\	.	16ff\	.	.	.	.	.	.	.	.	.	.	.
.	.	16cc\JJ	.	16ee\JJ	.	.	.	.	.	.	.	.	.	.	.
!	!	!	!	!LO:TX:a:t=P:mixed beam:problem	!	!	!	!	!	!	!	!	!	!	!
4GG/	n	4b/	.	8dd\L	.	.	.	.	.	.	.	.	.	.	.
.	.	.	.	16g/L	.	.	.	.	.	.	.	.	.	.	.
.	.	.	.	16a/JJ	.	.	.	.	.	.	.	.	.	.	.
8r	.	16g/LL	.	16b\LL	.	.	.	.	.	.	.	.	.	.	.
.	.	16a/	.	16cc\	.	.	.	.	.	.	.	.	.	.	.
8G\	.	16b/	.	16dd\	.	.	.	.	.	.	.	.	.	.	.
.	.	16cc/JJ	.	16ee\JJ	.	.	.	.	.	.	.	.	.	.	.
=47	=47	=47	=47	=47	=47	=47	=47	=47	=47	=47	=47	=47	=47	=47	=47
8C/L	9	8dd\L	.	8ff\L	.	.	.	.	.	.	.	.	.	.	.
.	8	.	.	.	.	.	.	.	.	.	.	.	.	.	.
16C/L	.	8cc\J	.	8ee\J	.	.	.	.	.	.	.	.	.	.	.
16D/JJ	.	.	.	.	.	.	.	.	.	.	.	.	.	.	.
8E\L	.	16r	.	16r	.	.	.	.	.	.	.	.	.	.	.
.	.	16cc\LL	.	16ee\LL	.	.	.	.	.	.	.	.	.	.	.
8F\J	.	16b\	.	16dd\	.	.	.	.	.	.	.	.	.	.	.
.	.	16a\JJ	.	16cc\JJ	.	.	.	.	.	.	.	.	.	.	.
!LO:TX:a:t=P:mixed beam:problem	!	!	!	!	!	!	!	!	!	!	!	!	!	!	!
8G\L	.	8g/L	.	8b\L	.	.	.	.	.	.	.	.	.	.	.
8F\	6 5	8a/	.	16cc\L	.	.	.	.	.	.	.	.	.	.	.
.	.	.	.	16dd\JJ	.	.	.	.	.	.	.	.	.	.	.
8G\	.	8d/	.	8g/L	.	.	.	.	.	.	.	.	.	.	.
.	4	.	.	.	.	.	.	.	.	.	.	.	.	.	.
8GG/J	3	8g/J	.	8b/J	.	.	.	.	.	.	.	.	.	.	.
!	!	!LO:LB:g=original	!	!	!	!	!	!	!	!	!	!	!	!	!
=48	=48	=48	=48	=48	=48	=48-	=48	=48-	=48	=48	=48	=48	=48	=48	=48
8C/L	.	4e/	.	4cc\	.	4r	.	4r	.	1r	.	1r	.	1r	1r
8BB/	.	.	.	.	.	.	.	.	.	.	.	.	.	.	.
8C/	.	4r	.	4r	.	8c\	ad	8e\	ad	.	.	.	.	.	.
8AA/J	.	.	.	.	.	8c\	ae-	8e\	ae-	.	.	.	.	.	.
4E\	7 #	2r	.	2r	.	8B\	-ter-	8d\	-ter-	.	.	.	.	.	.
.	.	.	.	.	.	16G#X\LL	-nam	16B\LL	-nam	.	.	.	.	.	.
.	.	.	.	.	.	16A\JJ	.	16c\JJ	.	.	.	.	.	.	.
8r	.	.	.	.	.	8B\	glo-	8d\	glo-	.	.	.	.	.	.
8E\	7 #	.	.	.	.	16c\LL	-ri-	16e\LL	-ri-	.	.	.	.	.	.
.	.	.	.	.	.	16B\JJ	.	16d\JJ	.	.	.	.	.	.	.
!	!	!	!	!	!	!	!	!	!	!LO:TX:b:t=Verte	!	!	!	!	!
!	!	!	!	!	!	!	!	!	!	!LO:PB:g=original	!	!	!	!	!
=49	=49	=49	=49	=49	=49	=49	=49	=49	=49	=49	=49	=49-	=49	=49	=49-
!!pagebreak:original
!LO:TX:a:t=P:mixed beam:problem	!	!	!	!	!	!	!	!	!	!	!	!	!	!	!
8A\L	n	2r	.	2r	.	8A\	-am	8c\	-am	8r	.	8r	.	8r	8r
8AA/J	.	.	.	.	.	8A\	ae-	8c\	ae-	8a\	ae-	8ee\	ae-	8ee\	8gg\L
4D#X/	#4 #	.	.	.	.	8D#X/	-ter-	8c\	-ter-	8a\	-ter-	8ff\	-ter-	8cc\L	8aa\
.	.	.	.	.	.	8D#/	-nam	8c\	-nam	8a\	-nam	8ff\	-nam	8cc\J	8aa\J
!	!	!	!	!LO:LB:g=original	!	!	!	!	!	!	!	!	!	!	!
4r	.	16r	.	16r	.	4r	.	4r	.	2r	.	2r	.	2r	2r
.	.	16cc\LL	.	16cc/LL	.	.	.	.	.	.	.	.	.	.	.
.	.	16a\	.	16a/	.	.	.	.	.	.	.	.	.	.	.
.	.	16f#X\JJ	.	16f#X/JJ	.	.	.	.	.	.	.	.	.	.	.
8r	.	4d#X/	.	4d#X/	.	8r	.	8r	.	.	.	.	.	.	.
8Dn/	.	.	.	.	.	8A\	de-	8B\	de-	.	.	.	.	.	.
!LO:LB:g=original	!	!	!	!	!	!	!	!	!	!	!	!	!	!	!
=50	=50	=50	=50	=50	=50	=50	=50	=50	=50	=50-	=50	=50	=50	=50	=50-
!	!	!	!	!	!	!	!	!	!	!	!	!LO:TX:b:t=Exultate\nDa Capo \nal ſigno fine	!	!	!
4E\	.	1r	.	1r	.	4A\	-ve-	2B\	-ve-	1r	.	1r	.	1r	1r
4EE/	.	.	.	.	.	4G#X\	.	.	.	.	.	.	.	.	.
!LO:TX:a:t=P:mixed beam:problem	!	!	!	!	!	!	!	!	!	!	!	!	!	!	!
8AA/L	.	.	.	.	.	4A\	-xit	4A/	-xit	.	.	.	.	.	.
8A\J	.	.	.	.	.	.	.	.	.	.	.	.	.	.	.
8B\L	.	.	.	.	.	4r	.	4r	.	.	.	.	.	.	.
16A\L	.	.	.	.	.	.	.	.	.	.	.	.	.	.	.
16B\JJ	.	.	.	.	.	.	.	.	.	.	.	.	.	.	.
!LO:TX:b:t=Da Capo \nal ſigno fine	!	!LO:TX:b:t=Da Capo al ſigno fine	!	!LO:TX:b:t=Da Capo \nal ſigno fine	!	!	!	!	!	!	!	!	!	!	!LO:TX:b:t=Da Capo al ſigno fine
!	!	!LO:PB:g=original	!	!	!	!	!	!	!	!	!	!	!	!	!
=51:|!	=51:|!	=51:|!	=51:|!	=51:|!	=51:|!	=51||	=51:|!	=51||	=51||	=51:||:	=51:|!	=51:|!	=51:|!	=51:|!	=51:|!
*M3/4	*	*M3/4	*	*M3/4	*	*M3/4	*	*M3/4	*	*M3/4	*	*M3/4	*	*M3/4	*M3/4
!LO:TX:b:t=Longos labores	!	!LO:TX:rj:b:t=Longos labores	!	!LO:TX:b:t=Longos labores	!	!	!	!	!	!	!	!	!	!LO:TX:t=Da Capo al ſigno fine	!
!LO:TX:a:t=Adagio	!	!LO:TX:a:t=Adagio	!	!LO:TX:a:t=Adagio	!	!LO:TX:b:t=Exultate Da Capo \nal ſigno fine	!	!LO:TX:t=Longos labores\n Tacet	!	!	!	!LO:TX:a:t=Adagio	!	!	!
!	!	!LO:TX:a:t=solo	!	!LO:TX:a:t=solo	!	!	!	!	!	!LO:TX:t=Da Capo \nal ſigno fine	!	!LO:N:vis=00	!	!	!
4AA/	.	4ee\	.	4ee\	.	2.ryy	.	2.ryy	.	2.ryy	.	0.r	.	2.ryy	2.ryy
4r	.	4a/	.	4a/	.	.	.	.	.	.	.	.	.	.	.
4r	.	4ff\	.	4ff\	.	.	.	.	.	.	.	.	.	.	.
=52	=52	=52	=52	=52	=52	=52	=52	=52	=52	=52	=52	=52	=52	=52	=52
!LO:TX:a:t=Solo	!	!	!	!	!	!LO:TX:t=Longos labores\n Tacet	!	!LO:TX:t=Exultate Da Capo	!	!LO:TX:t=Longos labores \nTacet	!	!	!	!LO:TX:t=Longos labores \nTacet	!LO:TX:t=Longos labores \nTacet
4E\	#	4g#X/	.	4g#X/	.	2.ryy	.	2.ryy	.	2.ryy	.	.	.	2.ryy	2.ryy
4AA/	.	4a/	.	4a/	.	.	.	.	.	.	.	.	.	.	.
4F\	.	8r	.	8r	.	.	.	.	.	.	.	.	.	.	.
.	.	8a/	.	8a/	.	.	.	.	.	.	.	.	.	.	.
=53	=53	=53	=53	=53	=53	=53	=53	=53	=53	=53	=53	=53	=53	=53	=53
!	!	!	!	!LO:TX:a:t=P:mixed beam:problem	!	!	!	!	!	!	!	!	!	!	!
4GG#X/	5	(8b/L	.	(8dd\L	.	2.ryy	.	2.ryy	.	2.ryy	.	.	.	2.ryy	2.ryy
.	.	8g#X/)	.	8b\)	.	.	.	.	.	.	.	.	.	.	.
4AA/	n	(8e/	.	(8e/	.	.	.	.	.	.	.	.	.	.	.
.	.	8a/)	.	8cc\)	.	.	.	.	.	.	.	.	.	.	.
8r	.	(8b/	.	(8ee\	.	.	.	.	.	.	.	.	.	.	.
8E\	#	8g#X/J)	.	8b\J)	.	.	.	.	.	.	.	.	.	.	.
!	!	!	!	!LO:LB:g=original	!	!	!	!	!	!	!	!	!	!	!
=54	=54	=54	=54	=54	=54	=54	=54	=54	=54	=54	=54	=54	=54	=54	=54
!!pagebreak:original
4AA/	n	4a/	.	4cc\	.	2.ryy	.	2.ryy	.	2.ryy	.	.	.	2.ryy	2.ryy
4A\	.	4e/	.	4a/	.	.	.	.	.	.	.	.	.	.	.
4r	.	4r	.	8r	.	.	.	.	.	.	.	.	.	.	.
.	.	.	.	8ee\	.	.	.	.	.	.	.	.	.	.	.
!LO:LB:g=original	!	!	!	!	!	!	!	!	!	!	!	!	!	!	!
=55	=55	=55	=55	=55	=55	=55	=55	=55	=55	=55	=55	=55	=55	=55	=55
!	!	!	!	!	!	!	!	!	!	!	!	!LO:N:vis=00	!	!	!
4r	.	8cc#X\L	.	8ee\L	.	2.ryy	.	2.ryy	.	2.ryy	.	0.r	.	2.ryy	2.ryy
.	.	16dd\L	.	(16ff\L	.	.	.	.	.	.	.	.	.	.	.
.	.	16cc#\JJ	.	16ee\JJ)	.	.	.	.	.	.	.	.	.	.	.
4A\	7_ #_	8cc#\L	.	8ee\L	.	.	.	.	.	.	.	.	.	.	.
.	.	16dd\L	.	(16ff\L	.	.	.	.	.	.	.	.	.	.	.
.	.	16cc#\JJ	.	16ee\JJ)	.	.	.	.	.	.	.	.	.	.	.
!	!	!	!	!LO:TX:a:t=P:mixed beam:problem	!	!	!	!	!	!	!	!	!	!	!
4AA/	.	8e/L	.	8g/L	.	.	.	.	.	.	.	.	.	.	.
!	!	!LO:TX:a:t=P:mixed beam:problem	!	!	!	!	!	!	!	!	!	!	!	!	!
.	.	8cc#X\J	.	8ee\J	.	.	.	.	.	.	.	.	.	.	.
=56	=56	=56	=56	=56	=56	=56	=56	=56	=56	=56	=56	=56	=56	=56	=56
.	x 9	.	.	.	.	.	.	.	.	.	.	.	.	.	.
4D/	n	4a/	.	(8ee\L	.	2.ryy	.	2.ryy	.	2.ryy	.	.	.	2.ryy	2.ryy
.	x 8	.	.	8dd\J)	.	.	.	.	.	.	.	.	.	.	.
4G\	n	8b/L	.	8dd\L	.	.	.	.	.	.	.	.	.	.	.
.	.	(16cc/L	.	(16ee\L	.	.	.	.	.	.	.	.	.	.	.
.	.	16b/JJ)	.	16dd\JJ)	.	.	.	.	.	.	.	.	.	.	.
!	!	!	!	!LO:TX:a:t=P:mixed beam:problem	!	!	!	!	!	!	!	!	!	!	!
4GG/	7	8d/L	.	8f/L	.	.	.	.	.	.	.	.	.	.	.
.	.	8b/J	.	8dd\J	.	.	.	.	.	.	.	.	.	.	.
=57	=57	=57	=57	=57	=57	=57	=57	=57	=57	=57	=57	=57	=57	=57	=57
4C/	9	4g/	.	(8dd\L	.	2.ryy	.	2.ryy	.	2.ryy	.	.	.	2.ryy	2.ryy
.	8	.	.	8cc\J)	.	.	.	.	.	.	.	.	.	.	.
4F\	.	8a/L	.	8cc\L	.	.	.	.	.	.	.	.	.	.	.
.	.	16b-X/L	.	(16dd\L	.	.	.	.	.	.	.	.	.	.	.
.	.	16a/JJ	.	16cc\JJ)	.	.	.	.	.	.	.	.	.	.	.
!	!	!LO:LB:g=original	!	!	!	!	!	!	!	!	!	!	!	!	!
!	!	!	!	!LO:TX:a:t=P:mixed beam:problem	!	!	!	!	!	!	!	!	!	!	!
4FF/	-7	8c/L	.	8e-X/L	.	.	.	.	.	.	.	.	.	.	.
.	.	8a/J	.	8cc\J	.	.	.	.	.	.	.	.	.	.	.
=58	=58	=58	=58	=58	=58	=58	=58	=58	=58	=58	=58	=58	=58	=58	=58
4BB-X/	9	4f/	.	(8cc\L	.	2.ryy	.	2.ryy	.	2.ryy	.	.	.	2.ryy	2.ryy
.	8	.	.	8b-X\)	.	.	.	.	.	.	.	.	.	.	.
4r	.	4f/	.	(8b-\	.	.	.	.	.	.	.	.	.	.	.
.	.	.	.	8a\)	.	.	.	.	.	.	.	.	.	.	.
4r	.	4d/	.	(8a\	.	.	.	.	.	.	.	.	.	.	.
.	.	.	.	8g#X\J)	.	.	.	.	.	.	.	.	.	.	.
=59	=59	=59	=59	=59	=59	=59	=59	=59	=59	=59	=59	=59	=59	=59	=59
!!pagebreak:original
!	!	!	!	!	!	!	!	!	!	!	!	!LO:N:vis=00	!	!	!
8E\L	#_	4B/	.	4g#X/	.	2.ryy	.	2.ryy	.	2.ryy	.	0.r	.	2.ryy	2.ryy
16F\L	.	.	.	.	.	.	.	.	.	.	.	.	.	.	.
16E\JJ	.	.	.	.	.	.	.	.	.	.	.	.	.	.	.
8E\L	.	4r	.	4r	.	.	.	.	.	.	.	.	.	.	.
16F\L	.	.	.	.	.	.	.	.	.	.	.	.	.	.	.
16E\JJ	.	.	.	.	.	.	.	.	.	.	.	.	.	.	.
!LO:TX:a:t=P:mixed beam:problem	!	!	!	!	!	!	!	!	!	!	!	!	!	!	!
8GG#X/L	.	4r	.	4r	.	.	.	.	.	.	.	.	.	.	.
8En/J	.	.	.	.	.	.	.	.	.	.	.	.	.	.	.
=60	=60	=60	=60	=60	=60	=60	=60	=60	=60	=60	=60	=60	=60	=60	=60
4C/	.	8a/L	.	2.r	.	2.ryy	.	2.ryy	.	2.ryy	.	.	.	2.ryy	2.ryy
.	.	(16b/L	.	.	.	.	.	.	.	.	.	.	.	.	.
.	.	16a/JJ)	.	.	.	.	.	.	.	.	.	.	.	.	.
4AA/	.	8a/L	.	.	.	.	.	.	.	.	.	.	.	.	.
.	.	(16b/L	.	.	.	.	.	.	.	.	.	.	.	.	.
.	.	16a/JJ)	.	.	.	.	.	.	.	.	.	.	.	.	.
4A\	.	8c/L	.	.	.	.	.	.	.	.	.	.	.	.	.
.	.	8a/J	.	.	.	.	.	.	.	.	.	.	.	.	.
!	!	!	!	!LO:LB:g=original	!	!	!	!	!	!	!	!	!	!	!
=61	=61	=61	=61	=61	=61	=61	=61	=61	=61	=61	=61	=61	=61	=61	=61
2.G#X\	.	8b\L	.	8dd\L	.	2.ryy	.	2.ryy	.	2.ryy	.	.	.	2.ryy	2.ryy
.	.	(16cc\L	.	(16ee\L	.	.	.	.	.	.	.	.	.	.	.
.	.	16b\JJ)	.	16dd\JJ)	.	.	.	.	.	.	.	.	.	.	.
.	.	8b\L	.	8dd\L	.	.	.	.	.	.	.	.	.	.	.
.	.	(16cc\L	.	(16ee\L	.	.	.	.	.	.	.	.	.	.	.
.	.	16b\JJ)	.	16dd\JJ)	.	.	.	.	.	.	.	.	.	.	.
!	!	!	!	!LO:TX:a:t=P:mixed beam:problem	!	!	!	!	!	!	!	!	!	!	!
.	.	8e/L	.	8e/L	.	.	.	.	.	.	.	.	.	.	.
.	.	8b/J	.	8dd\J	.	.	.	.	.	.	.	.	.	.	.
=62	=62	=62	=62	=62	=62	=62	=62	=62	=62	=62	=62	=62	=62	=62	=62
2.A\	n	8a\L	.	8cc\L	.	2.ryy	.	2.ryy	.	2.ryy	.	.	.	2.ryy	2.ryy
.	.	8cc\J	.	8ee\	.	.	.	.	.	.	.	.	.	.	.
.	.	(8cc\L	.	(8ee\	.	.	.	.	.	.	.	.	.	.	.
.	.	8b\)	.	8dd\)	.	.	.	.	.	.	.	.	.	.	.
.	.	(8b\	.	(8dd\	.	.	.	.	.	.	.	.	.	.	.
.	.	8a\J)	.	8cc\J)	.	.	.	.	.	.	.	.	.	.	.
=63	=63	=63	=63	=63	=63	=63	=63	=63	=63	=63	=63	=63	=63	=63	=63
!	!	!LO:TX:a:t=P:mixed beam:problem	!	!	!	!	!	!	!	!	!	!LO:N:vis=00	!	!	!
2D/	n	8f/L	.	8dd\L	.	2.ryy	.	2.ryy	.	2.ryy	.	0.r	.	2.ryy	2.ryy
.	.	8dd\J	.	8ff\	.	.	.	.	.	.	.	.	.	.	.
.	.	8dd\L	.	8ff\	.	.	.	.	.	.	.	.	.	.	.
.	.	8cc\	.	8ee\	.	.	.	.	.	.	.	.	.	.	.
4r	.	8b\	.	8dd\	.	.	.	.	.	.	.	.	.	.	.
.	.	8a\J	.	8cc\J	.	.	.	.	.	.	.	.	.	.	.
!	!	!LO:LB:g=original	!	!	!	!	!	!	!	!	!	!	!	!	!
=64	=64	=64	=64	=64	=64	=64	=64	=64	=64	=64	=64	=64	=64	=64	=64
!LO:TX:a:t=P:mixed beam:problem	!	!	!	!	!	!	!	!	!	!	!	!	!	!	!
8EE/L	#	4g#X/	.	4b/	.	2.ryy	.	2.ryy	.	2.ryy	.	.	.	2.ryy	2.ryy
8E\J	.	.	.	.	.	.	.	.	.	.	.	.	.	.	.
!LO:LB:g=original	!	!	!	!	!	!	!	!	!	!	!	!	!	!	!
8E\L	.	8r	.	8r	.	.	.	.	.	.	.	.	.	.	.
8D\	.	8d/L	.	8b\L	.	.	.	.	.	.	.	.	.	.	.
8C\	.	8a/	.	8ee\	.	.	.	.	.	.	.	.	.	.	.
8BB\J	.	8b/J	.	8gg#X\J	.	.	.	.	.	.	.	.	.	.	.
=65	=65	=65	=65	=65	=65	=65	=65	=65	=65	=65	=65	=65	=65	=65	=65
!!pagebreak:original
8AA/L	n	8cc\L	.	8aa\L	.	2.ryy	.	2.ryy	.	2.ryy	.	.	.	2.ryy	2.ryy
8D/J	6	16b\L	.	8b\J	.	.	.	.	.	.	.	.	.	.	.
.	.	16a\JJ	.	.	.	.	.	.	.	.	.	.	.	.	.
4E\	4	4a/	.	2bt/	.	.	.	.	.	.	.	.	.	.	.
.	3	.	.	.	.	.	.	.	.	.	.	.	.	.	.
4EE/	.	4g#X/	.	.	.	.	.	.	.	.	.	.	.	.	.
=66	=66	=66	=66	=66	=66	=66	=66	=66	=66	=66	=66	=66	=66	=66	=66
4AA/	n	8a/L	.	8a/L	.	2.ryy	.	2.ryy	.	2.ryy	.	.	.	2.ryy	2.ryy
.	.	8c/J	.	8e/J	.	.	.	.	.	.	.	.	.	.	.
4r	.	(8d/L	.	(8f/L	.	.	.	.	.	.	.	.	.	.	.
.	.	8c/)	.	8e/)	.	.	.	.	.	.	.	.	.	.	.
4r	.	(8d/	.	(8f/	.	.	.	.	.	.	.	.	.	.	.
.	.	8c/J)	.	8e/J)	.	.	.	.	.	.	.	.	.	.	.
=67	=67	=67	=67	=67	=67	=67	=67	=67	=67	=67	=67	=67	=67	=67	=67
!	!	!	!	!	!	!	!	!	!	!	!	!LO:N:vis=0	!	!	!
4D/	6	8B/L	.	8d/L	.	2.ryy	.	2.ryy	.	2.ryy	.	1.r	.	2.ryy	2.ryy
.	.	8B/J	.	8d/	.	.	.	.	.	.	.	.	.	.	.
4r	.	(8c/L	.	(8e/	.	.	.	.	.	.	.	.	.	.	.
.	.	8B/)	.	8d/)	.	.	.	.	.	.	.	.	.	.	.
4r	.	(8c/	.	(8e/	.	.	.	.	.	.	.	.	.	.	.
.	.	8B/J)	.	8d/J)	.	.	.	.	.	.	.	.	.	.	.
!	!	!	!	!LO:LB:g=original	!	!	!	!	!	!	!	!	!	!	!
=68	=68	=68	=68	=68	=68	=68	=68	=68	=68	=68	=68	=68	=68	=68	=68
8r	.	8A/L	.	8c/L	.	2.ryy	.	2.ryy	.	2.ryy	.	.	.	2.ryy	2.ryy
8D/	6 5	8B/J	.	8a/J	.	.	.	.	.	.	.	.	.	.	.
4E\	4	4c/	.	4a/	.	.	.	.	.	.	.	.	.	.	.
.	3	.	.	.	.	.	.	.	.	.	.	.	.	.	.
4EE/	.	8B/L	.	4g#X/	.	.	.	.	.	.	.	.	.	.	.
.	.	8A/J	.	.	.	.	.	.	.	.	.	.	.	.	.
=69	=69	=69	=69	=69	=69	=69	=69	=69	=69	=69	=69	=69	=69	=69	=69
!LO:TX:b:t=Canto	!	!	!	!	!	!	!	!	!	!	!	!LO:TX:b:t=solo	!	!	!
4AA/	n	4A/	.	4a/	.	2.ryy	.	2.ryy	.	2.ryy	.	4ee\	Lon-	2.ryy	2.ryy
4r	.	4r	.	4r	.	.	.	.	.	.	.	4a\	-gos	.	.
4r	.	4r	.	4r	.	.	.	.	.	.	.	4ff\	la-	.	.
=70-	=70	=70	=70	=70	=70	=70	=70	=70	=70	=70	=70	=70	=70	=70	=70
!LO:N:vis=0	!	!	!LO:DY:a	!	!LO:DY:a	!	!	!	!	!	!	!	!	!	!
1.r	.	4e/	p	4e/	p	2.ryy	.	2.ryy	.	2.ryy	.	4g#X/	-bo-	2.ryy	2.ryy
.	.	4A/	.	4A/	.	.	.	.	.	.	.	4a\	-res	.	.
.	.	4f/	.	4f/	.	.	.	.	.	.	.	4r	.	.	.
=71	=71	=71	=71	=71	=71	=71	=71	=71	=71	=71	=71	=71	=71	=71	=71
!!pagebreak:original
.	.	4G#X/	.	4G#X/	.	2.ryy	.	2.ryy	.	2.ryy	.	(8dd\L	lon-	2.ryy	2.ryy
.	.	.	.	.	.	.	.	.	.	.	.	8b\J)	.	.	.
!	!	!	!	!	!	!	!	!	!	!	!	!LO:TX:a:t=P:mixed beam:problem	!	!	!
.	.	4A/	.	4A/	.	.	.	.	.	.	.	8e/L	-gos	.	.
.	.	.	.	.	.	.	.	.	.	.	.	8cc\J	.	.	.
!	!	!LO:LB:g=original	!	!	!	!	!	!	!	!	!	!	!	!	!
.	.	8r	.	8r	.	.	.	.	.	.	.	(8ee\L	ſu-	.	.
.	.	8e/	.	8g#X/	.	.	.	.	.	.	.	8b\J)	.	.	.
=72	=72	=72	=72	=72	=72	=72	=72	=72	=72	=72	=72	=72	=72	=72	=72
2.r	.	4a/	.	4a/	.	2.ryy	.	2.ryy	.	2.ryy	.	4cc\	-do-	2.ryy	2.ryy
.	.	4A/	.	4e/	.	.	.	.	.	.	.	4a\	-res	.	.
.	.	4r	.	8r	.	.	.	.	.	.	.	4r	.	.	.
!	!	!	!	!	!LO:DY:a	!	!	!	!	!	!	!	!	!	!
.	.	.	.	8ee\	f	.	.	.	.	.	.	.	.	.	.
=73-	=73	=73	=73	=73	=73	=73	=73	=73	=73	=73	=73	=73-	=73	=73	=73
!	!	!	!LO:DY:a	!	!	!	!	!	!	!	!	!	!	!	!
!	!	!	!	!	!	!	!	!	!	!	!	!LO:N:vis=00	!	!	!
4r	.	8cc#X\L	f	8ee\L	.	2.ryy	.	2.ryy	.	2.ryy	.	0.r	.	2.ryy	2.ryy
.	.	(16dd\L	.	(16ff\L	.	.	.	.	.	.	.	.	.	.	.
.	.	16cc#\JJ)	.	16ee\JJ)	.	.	.	.	.	.	.	.	.	.	.
4A\	.	8cc#\L	.	8ee\L	.	.	.	.	.	.	.	.	.	.	.
.	.	(16dd\L	.	(16ff\L	.	.	.	.	.	.	.	.	.	.	.
.	.	16cc#\JJ)	.	16ee\JJ)	.	.	.	.	.	.	.	.	.	.	.
!LO:TX:b:t=V l	!	!LO:TX:a:t=P:mixed beam:problem	!	!LO:TX:a:t=P:mixed beam:problem	!	!	!	!	!	!	!	!	!	!	!
4AA/	7 #	8e/L	.	8g/L	.	.	.	.	.	.	.	.	.	.	.
.	.	8cc#X\J	.	8ee\J	.	.	.	.	.	.	.	.	.	.	.
=74	=74	=74	=74	=74	=74	=74	=74	=74	=74	=74	=74	=74	=74	=74	=74
.	x 9	.	.	.	.	.	.	.	.	.	.	.	.	.	.
4D/	-	4a/	.	8ee\L	.	2.ryy	.	2.ryy	.	2.ryy	.	.	.	2.ryy	2.ryy
.	x 8	.	.	8dd\J	.	.	.	.	.	.	.	.	.	.	.
4G\	.	8b\L	.	8dd\L	.	.	.	.	.	.	.	.	.	.	.
.	.	(16cc\L	.	(16ee\L	.	.	.	.	.	.	.	.	.	.	.
.	.	16b\JJ)	.	16dd\JJ)	.	.	.	.	.	.	.	.	.	.	.
!	!	!	!	!LO:TX:a:t=P:mixed beam:problem	!	!	!	!	!	!	!	!	!	!	!
4GG/	7 n	8d/L	.	8f/L	.	.	.	.	.	.	.	.	.	.	.
.	.	8b/J	.	8dd/J	.	.	.	.	.	.	.	.	.	.	.
!	!	!	!	!LO:TX:b:t=Verte cito	!	!	!	!	!	!	!	!	!	!	!
!	!	!	!	!LO:PB:g=original	!	!	!	!	!	!	!	!	!	!	!
=75	=75	=75	=75	=75	=75	=75	=75	=75	=75	=75	=75	=75	=75	=75	=75
4C/	9	4g/	.	8dd\L	.	2.ryy	.	2.ryy	.	2.ryy	.	.	.	2.ryy	2.ryy
.	8	.	.	8cc\J	.	.	.	.	.	.	.	.	.	.	.
4F\	.	8a/L	.	8cc\L	.	.	.	.	.	.	.	.	.	.	.
.	.	16b-X/L	.	(16dd\L	.	.	.	.	.	.	.	.	.	.	.
.	.	16a/JJ	.	16cc\JJ)	.	.	.	.	.	.	.	.	.	.	.
!	!	!	!	!LO:TX:a:t=P:mixed beam:problem	!	!	!	!	!	!	!	!	!	!	!
4FF/	-7	8c/L	.	8e-X/L	.	.	.	.	.	.	.	.	.	.	.
.	.	8a/J	.	8cc\J	.	.	.	.	.	.	.	.	.	.	.
!LO:LB:g=original	!	!	!	!	!	!	!	!	!	!	!	!	!	!	!
=76	=76	=76	=76	=76	=76	=76	=76	=76	=76	=76	=76	=76	=76	=76	=76
!!pagebreak:original
4BB-X/	9	4f/	.	(8cc\L	.	2.ryy	.	2.ryy	.	2.ryy	.	.	.	2.ryy	2.ryy
.	8	.	.	8b-X\)	.	.	.	.	.	.	.	.	.	.	.
4r	.	(8d/L	.	(8b-\	.	.	.	.	.	.	.	.	.	.	.
.	.	8c/)	.	8a\)	.	.	.	.	.	.	.	.	.	.	.
4r	.	(8c/	.	(8a\	.	.	.	.	.	.	.	.	.	.	.
.	.	8B/J)	.	8g#X\J)	.	.	.	.	.	.	.	.	.	.	.
=77	=77	=77	=77	=77	=77	=77	=77	=77	=77	=77	=77	=77	=77	=77	=77
!	!	!	!	!	!	!	!	!	!	!	!	!LO:N:vis=0	!	!	!
8r	.	4B/	.	4g#X/	.	2.ryy	.	2.ryy	.	2.ryy	.	1.r	.	2.ryy	2.ryy
8E\	#	.	.	.	.	.	.	.	.	.	.	.	.	.	.
8E\L	.	8r	.	8r	.	.	.	.	.	.	.	.	.	.	.
8D\	6	8d/	.	8b\L	.	.	.	.	.	.	.	.	.	.	.
!	!	!LO:LB:g=original	!	!	!	!	!	!	!	!	!	!	!	!	!
8C\	.	8a/L	.	8ee\	.	.	.	.	.	.	.	.	.	.	.
8BB\J	6\	8b/J	.	8gg#X\J	.	.	.	.	.	.	.	.	.	.	.
=78	=78	=78	=78	=78	=78	=78	=78	=78	=78	=78	=78	=78	=78	=78	=78
!	!	!	!	!LO:TX:a:t=P:mixed beam:problem	!	!	!	!	!	!	!	!	!	!	!
8AA/L	.	8cc\L	.	8aa\L	.	2.ryy	.	2.ryy	.	2.ryy	.	.	.	2.ryy	2.ryy
8D/J	6	16b\L	.	8b/J	.	.	.	.	.	.	.	.	.	.	.
.	.	16a\JJ	.	.	.	.	.	.	.	.	.	.	.	.	.
4E\	.	4e/	.	2bt/	.	.	.	.	.	.	.	.	.	.	.
4EE/	4	4d/	.	.	.	.	.	.	.	.	.	.	.	.	.
.	3	.	.	.	.	.	.	.	.	.	.	.	.	.	.
=79	=79	=79	=79	=79	=79	=79	=79	=79	=79	=79	=79	=79-	=79	=79	=79
4AA/	.	4c/	.	4a/	.	2.ryy	.	2.ryy	.	2.ryy	.	4ee\	Lon-	2.ryy	2.ryy
4r	.	4r	.	4r	.	.	.	.	.	.	.	4a\	-gos	.	.
4r	.	4r	.	4r	.	.	.	.	.	.	.	4ff\	la-	.	.
=80	=80	=80	=80	=80-	=80	=80	=80	=80	=80	=80	=80	=80	=80	=80	=80
!	!	!LO:N:vis=0	!	!LO:N:vis=0	!	!	!	!	!	!	!	!	!	!	!
4e\	#	1.r	.	1.r	.	2.ryy	.	2.ryy	.	2.ryy	.	4g#X/	-bo-	2.ryy	2.ryy
4A\	.	.	.	.	.	.	.	.	.	.	.	4a\	-res	.	.
4f\	.	.	.	.	.	.	.	.	.	.	.	4r	.	.	.
=81	=81	=81	=81	=81	=81	=81	=81	=81	=81	=81	=81	=81	=81	=81	=81
4G#X\	5	.	.	.	.	2.ryy	.	2.ryy	.	2.ryy	.	(8dd\L	lon-	2.ryy	2.ryy
.	.	.	.	.	.	.	.	.	.	.	.	8b\J)	.	.	.
!	!	!	!	!	!	!	!	!	!	!	!	!LO:TX:a:t=P:mixed beam:problem	!	!	!
4A\	n	.	.	.	.	.	.	.	.	.	.	(8e/L	-gos	.	.
.	.	.	.	.	.	.	.	.	.	.	.	8cc\J)	.	.	.
!	!	!	!	!	!	!	!	!	!	!	!	!LO:LB:g=original	!	!	!
8r	.	.	.	.	.	.	.	.	.	.	.	8ee\L	ſu-	.	.
8E\	#	.	.	.	.	.	.	.	.	.	.	8b\J	.	.	.
=82	=82	=82	=82	=82-	=82	=82	=82	=82	=82	=82	=82	=82	=82	=82	=82
!!pagebreak:original
4A\	.	2.r	.	4r	.	2.ryy	.	2.ryy	.	2.ryy	.	4cc\	-do-	2.ryy	2.ryy
.	n	.	.	.	.	.	.	.	.	.	.	.	.	.	.
4AA/	.	.	.	4r	.	.	.	.	.	.	.	4a\	-res	.	.
4r	.	.	.	8r	.	.	.	.	.	.	.	4r	.	.	.
.	.	.	.	8ee\	.	.	.	.	.	.	.	.	.	.	.
=83	=83	=83-	=83	=83	=83	=83	=83	=83	=83	=83	=83	=83	=83	=83	=83
!	!	!	!	!	!LO:DY:a	!	!	!	!	!	!	!	!	!	!
4A\	#	8cc#X\L	.	8ee\L	p	2.ryy	.	2.ryy	.	2.ryy	.	(8cc#X\L	ae-	2.ryy	2.ryy
.	.	(16dd\L	.	(16ff\L	.	.	.	.	.	.	.	8dd\J)	.	.	.
.	.	16cc#\JJ)	.	16ee\JJ)	.	.	.	.	.	.	.	.	.	.	.
4r	.	8cc#\L	.	8ee\L	.	.	.	.	.	.	.	(8ee\L	-ter-	.	.
.	.	(16dd\L	.	(16ff\L	.	.	.	.	.	.	.	8ff\J)	.	.	.
.	.	16cc#\JJ)	.	16ee\JJ)	.	.	.	.	.	.	.	.	.	.	.
!	!	!	!	!LO:LB:g=original	!	!	!	!	!	!	!	!	!	!	!
!	!	!LO:TX:a:t=P:mixed beam:problem	!	!LO:TX:a:t=P:mixed beam:problem	!	!	!	!	!	!	!	!	!	!	!
4AA/	7 #	8e/L	.	8g/L	.	.	.	.	.	.	.	(8gg\L	-na	.	.
.	.	8cc#X\J	.	8ee\J	.	.	.	.	.	.	.	8a\J)	.	.	.
=84	=84	=84	=84	=84	=84	=84	=84	=84	=84	=84	=84	=84	=84	=84	=84
2D/	x 9	4a/	.	(8ee\L	.	2.ryy	.	2.ryy	.	2.ryy	.	4gg\	ex-	2.ryy	2.ryy
.	.	.	.	8dd\J)	.	.	.	.	.	.	.	.	.	.	.
.	-	8b\L	.	8dd\L	.	.	.	.	.	.	.	(8ff\L	-ci-	.	.
.	.	(16cc\L	.	(16ee\L	.	.	.	.	.	.	.	8ee\J)	.	.	.
.	x 8	16b\JJ)	.	16dd\JJ)	.	.	.	.	.	.	.	.	.	.	.
!	!	!LO:TX:a:t=P:mixed beam:problem	!	!LO:TX:a:t=P:mixed beam:problem	!	!	!	!	!	!	!	!	!	!	!
4r	.	8d/L	.	8f/L	.	.	.	.	.	.	.	4ff\	-pit	.	.
.	.	8b\J	.	8dd\J	.	.	.	.	.	.	.	.	.	.	.
!LO:LB:g=original	!	!	!	!	!	!	!	!	!	!	!	!	!	!	!
=85	=85	=85	=85	=85	=85	=85	=85	=85	=85	=85	=85	=85	=85	=85	=85
4G\	n	8b\L	.	8dd\L	.	2.ryy	.	2.ryy	.	2.ryy	.	(8b\L	ae-	2.ryy	2.ryy
.	.	(16cc\L	.	(16ee\L	.	.	.	.	.	.	.	8cc\J)	.	.	.
.	.	16b\JJ)	.	16dd\JJ)	.	.	.	.	.	.	.	.	.	.	.
4r	.	8b\L	.	8dd\L	.	.	.	.	.	.	.	(8dd\L	-ter-	.	.
.	.	(16cc\L	.	(16ee\L	.	.	.	.	.	.	.	8ee\J)	.	.	.
.	.	16b\JJ)	.	16dd\JJ)	.	.	.	.	.	.	.	.	.	.	.
!	!	!	!	!LO:TX:a:t=P:mixed beam:problem	!	!	!	!	!	!	!	!	!	!	!
4GG/	7	8d/L	.	8f/L	.	.	.	.	.	.	.	(8ff\L	-na	.	.
.	.	8b/J	.	8dd\J	.	.	.	.	.	.	.	8g\J)	.	.	.
!	!	!LO:LB:g=original	!	!	!	!	!	!	!	!	!	!	!	!	!
=86	=86	=86	=86	=86	=86	=86	=86	=86	=86	=86	=86	=86	=86	=86	=86
2C/	9 4	4g/	.	8dd\L	.	2.ryy	.	2.ryy	.	2.ryy	.	4ff\	ex-	2.ryy	2.ryy
.	.	.	.	8cc\J	.	.	.	.	.	.	.	.	.	.	.
.	8	4r	.	4c/	.	.	.	.	.	.	.	(8ee\L	-ci-	.	.
.	.	.	.	.	.	.	.	.	.	.	.	8dd\J)	.	.	.
4c\	.	4r	.	4r	.	.	.	.	.	.	.	4ee\	-pit	.	.
=87	=87	=87	=87	=87	=87	=87	=87	=87	=87	=87	=87	=87	=87	=87	=87
2.F\	6	8ff\L	.	(8aa\L	.	2.ryy	.	2.ryy	.	2.ryy	.	(8ff\L	vic-	2.ryy	2.ryy
.	.	8ee\	.	8gg\	.	.	.	.	.	.	.	8ee\J)	.	.	.
.	.	8dd\	.	8ff\	.	.	.	.	.	.	.	8dd\L	-to-	.	.
.	5	8cc\	.	8ee\	.	.	.	.	.	.	.	16ff\L	.	.	.
.	.	.	.	.	.	.	.	.	.	.	.	16ee\JJ	.	.	.
.	.	8b\	.	8dd\	.	.	.	.	.	.	.	8dd\L	.	.	.
.	.	8a\J	.	8cc\J)	.	.	.	.	.	.	.	8cc\J	.	.	.
!	!	!	!	!	!	!	!	!	!	!	!	!LO:LB:g=original	!	!	!
=88	=88	=88	=88	=88	=88	=88	=88	=88	=88	=88	=88	=88	=88	=88	=88
!!pagebreak:original
8G\L	.	4d/	.	4b/	.	2.ryy	.	2.ryy	.	2.ryy	.	4.b\	.	2.ryy	2.ryy
16B\L	.	.	.	.	.	.	.	.	.	.	.	.	.	.	.
16A\JJ	.	.	.	.	.	.	.	.	.	.	.	.	.	.	.
8G\L	.	4r	.	4r	.	.	.	.	.	.	.	.	.	.	.
8A\	.	.	.	.	.	.	.	.	.	.	.	8cc\	-ri-	.	.
8G\	.	4r	.	4r	.	.	.	.	.	.	.	4dd\	-a	.	.
8F\J	.	.	.	.	.	.	.	.	.	.	.	.	.	.	.
=89	=89	=89	=89	=89	=89	=89	=89	=89	=89	=89	=89	=89	=89	=89	=89
8E\L	.	2.r	.	2.r	.	2.ryy	.	2.ryy	.	2.ryy	.	(8ee\L	vic-	2.ryy	2.ryy
8F\J	6	.	.	.	.	.	.	.	.	.	.	8dd\J)	.	.	.
4G\	4	.	.	.	.	.	.	.	.	.	.	4.dd\	-to-	.	.
4GG/	3	.	.	.	.	.	.	.	.	.	.	.	.	.	.
.	.	.	.	.	.	.	.	.	.	.	.	8cc\	-ri-	.	.
=90	=90	=90	=90	=90	=90	=90	=90	=90	=90	=90	=90	=90	=90	=90	=90
!LO:TX:b:t=V l	!	! (do konca partii)	!LO:DY:a	!	!LO:DY:a	!	!	!	!	!	!	!	!	!	!
4C/	.	4ee\	f	4gg\	f	2.ryy	.	2.ryy	.	2.ryy	.	4cc\	-a	2.ryy	2.ryy
4r	.	4e/	.	4cc\	.	.	.	.	.	.	.	4r	.	.	.
4r	.	4ff\	.	4aa\	.	.	.	.	.	.	.	4r	.	.	.
=91	=91	=91	=91	=91	=91	=91	=91	=91	=91	=91	=91	=91-	=91	=91	=91
!	!	!	!	!	!	!	!	!	!	!	!	!LO:N:vis=00	!	!	!
4G\	.	4g/	.	4b\	.	2.ryy	.	2.ryy	.	2.ryy	.	0.r	.	2.ryy	2.ryy
4C/	.	4e/	.	4cc\	.	.	.	.	.	.	.	.	.	.	.
!	!	!	!	!LO:LB:g=original	!	!	!	!	!	!	!	!	!	!	!
4A\	3	8r	.	8r	.	.	.	.	.	.	.	.	.	.	.
.	.	8cc\	.	8cc\	.	.	.	.	.	.	.	.	.	.	.
=92	=92	=92	=92	=92	=92	=92	=92	=92	=92	=92	=92	=92	=92	=92	=92
4BB/	5	(8dd\L	.	(8ff\L	.	2.ryy	.	2.ryy	.	2.ryy	.	.	.	2.ryy	2.ryy
.	.	8b\)	.	8dd\J)	.	.	.	.	.	.	.	.	.	.	.
!	!	!	!	!LO:TX:a:t=P:mixed beam:problem	!	!	!	!	!	!	!	!	!	!	!
4C/	.	(8g\	.	(8g\L	.	.	.	.	.	.	.	.	.	.	.
.	.	8cc\)	.	8ee\J)	.	.	.	.	.	.	.	.	.	.	.
8r	.	(8dd\	.	(8gg\L	.	.	.	.	.	.	.	.	.	.	.
8G\	.	8b\J)	.	8dd\J)	.	.	.	.	.	.	.	.	.	.	.
=93	=93	=93	=93	=93	=93	=93	=93	=93	=93	=93	=93	=93	=93	=93	=93
4C/	.	4cc\	.	4ee\	.	2.ryy	.	2.ryy	.	2.ryy	.	.	.	2.ryy	2.ryy
4c\	.	4e/	.	4cc\	.	.	.	.	.	.	.	.	.	.	.
4r	.	4r	.	4r	.	.	.	.	.	.	.	.	.	.	.
!LO:LB:g=original	!	!	!	!	!	!	!	!	!	!	!	!	!	!	!
=94	=94	=94	=94	=94	=94	=94	=94	=94	=94	=94	=94	=94	=94	=94	=94
!LO:N:vis=0	!	!	!	!	!	!	!	!	!	!	!	!	!	!	!
1.r	.	2.r	.	8gg\L	.	2.ryy	.	2.ryy	.	2.ryy	.	.	.	2.ryy	2.ryy
.	.	.	.	(16aa\L	.	.	.	.	.	.	.	.	.	.	.
.	.	.	.	16gg\JJ)	.	.	.	.	.	.	.	.	.	.	.
.	.	.	.	8gg\L	.	.	.	.	.	.	.	.	.	.	.
.	.	.	.	(16aa\L	.	.	.	.	.	.	.	.	.	.	.
.	.	.	.	16gg\JJ)	.	.	.	.	.	.	.	.	.	.	.
!	!	!	!	!LO:TX:a:t=P:mixed beam:problem	!	!	!	!	!	!	!	!	!	!	!
.	.	.	.	8b/L	.	.	.	.	.	.	.	.	.	.	.
.	.	.	.	8gg\J	.	.	.	.	.	.	.	.	.	.	.
!	!	!LO:TX:b:t=Verte cito	!	!	!	!	!	!	!	!	!	!	!	!	!
!	!	!LO:PB:g=original	!	!	!	!	!	!	!	!	!	!	!	!	!
=95	=95	=95	=95	=95	=95	=95	=95	=95	=95	=95	=95	=95	=95	=95	=95
!!pagebreak:original
!	!	!	!	!	!	!	!	!	!	!	!	!LO:N:vis=00	!	!	!
.	.	8dd\L	.	(8gg\L	.	2.ryy	.	2.ryy	.	2.ryy	.	0.r	.	2.ryy	2.ryy
.	.	(16ee\L	.	8ff\J)	.	.	.	.	.	.	.	.	.	.	.
.	.	16dd\JJ)	.	.	.	.	.	.	.	.	.	.	.	.	.
.	.	8dd\L	.	8ff\L	.	.	.	.	.	.	.	.	.	.	.
.	.	(16ee\L	.	(16gg\L	.	.	.	.	.	.	.	.	.	.	.
.	.	16dd\JJ)	.	16ff\JJ)	.	.	.	.	.	.	.	.	.	.	.
!	!	!LO:TX:a:t=P:mixed beam:problem	!	!LO:TX:a:t=P:mixed beam:problem	!	!	!	!	!	!	!	!	!	!	!
.	.	8f/L	.	8a/L	.	.	.	.	.	.	.	.	.	.	.
.	.	8dd\J	.	8ff\J	.	.	.	.	.	.	.	.	.	.	.
=96-	=96	=96	=96	=96	=96	=96	=96	=96	=96	=96	=96	=96	=96	=96	=96
8c\L	4	(8dd\L	.	(8ff\L	.	2.ryy	.	2.ryy	.	2.ryy	.	.	.	2.ryy	2.ryy
16d\L	.	8cc\J)	.	8ee\J)	.	.	.	.	.	.	.	.	.	.	.
16c\JJ	3	.	.	.	.	.	.	.	.	.	.	.	.	.	.
8c\L	.	8cc/L	.	8ee\L	.	.	.	.	.	.	.	.	.	.	.
16d\L	.	8g/J	.	(16ff\L	.	.	.	.	.	.	.	.	.	.	.
16c\JJ	.	.	.	16ee\JJ)	.	.	.	.	.	.	.	.	.	.	.
8E\L	6	8cc\L	.	8ee\L	.	.	.	.	.	.	.	.	.	.	.
8c\J	.	(16dd\L	.	(16ff\L	.	.	.	.	.	.	.	.	.	.	.
.	.	16cc\JJ)	.	16ee\JJ)	.	.	.	.	.	.	.	.	.	.	.
=97	=97	=97	=97	=97	=97	=97	=97	=97	=97	=97	=97	=97	=97	=97	=97
!	!	!LO:TX:a:t=P:mixed beam:problem	!	!	!	!	!	!	!	!	!	!	!	!	!
4c\	4 2	8f/L	.	8dd\L|	.	2.ryy	.	2.ryy	.	2.ryy	.	.	.	2.ryy	2.ryy
.	.	8dd\	.	8ff\J|	.	.	.	.	.	.	.	.	.	.	.
!	!	!	!	!LO:LB:g=original	!	!	!	!	!	!	!	!	!	!	!
4B\	x 5	(8dd\	.	(8ff\L	.	.	.	.	.	.	.	.	.	.	.
.	.	8cc\)	.	8ee\)	.	.	.	.	.	.	.	.	.	.	.
8r	.	(8cc\	.	(8ee\	.	.	.	.	.	.	.	.	.	.	.
8G\	.	8b\J)	.	8dd\J)	.	.	.	.	.	.	.	.	.	.	.
=98	=98	=98	=98	=98	=98	=98	=98	=98	=98	=98	=98	=98	=98	=98	=98
2C/	.	8cc\L	.	8ee\L|	.	2.ryy	.	2.ryy	.	2.ryy	.	.	.	2.ryy	2.ryy
.	.	8ee\	.	8gg\J|	.	.	.	.	.	.	.	.	.	.	.
.	.	(8ee\	.	(8gg\L	.	.	.	.	.	.	.	.	.	.	.
.	.	8dd\)	.	8ff\)	.	.	.	.	.	.	.	.	.	.	.
4F#X\	x -7	(8dd\	.	(8ff\	.	.	.	.	.	.	.	.	.	.	.
.	.	8cc\J)	.	8ee-X\J)	.	.	.	.	.	.	.	.	.	.	.
=99	=99	=99	=99	=99	=99	=99	=99	=99	=99	=99	=99	=99	=99	=99	=99
4G\	5 4	(8cc\L	.	4dd\	.	2.ryy	.	2.ryy	.	2.ryy	.	2.r	.	2.ryy	2.ryy
.	.	8b\J)	.	.	.	.	.	.	.	.	.	.	.	.	.
4GG/	x 3	8b/L	.	4.dd\	.	.	.	.	.	.	.	.	.	.	.
.	.	8a/	.	.	.	.	.	.	.	.	.	.	.	.	.
4G\	x n	8g/	.	.	.	.	.	.	.	.	.	.	.	.	.
.	.	8f/J	.	8cc\	.	.	.	.	.	.	.	.	.	.	.
=100	=100	=100	=100	=100	=100	=100	=100	=100	=100	=100	=100	=100-	=100	=100	=100
4C/	.	4e/	.	4cc\	.	2.ryy	.	2.ryy	.	2.ryy	.	4gg\	lon-	2.ryy	2.ryy
4E\	6	4r	.	4r	.	.	.	.	.	.	.	4cc\	-gos	.	.
4F\	.	4r	.	4r	.	.	.	.	.	.	.	4aa\	la-	.	.
=101	=101	=101	=101	=101	=101	=101	=101	=101	=101	=101	=101	=101	=101	=101	=101
!!pagebreak:original
!	!	!	!LO:DY:a	!	!	!	!	!	!	!	!	!	!	!	!
4G\	.	4dd\	p	4gg\	.	2.ryy	.	2.ryy	.	2.ryy	.	4b\	-bo-	2.ryy	2.ryy
!	!	!	!	!	!LO:DY:a	!	!	!	!	!	!	!	!	!	!
4E\	.	4g/	.	4cc\	p	.	.	.	.	.	.	4cc\	-res	.	.
4F\	.	4cc\	.	4aa\	.	.	.	.	.	.	.	4r	.	.	.
!	!	!LO:LB:g=original	!	!	!	!	!	!	!	!	!	!	!	!	!
=102	=102	=102	=102	=102	=102	=102	=102	=102	=102	=102	=102	=102	=102	=102	=102
4G\	.	4g/	.	4b/	.	2.ryy	.	2.ryy	.	2.ryy	.	(8dd\L	lon-	2.ryy	2.ryy
.	.	.	.	.	.	.	.	.	.	.	.	8b\J)	.	.	.
4C/	.	4e/	.	4cc\	.	.	.	.	.	.	.	8g\L	-gos	.	.
.	.	.	.	.	.	.	.	.	.	.	.	8ee\J	.	.	.
4r	.	4r	.	4r	.	.	.	.	.	.	.	8ff\L	ſu-	.	.
.	.	.	.	.	.	.	.	.	.	.	.	8dd\J	.	.	.
=103	=103	=103	=103	=103-	=103	=103	=103	=103	=103	=103	=103	=103	=103	=103	=103
!	!	!LO:N:vis=0	!	!	!	!	!	!	!	!	!	!	!	!	!
4r	.	1.r	.	2.r	.	2.ryy	.	2.ryy	.	2.ryy	.	4ee\	-do-	2.ryy	2.ryy
4C/	.	.	.	.	.	.	.	.	.	.	.	4cc\	-res	.	.
4D/	.	.	.	.	.	.	.	.	.	.	.	4r	.	.	.
=104	=104	=104	=104	=104-	=104	=104	=104	=104	=104	=104	=104	=104	=104	=104	=104
2.E\	6	.	.	2.r	.	2.ryy	.	2.ryy	.	2.ryy	.	(8gg\L	ae-	2.ryy	2.ryy
.	.	.	.	.	.	.	.	.	.	.	.	8ee\J)	.	.	.
.	.	.	.	.	.	.	.	.	.	.	.	(8ee\L	-ter-	.	.
.	-5	.	.	.	.	.	.	.	.	.	.	8cc\J)	.	.	.
!	!	!	!	!	!	!	!	!	!	!	!	!LO:LB:g=original	!	!	!
.	.	.	.	.	.	.	.	.	.	.	.	8cc\L	-na	.	.
.	.	.	.	.	.	.	.	.	.	.	.	8b-X\J	.	.	.
!LO:LB:g=original	!	!	!	!	!	!	!	!	!	!	!	!	!	!	!
=105	=105	=105	=105	=105-	=105	=105	=105	=105	=105	=105	=105	=105	=105	=105	=105
2F\	5 -4	8c/L	.	8f/L	.	2.ryy	.	2.ryy	.	2.ryy	.	4b-X\	ex-	2.ryy	2.ryy
.	.	8f/	.	8a/	.	.	.	.	.	.	.	.	.	.	.
.	.	8f/	.	8a/	.	.	.	.	.	.	.	8a\L	-ci-	.	.
.	x 3	8a/	.	8cc/	.	.	.	.	.	.	.	8g\J	.	.	.
4E\	.	8a/	.	8cc/	.	.	.	.	.	.	.	4a\	-pit	.	.
.	.	8cc/J	.	8ff/J	.	.	.	.	.	.	.	.	.	.	.
=106	=106	=106	=106	=106	=106	=106	=106	=106	=106	=106	=106	=106	=106	=106	=106
2.D/	3	4A/	.	4c/	.	2.ryy	.	2.ryy	.	2.ryy	.	(8aa\L	ae-	2.ryy	2.ryy
.	.	.	.	.	.	.	.	.	.	.	.	8ff#X\J)	.	.	.
.	#4	4r	.	4r	.	.	.	.	.	.	.	(8ff#\L	-ter-	.	.
.	.	.	.	.	.	.	.	.	.	.	.	8dd\J)	.	.	.
.	.	4r	.	4r	.	.	.	.	.	.	.	(8dd\L	-na	.	.
.	.	.	.	.	.	.	.	.	.	.	.	8cc\J)	.	.	.
=107	=107	=107	=107	=107	=107	=107	=107	=107	=107	=107	=107	=107	=107	=107	=107
2G\	4	8r	.	8g/L	.	2.ryy	.	2.ryy	.	2.ryy	.	4cc\	ex-	2.ryy	2.ryy
.	3	8g/L	.	8b/J	.	.	.	.	.	.	.	.	.	.	.
!	!	!	!	!LO:LB:g=original	!	!	!	!	!	!	!	!	!	!	!
.	.	8g/	.	8b\L	.	.	.	.	.	.	.	8b\L	-ci-	.	.
.	.	8b/	.	8dd\	.	.	.	.	.	.	.	8a\J	.	.	.
4F\	2	8b/	.	8dd\	.	.	.	.	.	.	.	4b\	-pit	.	.
.	.	8dd/J	.	8gg\J	.	.	.	.	.	.	.	.	.	.	.
=108	=108	=108	=108	=108	=108	=108	=108	=108	=108	=108	=108	=108	=108	=108	=108
!!pagebreak:original
2E\	7	4G#X/	.	4B/	.	2.ryy	.	2.ryy	.	2.ryy	.	4dd\	vic-	2.ryy	2.ryy
.	.	4r	.	4r	.	.	.	.	.	.	.	8dd\L	-to-	.	.
.	.	.	.	.	.	.	.	.	.	.	.	8ee\	.	.	.
4G#X\	5	4r	.	4r	.	.	.	.	.	.	.	8dd\	.	.	.
.	6	.	.	.	.	.	.	.	.	.	.	8ee\J	.	.	.
=109	=109	=109	=109	=109	=109	=109	=109	=109	=109	=109	=109	=109	=109	=109	=109
2A\	.	4r	.	4ee\	.	2.ryy	.	2.ryy	.	2.ryy	.	8cc\L	.	2.ryy	2.ryy
.	.	.	.	.	.	.	.	.	.	.	.	8b\	.	.	.
.	.	4r	.	8ee\L	.	.	.	.	.	.	.	8cc\	.	.	.
.	.	.	.	8ff\	.	.	.	.	.	.	.	8dd\	.	.	.
4AA/	.	4a/	.	8ee\	.	.	.	.	.	.	.	8cc\	.	.	.
.	.	.	.	8ff\J	.	.	.	.	.	.	.	8dd\J	.	.	.
=110	=110	=110	=110	=110	=110	=110	=110	=110	=110	=110	=110	=110	=110	=110	=110
2BB/	7	2a/	.	8dd\L	.	2.ryy	.	2.ryy	.	2.ryy	.	8b\L	.	2.ryy	2.ryy
.	.	.	.	8cc\	.	.	.	.	.	.	.	8a\	.	.	.
.	.	.	.	8dd\	.	.	.	.	.	.	.	8b\	.	.	.
.	.	.	.	8ee\	.	.	.	.	.	.	.	8cc\	.	.	.
4E\	7 #	4g#X/	.	8dd\	.	.	.	.	.	.	.	8b\	.	.	.
.	.	.	.	8ee\J	.	.	.	.	.	.	.	8cc\J	.	.	.
!	!	!	!	!	!	!	!	!	!	!	!	!LO:LB:g=original	!	!	!
=111	=111	=111	=111	=111	=111	=111	=111	=111	=111	=111	=111	=111	=111	=111	=111
2AA/	n	4a/	.	4cc\	.	2.ryy	.	2.ryy	.	2.ryy	.	4.a\	.	2.ryy	2.ryy
.	.	4r	.	4r	.	.	.	.	.	.	.	.	.	.	.
.	.	.	.	.	.	.	.	.	.	.	.	8b\	-ri-	.	.
4A\	.	4r	.	4r	.	.	.	.	.	.	.	4cc\	-a	.	.
=112	=112	=112	=112	=112-	=112	=112	=112	=112	=112	=112	=112	=112	=112	=112	=112
!	!	!LO:N:vis=0	!	!LO:N:vis=00	!	!	!	!	!	!	!	!	!	!	!
4D/	6	1.r	.	1.r	.	2.ryy	.	2.ryy	.	2.ryy	.	4b\	vic-	2.ryy	2.ryy
2E\	4	.	.	.	.	.	.	.	.	.	.	4.b\	-to-	.	.
.	3	.	.	.	.	.	.	.	.	.	.	8a\	-ri-	.	.
=113	=113	=113	=113	=113	=113	=113	=113	=113	=113	=113	=113	=113	=113	=113	=113
4AA/	.	.	.	.	.	2.ryy	.	2.ryy	.	2.ryy	.	2.a\	-a	2.ryy	2.ryy
4C/	.	.	.	.	.	.	.	.	.	.	.	.	.	.	.
4D/	.	.	.	.	.	.	.	.	.	.	.	.	.	.	.
=114	=114	=114	=114	=114	=114	=114	=114	=114	=114	=114	=114	=114	=114	=114	=114
2.E\	6	2.r	.	2.r	.	2.ryy	.	2.ryy	.	2.ryy	.	(8gg\L	ae-	2.ryy	2.ryy
.	.	.	.	.	.	.	.	.	.	.	.	8ee\J)	.	.	.
.	.	.	.	.	.	.	.	.	.	.	.	(8ee\L	-ter-	.	.
.	-5	.	.	.	.	.	.	.	.	.	.	8cc\J)	.	.	.
.	.	.	.	.	.	.	.	.	.	.	.	(8cc\L	-na	.	.
.	.	.	.	.	.	.	.	.	.	.	.	8b-X\J)	.	.	.
=115	=115	=115	=115	=115-	=115	=115	=115	=115	=115	=115	=115	=115	=115	=115	=115
!!pagebreak:original
2F\	5 -4	8c/L	.	8f/L	.	2.ryy	.	2.ryy	.	2.ryy	.	4b-X\	ex-	2.ryy	2.ryy
.	.	8f/	.	8a/	.	.	.	.	.	.	.	.	.	.	.
.	x 3	8f/	.	8a/	.	.	.	.	.	.	.	8a\L	-ci-	.	.
.	.	8a/	.	8cc/	.	.	.	.	.	.	.	8g\J	.	.	.
4E\	.	8a/	.	8cc/	.	.	.	.	.	.	.	4a\	-pit	.	.
.	.	8cc/J	.	8ff/J	.	.	.	.	.	.	.	.	.	.	.
=116	=116	=116	=116	=116	=116	=116	=116	=116	=116	=116	=116	=116	=116	=116	=116
2.D/	7 #	4A/	.	4c/	.	2.ryy	.	2.ryy	.	2.ryy	.	(8aa\L	ae-	2.ryy	2.ryy
.	.	.	.	.	.	.	.	.	.	.	.	8ff#X\J)	.	.	.
.	.	4r	.	4r	.	.	.	.	.	.	.	(8ff#\L	-ter-	.	.
.	.	.	.	.	.	.	.	.	.	.	.	8dd\J)	.	.	.
.	.	4r	.	4r	.	.	.	.	.	.	.	(8dd\L	-na	.	.
.	.	.	.	.	.	.	.	.	.	.	.	8cc\J)	.	.	.
!LO:LB:g=original	!	!	!	!	!	!	!	!	!	!	!	!	!	!	!
=117	=117	=117	=117	=117	=117	=117	=117	=117	=117	=117	=117	=117	=117	=117	=117
2G\	5 4	8r	.	8g/L	.	2.ryy	.	2.ryy	.	2.ryy	.	4cc\	ex-	2.ryy	2.ryy
.	.	8g/L	.	8b/	.	.	.	.	.	.	.	.	.	.	.
.	x 3	8g/	.	8b/	.	.	.	.	.	.	.	8b\L	-ci-	.	.
.	.	8b/	.	8dd/J	.	.	.	.	.	.	.	8a\J	.	.	.
4F\	4 2	8b/	.	8dd\L	.	.	.	.	.	.	.	4b\	-pit	.	.
.	.	8dd/J	.	8gg\J	.	.	.	.	.	.	.	.	.	.	.
!	!	!	!	!LO:LB:g=original	!	!	!	!	!	!	!	!	!	!	!
=118	=118	=118	=118	=118	=118	=118	=118	=118	=118	=118	=118	=118	=118	=118	=118
2E\	7	4G#X/	.	4B/	.	2.ryy	.	2.ryy	.	2.ryy	.	4dd\	vic-	2.ryy	2.ryy
!	!	!	!	!	!	!	!	!	!	!	!	!LO:LB:g=original	!	!	!
.	.	4r	.	4r	.	.	.	.	.	.	.	8dd\L	-to-	.	.
.	.	.	.	.	.	.	.	.	.	.	.	8ee\	.	.	.
4G#X\	5	4r	.	4r	.	.	.	.	.	.	.	8dd\	.	.	.
.	.	.	.	.	.	.	.	.	.	.	.	8ee\J	.	.	.
=119	=119	=119	=119	=119	=119	=119	=119	=119	=119	=119	=119	=119	=119	=119	=119
2A\	n	4r	.	4ee\	.	2.ryy	.	2.ryy	.	2.ryy	.	8cc\L	.	2.ryy	2.ryy
.	.	.	.	.	.	.	.	.	.	.	.	8b\	.	.	.
.	.	4r	.	8ee\L	.	.	.	.	.	.	.	8cc\	.	.	.
.	.	.	.	8ff\	.	.	.	.	.	.	.	8dd\	.	.	.
4AA/	.	4a/	.	8ee\	.	.	.	.	.	.	.	8cc\	.	.	.
.	.	.	.	8ff\J	.	.	.	.	.	.	.	8dd\J	.	.	.
=120	=120	=120	=120	=120	=120	=120	=120	=120	=120	=120	=120	=120	=120	=120	=120
2BB/	7	2a/	.	8dd\L	.	2.ryy	.	2.ryy	.	2.ryy	.	8b\L	.	2.ryy	2.ryy
.	.	.	.	8cc\	.	.	.	.	.	.	.	8a\	.	.	.
.	.	.	.	8dd\	.	.	.	.	.	.	.	8b\	.	.	.
.	.	.	.	8ee\	.	.	.	.	.	.	.	8cc\	.	.	.
4E\	#	4g#X/	.	8dd\	.	.	.	.	.	.	.	8b\	.	.	.
.	.	.	.	8ee\J	.	.	.	.	.	.	.	8cc\J	.	.	.
=121	=121	=121	=121	=121	=121	=121	=121	=121	=121	=121	=121	=121	=121	=121	=121
2.A\	n	4e/	.	4cc\	.	2.ryy	.	2.ryy	.	2.ryy	.	4.a\	.	2.ryy	2.ryy
.	.	4r	.	4r	.	.	.	.	.	.	.	.	.	.	.
.	.	.	.	.	.	.	.	.	.	.	.	8b\	-ri-	.	.
.	.	4r	.	4r	.	.	.	.	.	.	.	4cc\	-a	.	.
=122	=122	=122-	=122	=122	=122	=122	=122	=122	=122	=122	=122	=122	=122	=122	=122
!!pagebreak:original
4D/	6	2.r	.	2.r	.	2.ryy	.	2.ryy	.	2.ryy	.	8b\L	vic-	2.ryy	2.ryy
.	.	.	.	.	.	.	.	.	.	.	.	8a\J	.	.	.
4E\	4	.	.	.	.	.	.	.	.	.	.	4.g#X/	-to-	.	.
4EE/	3	.	.	.	.	.	.	.	.	.	.	.	.	.	.
.	#	.	.	.	.	.	.	.	.	.	.	8a\	-ri-	.	.
=123	=123	=123-	=123	=123	=123	=123	=123	=123	=123	=123	=123	=123	=123	=123	=123
!	!	!	!LO:DY:a	!	!LO:DY:a	!	!	!	!	!	!	!	!	!	!
2AA/	n	4ee\	f	4ee\	f	2.ryy	.	2.ryy	.	2.ryy	.	2.a\	-a	2.ryy	2.ryy
.	.	4a/	.	4a/	.	.	.	.	.	.	.	.	.	.	.
4r	.	4ff\	.	4ff\	.	.	.	.	.	.	.	.	.	.	.
=124	=124	=124	=124	=124	=124	=124	=124	=124	=124	=124	=124	=124-	=124	=124	=124
!LO:TX:b:t=V l	!	!	!	!	!	!	!	!	!	!	!	!	!	!	!
!	!	!	!	!	!	!	!	!	!	!	!	!LO:N:vis=00	!	!	!
4E\	#	4g#X/	.	4g#X/	.	2.ryy	.	2.ryy	.	2.ryy	.	0.r	.	2.ryy	2.ryy
4AA/	.	4a/	.	4a/	.	.	.	.	.	.	.	.	.	.	.
4F\	3	8r	.	8r	.	.	.	.	.	.	.	.	.	.	.
.	.	8a/	.	8a/	.	.	.	.	.	.	.	.	.	.	.
!	!	!LO:LB:g=original	!	!	!	!	!	!	!	!	!	!	!	!	!
=125	=125	=125	=125	=125	=125	=125	=125	=125	=125	=125	=125	=125	=125	=125	=125
!	!	!	!	!LO:TX:a:t=P:mixed beam:problem	!	!	!	!	!	!	!	!	!	!	!
4GG#X/	5	8b/L	.	(8dd\L	.	2.ryy	.	2.ryy	.	2.ryy	.	.	.	2.ryy	2.ryy
.	.	8g#X/J	.	8b\)	.	.	.	.	.	.	.	.	.	.	.
4AA/	n	(8e/L	.	(8e/	.	.	.	.	.	.	.	.	.	.	.
.	.	8a/)	.	8cc\)	.	.	.	.	.	.	.	.	.	.	.
8r	.	(8b/	.	(8ee\	.	.	.	.	.	.	.	.	.	.	.
8E\	#	8g#X/J)	.	8b\J)	.	.	.	.	.	.	.	.	.	.	.
=126	=126	=126	=126	=126	=126	=126	=126	=126	=126	=126	=126	=126	=126	=126	=126
4AA/	n	4a/	.	4cc\	.	2.ryy	.	2.ryy	.	2.ryy	.	.	.	2.ryy	2.ryy
4A\	.	4e/	.	4a/	.	.	.	.	.	.	.	.	.	.	.
4r	.	4r	.	8r	.	.	.	.	.	.	.	.	.	.	.
.	.	.	.	8ee\	.	.	.	.	.	.	.	.	.	.	.
!LO:TX:b:t=Verte	!	!	!	!	!	!	!	!	!	!	!	!	!	!	!
!LO:PB:g=original	!	!	!	!LO:LB:g=original	!	!	!	!	!	!	!	!	!	!	!
=127	=127	=127	=127	=127	=127	=127	=127	=127	=127	=127	=127	=127	=127	=127	=127
4r	.	8cc#X\L	.	8ee\L	.	2.ryy	.	2.ryy	.	2.ryy	.	.	.	2.ryy	2.ryy
.	.	16dd\L	.	(16ff\L	.	.	.	.	.	.	.	.	.	.	.
.	.	16cc#\JJ	.	16ee\JJ)	.	.	.	.	.	.	.	.	.	.	.
4A\	7 #	8cc#X\L	.	8ee\L	.	.	.	.	.	.	.	.	.	.	.
.	.	16dd\L	.	(16ff\L	.	.	.	.	.	.	.	.	.	.	.
.	.	16cc#\JJ	.	16ee\JJ)	.	.	.	.	.	.	.	.	.	.	.
!	!	!LO:TX:a:t=P:mixed beam:problem	!	!LO:TX:a:t=P:mixed beam:problem	!	!	!	!	!	!	!	!	!	!	!
4AA/	.	8e/L	.	8g/L	.	.	.	.	.	.	.	.	.	.	.
.	.	8cc#X\J	.	8ee\J	.	.	.	.	.	.	.	.	.	.	.
=128	=128	=128	=128	=128	=128	=128	=128	=128	=128	=128	=128	=128	=128	=128	=128
!	!	!	!	!	!	!	!	!	!	!	!	!LO:N:vis=00	!	!	!
.	x 9	.	.	.	.	.	.	.	.	.	.	.	.	.	.
4D/	-	4a/	.	(8ee\L	.	2.ryy	.	2.ryy	.	2.ryy	.	0.r	.	2.ryy	2.ryy
.	x 8	.	.	8dd\J)	.	.	.	.	.	.	.	.	.	.	.
4G\	n7	8b/L	.	8dd\L	.	.	.	.	.	.	.	.	.	.	.
.	.	(16cc/L	.	(16ee\L	.	.	.	.	.	.	.	.	.	.	.
.	.	16b/JJ)	.	16dd\JJ)	.	.	.	.	.	.	.	.	.	.	.
!	!	!	!	!LO:TX:a:t=P:mixed beam:problem	!	!	!	!	!	!	!	!	!	!	!
4GG/	.	8d/L	.	8f/L	.	.	.	.	.	.	.	.	.	.	.
.	.	8b/J	.	8dd/J	.	.	.	.	.	.	.	.	.	.	.
=129	=129	=129	=129	=129	=129	=129	=129	=129	=129	=129	=129	=129	=129	=129	=129
!!pagebreak:original
4C/	9	4g/	.	(8dd\L	.	2.ryy	.	2.ryy	.	2.ryy	.	.	.	2.ryy	2.ryy
.	8	.	.	8cc\J)	.	.	.	.	.	.	.	.	.	.	.
4F\	.	8a/L	.	8cc\L	.	.	.	.	.	.	.	.	.	.	.
.	.	16b-X/L	.	16dd\L	.	.	.	.	.	.	.	.	.	.	.
.	.	16a/JJ	.	16cc\JJ	.	.	.	.	.	.	.	.	.	.	.
!	!	!	!	!LO:TX:a:t=P:mixed beam:problem	!	!	!	!	!	!	!	!	!	!	!
4FF/	-7	8c/L	.	8e-X/L	.	.	.	.	.	.	.	.	.	.	.
.	.	8a/J	.	8cc\J	.	.	.	.	.	.	.	.	.	.	.
=130	=130	=130	=130	=130	=130	=130	=130	=130	=130	=130	=130	=130	=130	=130	=130
4BB-X/	9	4f/	.	(8cc\L	.	2.ryy	.	2.ryy	.	2.ryy	.	.	.	2.ryy	2.ryy
.	8	.	.	8b-X\)	.	.	.	.	.	.	.	.	.	.	.
4r	.	(8d/L	.	(8b-\	.	.	.	.	.	.	.	.	.	.	.
.	.	8c/)	.	8a\)	.	.	.	.	.	.	.	.	.	.	.
4r	.	(8c/	.	(8a\	.	.	.	.	.	.	.	.	.	.	.
.	.	8B/J)	.	8g#X\J)	.	.	.	.	.	.	.	.	.	.	.
!	!	!LO:LB:g=original	!	!	!	!	!	!	!	!	!	!	!	!	!
=131	=131	=131	=131	=131	=131	=131	=131	=131	=131	=131	=131	=131	=131	=131	=131
8E\L	#	4B/	.	4g#X/	.	2.ryy	.	2.ryy	.	2.ryy	.	.	.	2.ryy	2.ryy
16F\L	_	.	.	.	.	.	.	.	.	.	.	.	.	.	.
16E\JJ	.	.	.	.	.	.	.	.	.	.	.	.	.	.	.
8E\L	.	4r	.	4r	.	.	.	.	.	.	.	.	.	.	.
16F\L	.	.	.	.	.	.	.	.	.	.	.	.	.	.	.
16E\JJ	.	.	.	.	.	.	.	.	.	.	.	.	.	.	.
!LO:TX:a:t=P:mixed beam:problem	!	!	!	!	!	!	!	!	!	!	!	!	!	!	!
8GG#X/L	6_	4r	.	4r	.	.	.	.	.	.	.	.	.	.	.
8E\J	.	.	.	.	.	.	.	.	.	.	.	.	.	.	.
=132	=132	=132	=132	=132	=132	=132	=132	=132	=132	=132	=132	=132	=132	=132	=132
!	!	!	!	!	!	!	!	!	!	!	!	!LO:N:vis=00	!	!	!
4C/	6	8a/L	.	2.r	.	2.ryy	.	2.ryy	.	2.ryy	.	0.r	.	2.ryy	2.ryy
.	.	(16b/L	.	.	.	.	.	.	.	.	.	.	.	.	.
.	.	16a/JJ)	.	.	.	.	.	.	.	.	.	.	.	.	.
4AA/	.	8a/L	.	.	.	.	.	.	.	.	.	.	.	.	.
.	.	(16b/L	.	.	.	.	.	.	.	.	.	.	.	.	.
.	.	16a/JJ)	.	.	.	.	.	.	.	.	.	.	.	.	.
4A\	.	8c/L	.	.	.	.	.	.	.	.	.	.	.	.	.
.	.	8a/J	.	.	.	.	.	.	.	.	.	.	.	.	.
=133	=133	=133	=133	=133-	=133	=133	=133	=133	=133	=133	=133	=133	=133	=133	=133
2.G#X\	5	8b\L	.	8dd\L	.	2.ryy	.	2.ryy	.	2.ryy	.	.	.	2.ryy	2.ryy
.	.	(16cc\L	.	(16ee\L	.	.	.	.	.	.	.	.	.	.	.
.	.	16b\JJ)	.	16dd\JJ)	.	.	.	.	.	.	.	.	.	.	.
.	.	8b\L	.	8dd\L	.	.	.	.	.	.	.	.	.	.	.
.	.	16cc\L	.	(16ee\L	.	.	.	.	.	.	.	.	.	.	.
.	.	16b\JJ	.	16dd\JJ)	.	.	.	.	.	.	.	.	.	.	.
!	!	!	!	!LO:LB:g=original	!	!	!	!	!	!	!	!	!	!	!
!	!	!LO:TX:a:t=P:mixed beam:problem	!	!LO:TX:a:t=P:mixed beam:problem	!	!	!	!	!	!	!	!	!	!	!
.	.	8B/L	.	8e/L	.	.	.	.	.	.	.	.	.	.	.
.	.	8b\J	.	8dd\J	.	.	.	.	.	.	.	.	.	.	.
=134	=134	=134	=134	=134	=134	=134	=134	=134	=134	=134	=134	=134	=134	=134	=134
!!pagebreak:original
2.A\	.	8a\L|	.	8cc\L	.	2.ryy	.	2.ryy	.	2.ryy	.	.	.	2.ryy	2.ryy
.	.	8cc\J|	.	8ee\J	.	.	.	.	.	.	.	.	.	.	.
.	.	(8cc\L	.	(8ee\L	.	.	.	.	.	.	.	.	.	.	.
.	.	8b\)	.	8dd\J)	.	.	.	.	.	.	.	.	.	.	.
!	!	!	!	!LO:SIC:o=:v:2 nuty nieczytelne (rozmazany atrament)	!	!	!	!	!	!	!	!	!	!	!
.	.	(8b\	.	(8dd\Lyy	.	.	.	.	.	.	.	.	.	.	.
.	.	8a\J)	.	8cc\J)yy	.	.	.	.	.	.	.	.	.	.	.
=135	=135	=135	=135	=135	=135	=135	=135	=135	=135	=135	=135	=135	=135	=135	=135
!	!	!LO:TX:a:t=P:mixed beam:problem	!	!	!	!	!	!	!	!	!	!	!	!	!
2D/	.	8f/L	.	8dd\L	.	2.ryy	.	2.ryy	.	2.ryy	.	.	.	2.ryy	2.ryy
.	.	8dd\J	.	8ff\	.	.	.	.	.	.	.	.	.	.	.
.	.	8dd\L	.	8ff\	.	.	.	.	.	.	.	.	.	.	.
.	.	8cc\	.	8ee\	.	.	.	.	.	.	.	.	.	.	.
4r	.	8b\	.	8dd\	.	.	.	.	.	.	.	.	.	.	.
.	.	8a\J	.	8cc\J	.	.	.	.	.	.	.	.	.	.	.
=136	=136	=136	=136	=136	=136	=136	=136	=136	=136	=136	=136	=136	=136	=136	=136
!	!	!	!	!	!	!	!	!	!	!	!	!LO:N:vis=00	!	!	!
8r	.	4g#X/	.	4b/	.	2.ryy	.	2.ryy	.	2.ryy	.	0.r	.	2.ryy	2.ryy
8E\L	#	.	.	.	.	.	.	.	.	.	.	.	.	.	.
8E\	.	8r	.	8r	.	.	.	.	.	.	.	.	.	.	.
8D\	.	8d/L	.	8b\L	.	.	.	.	.	.	.	.	.	.	.
8C\	.	8a/	.	8ee\	.	.	.	.	.	.	.	.	.	.	.
8BB\J	.	8b/J	.	8gg#X\J	.	.	.	.	.	.	.	.	.	.	.
!LO:LB:g=original	!	!LO:LB:g=original	!	!	!	!	!	!	!	!	!	!	!	!	!
=137	=137	=137	=137	=137	=137	=137	=137	=137	=137	=137	=137	=137	=137	=137	=137
8AA/L	.	8cc\L	.	8aa\L	.	2.ryy	.	2.ryy	.	2.ryy	.	.	.	2.ryy	2.ryy
8D/J	6	16b\L	.	8b\J	.	.	.	.	.	.	.	.	.	.	.
.	.	16a\JJ	.	.	.	.	.	.	.	.	.	.	.	.	.
4E\	4	4a/	.	2bt/	.	.	.	.	.	.	.	.	.	.	.
4EE/	3 #	4g#X/	.	.	.	.	.	.	.	.	.	.	.	.	.
=138	=138	=138	=138	=138	=138	=138	=138	=138	=138	=138	=138	=138	=138	=138	=138
4AA/	.	8a/L	.	8a/L	.	2.ryy	.	2.ryy	.	2.ryy	.	.	.	2.ryy	2.ryy
.	.	8c/	.	8e/J	.	.	.	.	.	.	.	.	.	.	.
4r	.	(8d/	.	(8f/L	.	.	.	.	.	.	.	.	.	.	.
.	.	8c/)	.	8e/)	.	.	.	.	.	.	.	.	.	.	.
4r	.	(8d/	.	(8f/	.	.	.	.	.	.	.	.	.	.	.
.	.	8c/J)	.	8e/J)	.	.	.	.	.	.	.	.	.	.	.
=139	=139	=139	=139	=139	=139	=139	=139	=139	=139	=139	=139	=139	=139	=139	=139
4D/	6	8B/L	.	8d/L	.	2.ryy	.	2.ryy	.	2.ryy	.	.	.	2.ryy	2.ryy
.	.	8B/	.	8d/	.	.	.	.	.	.	.	.	.	.	.
4r	.	(8c/	.	(8e/	.	.	.	.	.	.	.	.	.	.	.
.	.	8B/)	.	8d/)	.	.	.	.	.	.	.	.	.	.	.
4r	.	(8c/	.	(8e/	.	.	.	.	.	.	.	.	.	.	.
.	.	8B/J)	.	8d/J)	.	.	.	.	.	.	.	.	.	.	.
!	!	!	!	!LO:LB:g=original	!	!	!	!	!	!	!	!	!	!	!
=140	=140	=140	=140	=140	=140	=140	=140	=140	=140	=140	=140	=140	=140	=140	=140
!!pagebreak:original
!	!	!	!	!	!	!	!	!	!	!	!	!LO:N:vis=0	!	!	!
8r	.	8A/L	.	8c/L	.	2.ryy	.	2.ryy	.	2.ryy	.	1.r	.	2.ryy	2.ryy
8D/	6 5	8B/J	.	8a/J	.	.	.	.	.	.	.	.	.	.	.
4E\	5 4	4c/	.	4a/	.	.	.	.	.	.	.	.	.	.	.
4EE/	x #	8.B/L	.	4g#X/	.	.	.	.	.	.	.	.	.	.	.
.	.	16A/Jk	.	.	.	.	.	.	.	.	.	.	.	.	.
=141	=141	=141	=141	=141	=141	=141	=141	=141	=141	=141	=141	=141	=141	=141	=141
4AA/	.	4A/	.	4a/	.	2.ryy	.	2.ryy	.	2.ryy	.	.	.	2.ryy	2.ryy
4A\	.	4r	.	4r	.	.	.	.	.	.	.	.	.	.	.
4G\	-	4r	.	4r	.	.	.	.	.	.	.	.	.	.	.
=142	=142	=142-	=142	=142-	=142	=142	=142	=142	=142	=142	=142	=142	=142	=142	=142
!LO:TX:b:t=Canto	!	!LO:N:vis=00	!	!LO:N:vis=00	!	!	!	!	!	!	!	!	!	!	!
2F\	.	0.r	.	0.r	.	2.ryy	.	2.ryy	.	2.ryy	.	4cc\	Jac-	2.ryy	2.ryy
.	.	.	.	.	.	.	.	.	.	.	.	4f/	-tu-	.	.
4r	.	.	.	.	.	.	.	.	.	.	.	4dd\	-ram	.	.
!	!	!	!	!	!	!	!	!	!	!	!	!LO:LB:g=original	!	!	!
=143	=143	=143	=143	=143	=143	=143	=143	=143	=143	=143	=143	=143	=143	=143	=143
4c\	.	.	.	.	.	2.ryy	.	2.ryy	.	2.ryy	.	4e/	re-	2.ryy	2.ryy
4F\	.	.	.	.	.	.	.	.	.	.	.	4f/	-rum	.	.
4d\	.	.	.	.	.	.	.	.	.	.	.	4r	.	.	.
=144	=144	=144	=144	=144	=144	=144	=144	=144	=144	=144	=144	=144	=144	=144	=144
4E\	-5	.	.	.	.	2.ryy	.	2.ryy	.	2.ryy	.	8b-X\L	flu-	2.ryy	2.ryy
.	.	.	.	.	.	.	.	.	.	.	.	8g\J	.	.	.
4F\	.	.	.	.	.	.	.	.	.	.	.	8c/L	-xum	.	.
!	!	!	!	!	!	!	!	!	!	!	!	!LO:TX:a:t=P:mixed beam:problem	!	!	!
.	.	.	.	.	.	.	.	.	.	.	.	8a\J	.	.	.
4r	.	.	.	.	.	.	.	.	.	.	.	8cc\L	di-	.	.
.	.	.	.	.	.	.	.	.	.	.	.	8g\J	.	.	.
=145	=145	=145	=145	=145	=145	=145	=145	=145	=145	=145	=145	=145	=145	=145	=145
4r	.	.	.	.	.	2.ryy	.	2.ryy	.	2.ryy	.	4a\	-e-	2.ryy	2.ryy
4F\	.	.	.	.	.	.	.	.	.	.	.	4f/	-rum	.	.
4G\	6 -3	.	.	.	.	.	.	.	.	.	.	4r	.	.	.
=146	=146	=146-	=146	=146	=146	=146	=146	=146	=146	=146	=146	=146	=146	=146	=146
!	!	!	!LO:DY:b	!	!	!	!	!	!	!	!	!	!	!	!
2A\	6	4a/	p	4cc\	.	2.ryy	.	2.ryy	.	2.ryy	.	4cc\	pe-	2.ryy	2.ryy
!	!	!	!	!	!LO:DY:a	!	!	!	!	!	!	!	!	!	!
.	-5	(8cc/L	.	(8ee-X\L	p	.	.	.	.	.	.	(8ee-X\L	-ren-	.	.
.	.	8a/J)	.	8cc\J)	.	.	.	.	.	.	.	8cc\J)	.	.	.
4AA/	6	(8f/L	.	(8a\L	.	.	.	.	.	.	.	(8a\L	-nis	.	.
.	.	8cc/J)	.	8ee-X\J)	.	.	.	.	.	.	.	8ee-X\J)	.	.	.
=147	=147	=147	=147	=147	=147	=147	=147	=147	=147	=147	=147	=147	=147	=147	=147
!!pagebreak:original
2BB-X/	9 #4	4cc/	.	4ee-X\	.	2.ryy	.	2.ryy	.	2.ryy	.	4ee-X\	ſe-	2.ryy	2.ryy
.	.	8b-X/L	.	8dd\L	.	.	.	.	.	.	.	(8dd\L	-qui-	.	.
.	8 3	8a/J	.	8cc\J	.	.	.	.	.	.	.	8cc\J)	.	.	.
4AA/	.	4b-X/	.	4dd\	.	.	.	.	.	.	.	4dd\	-tur	.	.
!	!	!LO:LB:g=original	!	!	!	!	!	!	!	!	!	!	!	!	!
=148	=148	=148	=148	=148	=148	=148	=148	=148	=148	=148	=148	=148	=148	=148	=148
!LO:SIC:o:s=:v:2/3 taktu brak - uszkodzony papier	!	!	!	!	!	!	!	!	!	!	!	!	!	!	!
2GG/	n	4bn\	.	4dd\	.	2.ryy	.	2.ryy	.	2.ryy	.	4dd\	pe-	2.ryy	2.ryy
.	.	(8dd\L	.	(8ff\L	.	.	.	.	.	.	.	(8ff\L	-ren-	.	.
.	.	8b\J)	.	8dd\J)	.	.	.	.	.	.	.	8dd\J)	.	.	.
!LO:LB:g=original	!	!	!	!	!	!	!	!	!	!	!	!	!	!	!
4BBn/	6 5	(8g\L	.	(8bn\L	.	.	.	.	.	.	.	(8bn\L	-nis	.	.
.	.	8dd\J)	.	8ff\J)	.	.	.	.	.	.	.	8ff\J)	.	.	.
=149	=149	=149	=149	=149	=149	=149	=149	=149	=149	=149	=149	=149	=149	=149	=149
2C/	9	4dd\	.	4ff\	.	2.ryy	.	2.ryy	.	2.ryy	.	4ff\	ſe-	2.ryy	2.ryy
.	8	8cc\L	.	8ee\L	.	.	.	.	.	.	.	8ee\L	-qui-	.	.
.	.	8b\J	.	8dd\J	.	.	.	.	.	.	.	8dd\J	.	.	.
4c\	.	4cc\	.	4ee\	.	.	.	.	.	.	.	4ee\	-tur	.	.
!	!	!	!	!	!	!	!	!	!	!	!	!LO:PB:g=original	!	!	!
=150	=150	=150-	=150	=150-	=150	=150	=150	=150	=150	=150	=150	=150	=150	=150	=150
4F\	6	2.r	.	2.r	.	2.ryy	.	2.ryy	.	2.ryy	.	8dd\L	glo-	2.ryy	2.ryy
.	5	.	.	.	.	.	.	.	.	.	.	8cc\J	.	.	.
4G\	6 4	.	.	.	.	.	.	.	.	.	.	4.bt\	.	.	.
4GG/	x 3	.	.	.	.	.	.	.	.	.	.	.	.	.	.
.	.	.	.	.	.	.	.	.	.	.	.	8cc\	-ri-	.	.
=151	=151	=151	=151	=151-	=151	=151	=151	=151	=151	=151	=151	=151	=151	=151	=151
2C/	.	8r	.	8r	.	2.ryy	.	2.ryy	.	2.ryy	.	4cc\	-a	2.ryy	2.ryy
.	.	8cc\	.	8ee\	.	.	.	.	.	.	.	.	.	.	.
!	!	!LO:TX:a:t=P:mixed beam:problem	!	!	!	!	!	!	!	!	!	!	!	!	!
.	.	8ee\L	.	8gg\L	.	.	.	.	.	.	.	4r	.	.	.
.	.	8e/J	.	8cc\J	.	.	.	.	.	.	.	.	.	.	.
!LO:TX:b:t=V l	!	!LO:TX:a:t=P:mixed beam:problem	!	!	!	!	!	!	!	!	!	!	!	!	!
4E\	-6	16ee\LL	.	16gg\LL	.	.	.	.	.	.	.	4r	.	.	.
.	.	16g/	.	16b-X\	.	.	.	.	.	.	.	.	.	.	.
.	.	16f/	.	16a\	.	.	.	.	.	.	.	.	.	.	.
.	.	16e/JJ	.	16g\JJ	.	.	.	.	.	.	.	.	.	.	.
!	!	!	!	!LO:PB:g=original	!	!	!	!	!	!	!	!	!	!	!
=152	=152	=152	=152	=152	=152	=152	=152	=152	=152	=152	=152	=152-	=152	=152	=152
!	!	!LO:TX:a:t=P:mixed beam:problem	!	!LO:TX:a:t=P:mixed beam:problem	!	!	!	!	!	!	!	!	!	!	!
!	!	!	!	!	!	!	!	!	!	!	!	!LO:N:vis=0	!	!	!
2F\	.	8c/L	.	8a/L	.	2.ryy	.	2.ryy	.	2.ryy	.	1.r	.	2.ryy	2.ryy
.	.	8a/	.	8ff\	.	.	.	.	.	.	.	.	.	.	.
.	.	8ff\	.	8aa\	.	.	.	.	.	.	.	.	.	.	.
.	.	8a/J	.	8cc\J	.	.	.	.	.	.	.	.	.	.	.
!	!	!LO:TX:a:t=P:mixed beam:problem	!	!	!	!	!	!	!	!	!	!	!	!	!
4D/	7 #	16ff\LL	.	16aa\LL	.	.	.	.	.	.	.	.	.	.	.
.	.	16a/	.	16cc\	.	.	.	.	.	.	.	.	.	.	.
.	.	16g/	.	16bn\	.	.	.	.	.	.	.	.	.	.	.
.	.	16f#X/JJ	.	16a\JJ	.	.	.	.	.	.	.	.	.	.	.
=153	=153	=153	=153	=153	=153	=153	=153	=153	=153	=153	=153	=153	=153	=153	=153
!!pagebreak:original
2G\	n	8d/L	.	8b\L	.	2.ryy	.	2.ryy	.	2.ryy	.	.	.	2.ryy	2.ryy
.	.	8b/	.	8dd\	.	.	.	.	.	.	.	.	.	.	.
.	.	8g/	.	8g\	.	.	.	.	.	.	.	.	.	.	.
.	.	8b/J	.	8dd\J	.	.	.	.	.	.	.	.	.	.	.
4GG/	7	8dd\L	.	8ff\L	.	.	.	.	.	.	.	.	.	.	.
.	.	16cc\L	.	16ee\L	.	.	.	.	.	.	.	.	.	.	.
.	.	16b\JJ	.	16dd\JJ	.	.	.	.	.	.	.	.	.	.	.
=154	=154	=154	=154	=154	=154	=154	=154	=154	=154	=154	=154	=154	=154	=154	=154
2C/	.	8cc\L	.	8ee\L	.	2.ryy	.	2.ryy	.	2.ryy	.	2.r	.	2.ryy	2.ryy
.	.	8ee\J	.	8gg\	.	.	.	.	.	.	.	.	.	.	.
!	!	!LO:LB:g=original	!	!	!	!	!	!	!	!	!	!	!	!	!
.	.	8g\L	.	8cc\	.	.	.	.	.	.	.	.	.	.	.
.	.	8ee\J	.	8gg\J	.	.	.	.	.	.	.	.	.	.	.
4CC/	-7	8gg\L	.	8bb-X\L	.	.	.	.	.	.	.	.	.	.	.
.	.	16ff\L	.	16aa\L	.	.	.	.	.	.	.	.	.	.	.
.	.	16ee\JJ	.	16gg\JJ	.	.	.	.	.	.	.	.	.	.	.
=155	=155	=155	=155	=155	=155	=155	=155	=155	=155	=155	=155	=155-	=155	=155	=155
2FF/	.	4ff\	.	4aa\	.	2.ryy	.	2.ryy	.	2.ryy	.	4cc\	jac-	2.ryy	2.ryy
!	!	!	!	!	!LO:DY:b	!	!	!	!	!	!	!	!	!	!
.	.	4r	.	8aa\L	p	.	.	.	.	.	.	(8cc\L	-tu-	.	.
.	.	.	.	8bb-X\	.	.	.	.	.	.	.	8dd\J)	.	.	.
4F\	.	4r	.	8aa\	.	.	.	.	.	.	.	(8cc\L	-ram	.	.
.	.	.	.	8bb-\J	.	.	.	.	.	.	.	8dd\J)	.	.	.
=156	=156	=156	=156	=156	=156	=156	=156	=156	=156	=156	=156	=156	=156	=156	=156
!	!	!LO:N:vis=00	!	!	!	!	!	!	!	!	!	!	!	!	!
2G\	9 4	0.r	.	4aa\	.	2.ryy	.	2.ryy	.	2.ryy	.	4cc\	re-	2.ryy	2.ryy
.	.	.	.	8gg\L	.	.	.	.	.	.	.	8b-X\L	.	.	.
.	.	.	.	8ff\J	.	.	.	.	.	.	.	8a\J	.	.	.
4F\	8_ -3_	.	.	4gg\	.	.	.	.	.	.	.	4b-X\	-rum	.	.
=157	=157	=157	=157	=157	=157	=157	=157	=157	=157	=157	=157	=157	=157	=157	=157
2.E\	6 -5	.	.	4gg\	.	2.ryy	.	2.ryy	.	2.ryy	.	4b-X\	flu-	2.ryy	2.ryy
.	.	.	.	8gg\L	.	.	.	.	.	.	.	(8b-\L	-xum	.	.
.	.	.	.	8aa\	.	.	.	.	.	.	.	8cc\J)	.	.	.
.	.	.	.	8gg\	.	.	.	.	.	.	.	(8b-X\L	di-	.	.
.	.	.	.	8aa\J	.	.	.	.	.	.	.	8cc\J)	.	.	.
!	!	!	!	!LO:LB:g=original	!	!	!	!	!	!	!	!	!	!	!
=158	=158	=158	=158	=158	=158	=158	=158	=158	=158	=158	=158	=158	=158	=158	=158
2F\	9 -4	.	.	4gg\	.	2.ryy	.	2.ryy	.	2.ryy	.	4b-X\	-e-	2.ryy	2.ryy
.	.	.	.	8ff\L	.	.	.	.	.	.	.	(8a\L	.	.	.
.	8_ 3_	.	.	8ee\J	.	.	.	.	.	.	.	8g\J)	.	.	.
4E\	.	.	.	4ff\	.	.	.	.	.	.	.	4a\	-rum	.	.
=159	=159	=159	=159	=159-	=159	=159	=159	=159	=159	=159	=159	=159	=159	=159	=159
!!pagebreak:original
!	!	!	!	!LO:N:vis=00	!	!	!	!	!	!	!	!	!	!	!
2D/	7 #	.	.	0.r	.	2.ryy	.	2.ryy	.	2.ryy	.	4cc\	pe-	2.ryy	2.ryy
.	.	.	.	.	.	.	.	.	.	.	.	(8cc\L	-ren-	.	.
.	.	.	.	.	.	.	.	.	.	.	.	8b-X\J)	.	.	.
!	!	!	!	!	!	!	!	!	!	!	!	!LO:PB:g=original	!	!	!
4c\	6	.	.	.	.	.	.	.	.	.	.	(8a\L	-nis	.	.
.	5	.	.	.	.	.	.	.	.	.	.	8g\J)	.	.	.
=160	=160	=160	=160	=160	=160	=160	=160	=160	=160	=160	=160	=160	=160	=160	=160
!	!	!LO:N:vis=00	!	!	!	!	!	!	!	!	!	!	!	!	!
4d\	#	0.r	.	.	.	2.ryy	.	2.ryy	.	2.ryy	.	4.f#X/	ſe-	2.ryy	2.ryy
8d\L	.	.	.	.	.	.	.	.	.	.	.	.	.	.	.
8c\J	.	.	.	.	.	.	.	.	.	.	.	8f#/	-qui-	.	.
!LO:LB:g=original	!	!	!	!	!	!	!	!	!	!	!	!	!	!	!
8B-X\L	.	.	.	.	.	.	.	.	.	.	.	4g/	-tur	.	.
8A\J	.	.	.	.	.	.	.	.	.	.	.	.	.	.	.
=161	=161	=161	=161	=161	=161	=161	=161	=161	=161	=161	=161	=161	=161	=161	=161
2.G#X\	6 5	.	.	.	.	2.ryy	.	2.ryy	.	2.ryy	.	4ee\	pe-	2.ryy	2.ryy
.	.	.	.	.	.	.	.	.	.	.	.	8ee\L	-ren-	.	.
.	.	.	.	.	.	.	.	.	.	.	.	8dd\J	.	.	.
.	.	.	.	.	.	.	.	.	.	.	.	8cc\L	-nis	.	.
.	.	.	.	.	.	.	.	.	.	.	.	8b\J	.	.	.
=162	=162	=162	=162	=162	=162	=162	=162	=162	=162	=162	=162	=162	=162	=162	=162
4A\	n	.	.	.	.	2.ryy	.	2.ryy	.	2.ryy	.	4.cc\	ſe-	2.ryy	2.ryy
8AA/L	.	.	.	.	.	.	.	.	.	.	.	.	.	.	.
8BB/J	6\	.	.	.	.	.	.	.	.	.	.	8b\	-qui-	.	.
4C/	6	.	.	.	.	.	.	.	.	.	.	4a\	-tur	.	.
=163	=163	=163	=163	=163	=163	=163	=163	=163	=163	=163	=163	=163	=163	=163	=163
!	!	!	!	!LO:N:vis=0	!	!	!	!	!	!	!	!	!	!	!
4D\	6	.	.	1.r	.	2.ryy	.	2.ryy	.	2.ryy	.	(4b\	glo-	2.ryy	2.ryy
4E\	6 4	.	.	.	.	.	.	.	.	.	.	4cc\)	.	.	.
4EE/	5 #	.	.	.	.	.	.	.	.	.	.	8.b\L	.	.	.
.	.	.	.	.	.	.	.	.	.	.	.	16a\Jk	-ri-	.	.
=164	=164	=164	=164	=164	=164	=164	=164	=164	=164	=164	=164	=164	=164	=164	=164
!	!	!LO:N:vis=00	!	!	!	!	!	!	!	!	!	!	!	!	!
4FF/	.	1.r	.	.	.	2.ryy	.	2.ryy	.	2.ryy	.	4a\	-a	2.ryy	2.ryy
4F\	.	.	.	.	.	.	.	.	.	.	.	4r	.	.	.
4E\	.	.	.	.	.	.	.	.	.	.	.	4r	.	.	.
=165	=165	=165	=165	=165	=165	=165	=165	=165	=165	=165	=165	=165	=165	=165	=165
2.D#X/	6 #	.	.	2.r	.	2.ryy	.	2.ryy	.	2.ryy	.	8r	.	2.ryy	2.ryy
.	.	.	.	.	.	.	.	.	.	.	.	8cc\	pe-	.	.
.	.	.	.	.	.	.	.	.	.	.	.	(8b\L	-ren-	.	.
.	.	.	.	.	.	.	.	.	.	.	.	8a\J)	.	.	.
.	.	.	.	.	.	.	.	.	.	.	.	(8g/L	-nis	.	.
.	.	.	.	.	.	.	.	.	.	.	.	8f#X/J)	.	.	.
!	!	!	!	!	!	!	!	!	!	!	!	!LO:PB:g=original	!	!	!
=166	=166	=166-	=166	=166	=166	=166	=166	=166	=166	=166	=166	=166	=166	=166	=166
!!pagebreak:original
4.E\	n	8r	.	8r	.	2.ryy	.	2.ryy	.	2.ryy	.	8g\L	se-	2.ryy	2.ryy
.	.	8g/	.	8b/	.	.	.	.	.	.	.	8b\	.	.	.
.	.	8g/L	.	8ee\L	.	.	.	.	.	.	.	8ee\	.	.	.
8F#X\	6\	8a/	.	8dd#X\	.	.	.	.	.	.	.	8dd#X\	.	.	.
4G\	6	8b/	.	8ee\	.	.	.	.	.	.	.	8ee\	.	.	.
.	.	8g/J	.	8b\J	.	.	.	.	.	.	.	8b\J	.	.	.
=167	=167	=167	=167	=167	=167	=167	=167	=167	=167	=167	=167	=167	=167	=167	=167
4A\	6\	4cc\	.	8ff#X\L	.	2.ryy	.	2.ryy	.	2.ryy	.	8a\	-qui-	2.ryy	2.ryy
.	.	.	.	8ee\J	.	.	.	.	.	.	.	8g/	-tur	.	.
4B\	4	8b/L	.	4.dd#X\	.	.	.	.	.	.	.	4.f#X/	glo-	.	.
.	.	8a/	.	.	.	.	.	.	.	.	.	.	.	.	.
4BB/	#	8g/	.	.	.	.	.	.	.	.	.	.	.	.	.
.	.	8f#X/J	.	8ee\	.	.	.	.	.	.	.	8e/	-ri-	.	.
=168	=168	=168	=168	=168	=168	=168	=168	=168	=168	=168	=168	=168	=168	=168	=168
4AA/	6\ #4 2	4B/	.	4d#X/	.	2.ryy	.	2.ryy	.	2.ryy	.	4f#X/	-a	2.ryy	2.ryy
4r	.	4r	.	4r	.	.	.	.	.	.	.	4r	.	.	.
4r	.	4r	.	4r	.	.	.	.	.	.	.	4r	.	.	.
=169	=169	=169-	=169	=169-	=169	=169	=169	=169	=169	=169	=169	=169	=169	=169	=169
!	!	!LO:N:vis=0	!	!LO:N:vis=0	!	!	!	!	!	!	!	!	!	!	!
4r	.	1.r	.	1.r	.	2.ryy	.	2.ryy	.	2.ryy	.	2.a\	se-	2.ryy	2.ryy
8r	.	.	.	.	.	.	.	.	.	.	.	.	.	.	.
8BB/L	7_ #_	.	.	.	.	.	.	.	.	.	.	.	.	.	.
8C#X/	.	.	.	.	.	.	.	.	.	.	.	.	.	.	.
8D#X/J	.	.	.	.	.	.	.	.	.	.	.	.	.	.	.
!LO:LB:g=original	!	!	!	!	!	!	!	!	!	!	!	!	!	!	!
=170	=170	=170	=170	=170	=170	=170	=170	=170	=170	=170	=170	=170	=170	=170	=170
8E\L	n	.	.	.	.	2.ryy	.	2.ryy	.	2.ryy	.	8g/	-qui-	2.ryy	2.ryy
8A\J	6\	.	.	.	.	.	.	.	.	.	.	8f#X/	-tur	.	.
!LO:TX:a:t=P:mixed beam:problem	!	!	!	!	!	!	!	!	!	!	!	!	!	!	!
8B\L	#5 4	.	.	.	.	.	.	.	.	.	.	4.f#/	glo-	.	.
8A\	.	.	.	.	.	.	.	.	.	.	.	.	.	.	.
8B\	#	.	.	.	.	.	.	.	.	.	.	.	.	.	.
8BB/J	.	.	.	.	.	.	.	.	.	.	.	8e/	-ri-	.	.
=171	=171	=171	=171	=171	=171	=171	=171	=171	=171	=171	=171	=171	=171	=171	=171
4E\	n	2.r	.	2.r	.	2.ryy	.	2.ryy	.	2.ryy	.	2.e/	-a	2.ryy	2.ryy
8E\L	#	.	.	.	.	.	.	.	.	.	.	.	.	.	.
8D\	.	.	.	.	.	.	.	.	.	.	.	.	.	.	.
8C\	.	.	.	.	.	.	.	.	.	.	.	.	.	.	.
8BB\J	.	.	.	.	.	.	.	.	.	.	.	.	.	.	.
=172	=172	=172-	=172	=172-	=172	=172	=172	=172	=172	=172	=172	=172	=172	=172	=172
!!pagebreak:original
4AA/	.	4cc\	.	4ee\	.	2.ryy	.	2.ryy	.	2.ryy	.	4ee\	lon-	2.ryy	2.ryy
4r	.	4c/	.	4a/	.	.	.	.	.	.	.	4a\	-gos	.	.
4r	.	4dd\	.	4ff\	.	.	.	.	.	.	.	4ff\	la-	.	.
=173	=173	=173	=173	=173	=173	=173	=173	=173	=173	=173	=173	=173	=173	=173	=173
4E\	#	4e/	.	4g#X/	.	2.ryy	.	2.ryy	.	2.ryy	.	4g#X/	-bo-	2.ryy	2.ryy
4AA/	.	4c/	.	4a/	.	.	.	.	.	.	.	4a\	-res	.	.
4F\	.	8r	.	8r	.	.	.	.	.	.	.	4r	.	.	.
.	.	8a/	.	8a/	.	.	.	.	.	.	.	.	.	.	.
!	!	!	!	!	!	!	!	!	!	!	!	!LO:PB:g=original	!	!	!
=174	=174	=174	=174	=174	=174	=174	=174	=174	=174	=174	=174	=174	=174	=174	=174
4GG#X/	5	(8b/L	.	(8dd\L	.	2.ryy	.	2.ryy	.	2.ryy	.	(8dd\L	lon-	2.ryy	2.ryy
.	.	8g#X/J)	.	8b\J)	.	.	.	.	.	.	.	8b\J)	.	.	.
!	!	!	!	!LO:TX:a:t=P:mixed beam:problem	!	!	!	!	!	!	!	!LO:TX:a:t=P:mixed beam:problem	!	!	!
4AA/	n	(8e/L	.	(8e/L	.	.	.	.	.	.	.	(8e/L	-gos	.	.
.	.	8a/J)	.	8cc\)	.	.	.	.	.	.	.	8cc\J)	.	.	.
!	!	!LO:PB:g=original	!	!	!	!	!	!	!	!	!	!	!	!	!
8r	.	(8b/L	.	(8ee\	.	.	.	.	.	.	.	(8ee\L	ſu-	.	.
8E\	#	8g#X/J)	.	8b\J)	.	.	.	.	.	.	.	8b\J)	.	.	.
!	!	!	!	!LO:LB:g=original	!	!	!	!	!	!	!	!	!	!	!
=175	=175	=175	=175	=175	=175	=175	=175	=175	=175	=175	=175	=175	=175	=175	=175
4AA/	.	4a/	.	4cc\	.	2.ryy	.	2.ryy	.	2.ryy	.	4cc\	-do-	2.ryy	2.ryy
!LO:TX:b:t=V l	!	!	!	!	!	!	!	!	!	!	!	!	!	!	!
4A\	.	4e/	.	4a/	.	.	.	.	.	.	.	4a\	-res	.	.
4r	.	4r	.	8r	.	.	.	.	.	.	.	4r	.	.	.
.	.	.	.	8ee\	.	.	.	.	.	.	.	.	.	.	.
=176	=176	=176	=176	=176	=176	=176	=176	=176	=176	=176	=176	=176	=176	=176	=176
!	!	!	!LO:DY:a	!	!	!	!	!	!	!	!	!	!	!	!
!	!	!	!	!	!	!	!	!	!	!	!	!LO:N:vis=00	!	!	!
4r	.	8cc#X\L	f	8ee\L	.	2.ryy	.	2.ryy	.	2.ryy	.	0.r	.	2.ryy	2.ryy
.	.	(16dd\L	.	(16ff\L	.	.	.	.	.	.	.	.	.	.	.
.	.	16cc#\JJ)	.	16ee\JJ)	.	.	.	.	.	.	.	.	.	.	.
4A\	7 #	8cc#\L	.	8ee\L	.	.	.	.	.	.	.	.	.	.	.
.	.	(16dd\L	.	(16ff\L	.	.	.	.	.	.	.	.	.	.	.
.	.	16cc#\JJ)	.	16ee\JJ)	.	.	.	.	.	.	.	.	.	.	.
!	!	!LO:TX:a:t=P:mixed beam:problem	!	!LO:TX:a:t=P:mixed beam:problem	!	!	!	!	!	!	!	!	!	!	!
4AA/	.	8e/L	.	8g/L	.	.	.	.	.	.	.	.	.	.	.
.	.	8cc#X\J	.	8ee\J	.	.	.	.	.	.	.	.	.	.	.
=177	=177	=177	=177	=177	=177	=177	=177	=177	=177	=177	=177	=177	=177	=177	=177
.	x 9	.	.	.	.	.	.	.	.	.	.	.	.	.	.
4D/	-	4a/	.	(8ee\L	.	2.ryy	.	2.ryy	.	2.ryy	.	.	.	2.ryy	2.ryy
.	x 8	.	.	8dd\J)	.	.	.	.	.	.	.	.	.	.	.
4G\	7 n	8b\L	.	8dd\L	.	.	.	.	.	.	.	.	.	.	.
.	.	(16cc\L	.	(16ee\L	.	.	.	.	.	.	.	.	.	.	.
.	.	16b\JJ)	.	16dd\JJ)	.	.	.	.	.	.	.	.	.	.	.
!	!	!	!	!LO:TX:a:t=P:mixed beam:problem	!	!	!	!	!	!	!	!	!	!	!
4GG/	.	8d/L	.	8f/L	.	.	.	.	.	.	.	.	.	.	.
.	.	8b/J	.	8dd\J	.	.	.	.	.	.	.	.	.	.	.
=178	=178	=178	=178	=178	=178	=178	=178	=178	=178	=178	=178	=178	=178	=178	=178
!!pagebreak:original
4C/	9	4g/	.	(8dd\L	.	2.ryy	.	2.ryy	.	2.ryy	.	.	.	2.ryy	2.ryy
.	8	.	.	8cc\J)	.	.	.	.	.	.	.	.	.	.	.
4F\	.	8a/L	.	8cc\L	.	.	.	.	.	.	.	.	.	.	.
.	.	(16b-X/L	.	(16dd\L	.	.	.	.	.	.	.	.	.	.	.
.	.	16a/JJ)	.	16cc\JJ)	.	.	.	.	.	.	.	.	.	.	.
!	!	!	!	!LO:TX:a:t=P:mixed beam:problem	!	!	!	!	!	!	!	!	!	!	!
4FF/	-7	8c/L	.	8e-X/L	.	.	.	.	.	.	.	.	.	.	.
.	.	8a/J	.	8cc\J	.	.	.	.	.	.	.	.	.	.	.
!LO:LB:g=original	!	!	!	!	!	!	!	!	!	!	!	!	!	!	!
=179	=179	=179	=179	=179	=179	=179	=179	=179	=179	=179	=179	=179	=179	=179	=179
4BB-X/	9	4f/	.	8cc\L	.	2.ryy	.	2.ryy	.	2.ryy	.	.	.	2.ryy	2.ryy
.	8	.	.	8b-X\	.	.	.	.	.	.	.	.	.	.	.
4r	.	(8d/L	.	8b-\	.	.	.	.	.	.	.	.	.	.	.
.	.	8c/)	.	8a\	.	.	.	.	.	.	.	.	.	.	.
4r	.	(8c/	.	8a\	.	.	.	.	.	.	.	.	.	.	.
.	.	8B/J)	.	8g#X\J	.	.	.	.	.	.	.	.	.	.	.
!	!	!	!	!LO:LB:g=original	!	!	!	!	!	!	!	!	!	!	!
=180	=180	=180	=180	=180	=180	=180	=180	=180	=180	=180	=180	=180	=180	=180	=180
!	!	!	!	!	!	!	!	!	!	!	!	!LO:N:vis=00	!	!	!
8E\L	#_	4B/	.	4g#X/	.	2.ryy	.	2.ryy	.	2.ryy	.	0.r	.	2.ryy	2.ryy
16F\L	.	.	.	.	.	.	.	.	.	.	.	.	.	.	.
16E\JJ	.	.	.	.	.	.	.	.	.	.	.	.	.	.	.
8E\L	.	4r	.	4r	.	.	.	.	.	.	.	.	.	.	.
16F\L	.	.	.	.	.	.	.	.	.	.	.	.	.	.	.
16E\JJ	.	.	.	.	.	.	.	.	.	.	.	.	.	.	.
!LO:TX:a:t=P:mixed beam:problem	!	!	!	!	!	!	!	!	!	!	!	!	!	!	!
8GG#X/L	6	4r	.	4r	.	.	.	.	.	.	.	.	.	.	.
8E\J	#	.	.	.	.	.	.	.	.	.	.	.	.	.	.
=181	=181	=181	=181	=181-	=181	=181	=181	=181	=181	=181	=181	=181	=181	=181	=181
4C/	6	8a/L	.	2.r	.	2.ryy	.	2.ryy	.	2.ryy	.	.	.	2.ryy	2.ryy
.	.	(16b/L	.	.	.	.	.	.	.	.	.	.	.	.	.
.	.	16a/JJ)	.	.	.	.	.	.	.	.	.	.	.	.	.
!	!	!LO:LB:g=original	!	!	!	!	!	!	!	!	!	!	!	!	!
4AA/	.	8a/L	.	.	.	.	.	.	.	.	.	.	.	.	.
.	.	(16b/L	.	.	.	.	.	.	.	.	.	.	.	.	.
.	.	16a/JJ)	.	.	.	.	.	.	.	.	.	.	.	.	.
4A\	.	8c/L	.	.	.	.	.	.	.	.	.	.	.	.	.
.	.	8a/J	.	.	.	.	.	.	.	.	.	.	.	.	.
=182	=182	=182	=182	=182-	=182	=182	=182	=182	=182	=182	=182	=182	=182	=182	=182
2.G#X\	6 5	8b\L	.	8dd\L	.	2.ryy	.	2.ryy	.	2.ryy	.	.	.	2.ryy	2.ryy
.	.	(16cc\L	.	(16ee\L	.	.	.	.	.	.	.	.	.	.	.
.	.	16b\JJ)	.	16dd\JJ)	.	.	.	.	.	.	.	.	.	.	.
.	.	8b\L	.	8dd\L	.	.	.	.	.	.	.	.	.	.	.
.	.	(16cc\L	.	(16ee\L	.	.	.	.	.	.	.	.	.	.	.
.	.	16b\JJ)	.	16dd\JJ)	.	.	.	.	.	.	.	.	.	.	.
!	!	!	!	!LO:TX:a:t=P:mixed beam:problem	!	!	!	!	!	!	!	!	!	!	!
.	.	8e/L	.	8e/L	.	.	.	.	.	.	.	.	.	.	.
.	.	8b/J	.	8dd\J	.	.	.	.	.	.	.	.	.	.	.
=183	=183	=183	=183	=183	=183	=183	=183	=183	=183	=183	=183	=183	=183	=183	=183
!!pagebreak:original
2.A\	n	8a\L	.	8cc\L	.	2.ryy	.	2.ryy	.	2.ryy	.	.	.	2.ryy	2.ryy
.	.	8cc\J	.	8ee\	.	.	.	.	.	.	.	.	.	.	.
.	.	(8cc\L	.	(8ee\	.	.	.	.	.	.	.	.	.	.	.
.	.	8b\)	.	8dd\)	.	.	.	.	.	.	.	.	.	.	.
.	.	(8b\	.	(8dd\	.	.	.	.	.	.	.	.	.	.	.
.	.	8a\J)	.	8cc\J)	.	.	.	.	.	.	.	.	.	.	.
=184	=184	=184	=184	=184	=184	=184	=184	=184	=184	=184	=184	=184	=184	=184	=184
!	!	!LO:TX:a:t=P:mixed beam:problem	!	!	!	!	!	!	!	!	!	!	!	!	!
!	!	!	!	!	!	!	!	!	!	!	!	!LO:N:vis=00	!	!	!
2D/	n	8f/L	.	8dd\L	.	2.ryy	.	2.ryy	.	2.ryy	.	0.r	.	2.ryy	2.ryy
.	.	8dd\J	.	8ff\	.	.	.	.	.	.	.	.	.	.	.
.	.	8dd\L	.	8ff\	.	.	.	.	.	.	.	.	.	.	.
.	.	8cc\	.	8ee\	.	.	.	.	.	.	.	.	.	.	.
4r	.	8b\	.	8dd\	.	.	.	.	.	.	.	.	.	.	.
.	.	8a\J	.	8cc\J	.	.	.	.	.	.	.	.	.	.	.
=185	=185	=185	=185	=185	=185	=185	=185	=185	=185	=185	=185	=185	=185	=185	=185
8r	.	4g#X/	.	4b/	.	2.ryy	.	2.ryy	.	2.ryy	.	.	.	2.ryy	2.ryy
8E\L	#	.	.	.	.	.	.	.	.	.	.	.	.	.	.
8E\	.	8r	.	8r	.	.	.	.	.	.	.	.	.	.	.
8D\	.	8e/L	.	8b/	.	.	.	.	.	.	.	.	.	.	.
8C\	.	8a/	.	8ee\L	.	.	.	.	.	.	.	.	.	.	.
8BB\J	.	8b/J	.	8gg#X\J	.	.	.	.	.	.	.	.	.	.	.
=186	=186	=186	=186	=186	=186	=186	=186	=186	=186	=186	=186	=186	=186	=186	=186
!LO:SIC:o:s=:v:nieczytelne cyfrowanie	!	!	!	!LO:TX:a:t=P:mixed beam:problem	!	!	!	!	!	!	!	!	!	!	!
4AA/	.	8cc\L	.	8aa\L	.	2.ryy	.	2.ryy	.	2.ryy	.	.	.	2.ryy	2.ryy
.	.	16b\L	.	8b/J	.	.	.	.	.	.	.	.	.	.	.
.	.	16a\JJ	.	.	.	.	.	.	.	.	.	.	.	.	.
4D/	.	4a/	.	2b/	.	.	.	.	.	.	.	.	.	.	.
4E\	.	4g#X/	.	.	.	.	.	.	.	.	.	.	.	.	.
!LO:LB:g=original	!	!LO:LB:g=original	!	!LO:LB:g=original	!	!	!	!	!	!	!	!	!	!	!
=187	=187	=187	=187	=187	=187	=187	=187	=187	=187	=187	=187	=187	=187	=187	=187
4AA/	.	8a/L	.	8a/L	.	2.ryy	.	2.ryy	.	2.ryy	.	.	.	2.ryy	2.ryy
.	.	8c/	.	8e/	.	.	.	.	.	.	.	.	.	.	.
4r	.	(8d/	.	(8f/	.	.	.	.	.	.	.	.	.	.	.
.	.	8c/)	.	8e/)	.	.	.	.	.	.	.	.	.	.	.
4r	.	(8d/	.	(8f/	.	.	.	.	.	.	.	.	.	.	.
.	.	8c/J)	.	8e/J)	.	.	.	.	.	.	.	.	.	.	.
=188	=188	=188	=188	=188	=188	=188	=188	=188	=188	=188	=188	=188	=188	=188	=188
!	!	!	!	!	!	!	!	!	!	!	!	!LO:N:vis=0	!	!	!
4D/	6	8B/L	.	8d/L	.	2.ryy	.	2.ryy	.	2.ryy	.	1.r	.	2.ryy	2.ryy
.	.	8B/	.	8d/	.	.	.	.	.	.	.	.	.	.	.
4r	.	(8c/	.	(8e/	.	.	.	.	.	.	.	.	.	.	.
.	.	8B/)	.	8d/)	.	.	.	.	.	.	.	.	.	.	.
4r	.	(8c/	.	(8e/	.	.	.	.	.	.	.	.	.	.	.
.	.	8B/J)	.	8d/J)	.	.	.	.	.	.	.	.	.	.	.
=189	=189	=189	=189	=189	=189	=189	=189	=189	=189	=189	=189	=189	=189	=189	=189
!!pagebreak:original
8r	.	4A/	.	8c/L	.	2.ryy	.	2.ryy	.	2.ryy	.	.	.	2.ryy	2.ryy
8D/	6 5	.	.	8B/J	.	.	.	.	.	.	.	.	.	.	.
4E\	5 4	4A/	.	4.B/	.	.	.	.	.	.	.	.	.	.	.
4EE/	.	4G#X/	.	.	.	.	.	.	.	.	.	.	.	.	.
.	.	.	.	8A/	.	.	.	.	.	.	.	.	.	.	.
=190	=190	=190	=190	=190	=190	=190	=190	=190	=190	=190	=190	=190	=190	=190	=190
2.AA/	.	2.A;;/	.	2.A/	.	2.ryy	.	2.ryy	.	2.ryy	.	2.r	.	2.ryy	2.ryy
!LO:TX:b:t=Exultate Da Capo	!	!LO:TX:b:t=Exultate Da Capo	!	!LO:TX:b:t=Exultate Da Capo	!	!LO:TX:b:t=Exultate Da Capo	!	!LO:TX:b:t=Exultate Da Capo	!	!LO:TX:b:t=Exultate Da Capo	!	!LO:TX:b:t=Exultate Da Capo	!	!LO:TX:b:t=Exultate Da Capo	!LO:TX:b:t=Exultate Da Capo
==:||:	==	==:||:	==	==:||:	==	==	==	==	==	==	==	==	==	==	==
*-	*-	*-	*-	*-	*-	*-	*-	*-	*-	*-	*-	*-	*-	*-	*-
!!!system-decoration: [(s1,s2)][(s3,s4,s5,s6)][(s7,s8,s9)]
!!!RDF**kern: > = above
!!!RDF**kern: < = below
!!!RDF**dynam: p = piano
!!!RDF**dynam: f = forte
!!!EED: Leszek Kubiak
!!!EST: 2020-11-07
!!!ENC: Andrzej Borzym
!!!END: 2020-05-05
!!!RDF**kern: | = vertical stroke
